project/modules/step7_final_render/luts/food.cube
TITLE "Food"
LUT_3D_SIZE 5
DOMAIN_MIN 0.0 0.0 0.0
DOMAIN_MAX 1.0 1.0 1.0
0.032470 0.009470 0.000000
0.362590 0.000055 0.000000
0.640015 0.000000 0.000000
0.900508 0.000000 0.000000
1.000000 0.000000 0.000000
0.002917 0.296715 0.000000
0.333037 0.287300 0.000000
0.610462 0.279387 0.000000
0.870955 0.271958 0.000000
1.000000 0.265782 0.000000
0.000000 0.556751 0.000000
0.306284 0.547335 0.000000
0.583708 0.539423 0.000000
0.844201 0.531993 0.000000
1.000000 0.525817 0.000000
0.000000 0.807419 0.000000
0.280494 0.798003 0.000000
0.557918 0.790091 0.000000
0.818411 0.782661 0.000000
1.000000 0.776485 0.000000
0.000000 1.000000 0.000000
0.256383 1.000000 0.000000
0.533808 1.000000 0.000000
0.794301 1.000000 0.000000
1.000000 1.000000 0.000000
0.030395 0.007395 0.216334
0.360514 0.000000 0.206918
0.637939 0.000000 0.199006
0.898432 0.000000 0.191576
1.000000 0.000000 0.185401
0.000841 0.294639 0.186781
0.330961 0.285224 0.177365
0.608386 0.277311 0.169453
0.868879 0.269882 0.162023
1.000000 0.263706 0.155847
0.000000 0.554675 0.160027
0.304208 0.545259 0.150612
0.581632 0.537347 0.142699
0.842125 0.529917 0.135269
1.000000 0.523742 0.129094
0.000000 0.805343 0.134237
0.278418 0.795927 0.124822
0.555842 0.788015 0.116909
0.816335 0.780585 0.109480
1.000000 0.774409 0.103304
0.000000 1.000000 0.110127
0.254307 1.000000 0.100711
0.531732 1.000000 0.092799
0.792225 1.000000 0.085369
1.000000 1.000000 0.079193
0.027704 0.004704 0.499312
0.357824 0.000000 0.489897
0.635249 0.000000 0.481984
0.895742 0.000000 0.474555
1.000000 0.000000 0.468379
0.000000 0.291949 0.469759
0.328271 0.282533 0.460344
0.605696 0.274621 0.452431
0.866189 0.267191 0.445001
1.000000 0.261016 0.438826
0.000000 0.551985 0.443005
0.301517 0.542569 0.433590
0.578942 0.534657 0.425677
0.839435 0.527227 0.418248
1.000000 0.521051 0.412072
0.000000 0.802652 0.417215
0.275728 0.793237 0.407800
0.553152 0.785324 0.399887
0.813645 0.777895 0.392458
1.000000 0.771719 0.386282
0.000000 1.000000 0.393105
0.251617 1.000000 0.383690
0.529042 1.000000 0.375777
0.789534 1.000000 0.368347
1.000000 1.000000 0.362172
0.024840 0.001840 0.800573
0.354960 0.000000 0.791158
0.632385 0.000000 0.783245
0.892878 0.000000 0.775816
1.000000 0.000000 0.769640
0.000000 0.289085 0.771020
0.325407 0.279669 0.761605
0.602832 0.271757 0.753692
0.863325 0.264327 0.746263
1.000000 0.258152 0.740087
0.000000 0.549121 0.744266
0.298653 0.539705 0.734851
0.576078 0.531793 0.726938
0.836571 0.524363 0.719509
1.000000 0.518187 0.713333
0.000000 0.799788 0.718476
0.272863 0.790373 0.709061
0.550288 0.782460 0.701149
0.810781 0.775031 0.693719
1.000000 0.768855 0.687543
0.000000 1.000000 0.694366
0.248753 1.000000 0.684951
0.526178 1.000000 0.677038
0.786670 1.000000 0.669608
1.000000 1.000000 0.663433
0.021857 0.000000 1.000000
0.351977 0.000000 1.000000
0.629402 0.000000 1.000000
0.889895 0.000000 1.000000
1.000000 0.000000 1.000000
0.000000 0.286102 1.000000
0.322424 0.276686 1.000000
0.599849 0.268774 1.000000
0.860341 0.261344 1.000000
1.000000 0.255168 1.000000
0.000000 0.546137 1.000000
0.295670 0.536722 1.000000
0.573095 0.528809 1.000000
0.833588 0.521380 1.000000
1.000000 0.515204 1.000000
0.000000 0.796805 1.000000
0.269880 0.787390 1.000000
0.547305 0.779477 1.000000
0.807798 0.772048 1.000000
1.000000 0.765872 1.000000
0.000000 1.000000 1.000000
0.245770 1.000000 0.998734
0.523194 1.000000 0.990822
0.783687 1.000000 0.983392
1.000000 1.000000 0.977217
