project/modules/step7_final_render/luts/food.cube
TITLE "Food"
LUT_3D_SIZE 9
DOMAIN_MIN 0.0 0.0 0.0
DOMAIN_MAX 1.0 1.0 1.0
0.032470 0.009470 0.000000
0.211847 0.004354 0.000000
0.362590 0.000055 0.000000
0.504134 0.000000 0.000000
0.640015 0.000000 0.000000
0.771836 0.000000 0.000000
0.900508 0.000000 0.000000
1.000000 0.000000 0.000000
1.000000 0.000000 0.000000
0.016959 0.160233 0.000000
0.196336 0.155117 0.000000
0.347079 0.150818 0.000000
0.488623 0.146781 0.000000
0.624504 0.142905 0.000000
0.756324 0.139146 0.000000
0.884997 0.135476 0.000000
1.000000 0.131879 0.000000
1.000000 0.129300 0.000000
0.002917 0.296715 0.000000
0.182294 0.291599 0.000000
0.333037 0.287300 0.000000
0.474581 0.283263 0.000000
0.610462 0.279387 0.000000
0.742283 0.275627 0.000000
0.870955 0.271958 0.000000
0.997067 0.268361 0.000000
1.000000 0.265782 0.000000
0.000000 0.428280 0.000000
0.168758 0.423164 0.000000
0.319501 0.418865 0.000000
0.461045 0.414828 0.000000
0.596926 0.410952 0.000000
0.728746 0.407193 0.000000
0.857419 0.403523 0.000000
0.983531 0.399926 0.000000
1.000000 0.397347 0.000000
0.000000 0.556751 0.000000
0.155540 0.551635 0.000000
0.306284 0.547335 0.000000
0.447827 0.543298 0.000000
0.583708 0.539423 0.000000
0.715529 0.535663 0.000000
0.844201 0.531993 0.000000
0.970313 0.528396 0.000000
1.000000 0.525817 0.000000
0.000000 0.682968 0.000000
0.142554 0.677852 0.000000
0.293298 0.673553 0.000000
0.434841 0.669516 0.000000
0.570722 0.665640 0.000000
0.702543 0.661881 0.000000
0.831215 0.658211 0.000000
0.957327 0.654614 0.000000
1.000000 0.652035 0.000000
0.000000 0.807419 0.000000
0.129750 0.802303 0.000000
0.280494 0.798003 0.000000
0.422037 0.793966 0.000000
0.557918 0.790091 0.000000
0.689739 0.786331 0.000000
0.818411 0.782661 0.000000
0.944523 0.779064 0.000000
1.000000 0.776485 0.000000
0.000000 0.930419 0.000000
0.117095 0.925303 0.000000
0.267839 0.921003 0.000000
0.409382 0.916966 0.000000
0.545264 0.913091 0.000000
0.677084 0.909331 0.000000
0.805756 0.905661 0.000000
0.931868 0.902064 0.000000
1.000000 0.899485 0.000000
0.000000 1.000000 0.000000
0.105640 1.000000 0.000000
0.256383 1.000000 0.000000
0.397927 1.000000 0.000000
0.533808 1.000000 0.000000
0.665628 1.000000 0.000000
0.794301 1.000000 0.000000
0.920413 1.000000 0.000000
1.000000 1.000000 0.000000
0.031632 0.008632 0.086137
0.211009 0.003516 0.081021
0.361752 0.000000 0.076722
0.503296 0.000000 0.072685
0.639177 0.000000 0.068809
0.770997 0.000000 0.065050
0.899670 0.000000 0.061380
1.000000 0.000000 0.057783
1.000000 0.000000 0.055204
0.016121 0.159395 0.070626
0.195498 0.154279 0.065510
0.346241 0.149980 0.061211
0.487784 0.145943 0.057174
0.623666 0.142067 0.053298
0.755486 0.138307 0.049538
0.884159 0.134637 0.045868
1.000000 0.131041 0.042272
1.000000 0.128462 0.039693
0.002079 0.295877 0.056584
0.181456 0.290761 0.051468
0.332199 0.286461 0.047169
0.473742 0.282424 0.043132
0.609624 0.278549 0.039256
0.741444 0.274789 0.035496
0.870117 0.271119 0.031827
0.996229 0.267522 0.028230
1.000000 0.264944 0.025651
0.000000 0.427442 0.043048
0.167920 0.422326 0.037932
0.318663 0.418027 0.033633
0.460206 0.413990 0.029596
0.596088 0.410114 0.025720
0.727908 0.406354 0.021960
0.856581 0.402684 0.018290
0.982692 0.399088 0.014694
1.000000 0.396509 0.012115
0.000000 0.555913 0.029830
0.154702 0.550797 0.024714
0.305445 0.546497 0.020415
0.446989 0.542460 0.016378
0.582870 0.538585 0.012502
0.714691 0.534825 0.008743
0.843363 0.531155 0.005073
0.969475 0.527558 0.001476
1.000000 0.524979 0.000000
0.000000 0.682130 0.016845
0.141716 0.677014 0.011729
0.292460 0.672715 0.007429
0.434003 0.668678 0.003392
0.569884 0.664802 0.000000
0.701705 0.661042 0.000000
0.830377 0.657372 0.000000
0.956489 0.653776 0.000000
1.000000 0.651197 0.000000
0.000000 0.806580 0.004041
0.128912 0.801464 0.000000
0.279656 0.797165 0.000000
0.421199 0.793128 0.000000
0.557080 0.789252 0.000000
0.688901 0.785493 0.000000
0.817573 0.781823 0.000000
0.943685 0.778226 0.000000
1.000000 0.775647 0.000000
0.000000 0.929580 0.000000
0.116257 0.924464 0.000000
0.267001 0.920165 0.000000
0.408544 0.916128 0.000000
0.544425 0.912252 0.000000
0.676246 0.908493 0.000000
0.804918 0.904823 0.000000
0.931030 0.901226 0.000000
1.000000 0.898647 0.000000
0.000000 1.000000 0.000000
0.104802 1.000000 0.000000
0.255545 1.000000 0.000000
0.397088 1.000000 0.000000
0.532970 1.000000 0.000000
0.664790 1.000000 0.000000
0.793463 1.000000 0.000000
0.919574 1.000000 0.000000
1.000000 1.000000 0.000000
0.030395 0.007395 0.216334
0.209771 0.002278 0.211218
0.360514 0.000000 0.206918
0.502058 0.000000 0.202881
0.637939 0.000000 0.199006
0.769760 0.000000 0.195246
0.898432 0.000000 0.191576
1.000000 0.000000 0.187979
1.000000 0.000000 0.185401
0.014883 0.158157 0.200823
0.194260 0.153041 0.195707
0.345003 0.148742 0.191407
0.486547 0.144705 0.187370
0.622428 0.140829 0.183495
0.754248 0.137070 0.179735
0.882921 0.133400 0.176065
1.000000 0.129803 0.172468
1.000000 0.127224 0.169889
0.000841 0.294639 0.186781
0.180218 0.289523 0.181665
0.330961 0.285224 0.177365
0.472505 0.281187 0.173328
0.608386 0.277311 0.169453
0.740207 0.273551 0.165693
0.868879 0.269882 0.162023
0.994991 0.266285 0.158426
1.000000 0.263706 0.155847
0.000000 0.426204 0.173245
0.166682 0.421088 0.168129
0.317425 0.416789 0.163829
0.458969 0.412752 0.159792
0.594850 0.408876 0.155917
0.726670 0.405117 0.152157
0.855343 0.401447 0.148487
0.981455 0.397850 0.144890
1.000000 0.395271 0.142311
0.000000 0.554675 0.160027
0.153464 0.549559 0.154911
0.304208 0.545259 0.150612
0.445751 0.541222 0.146575
0.581632 0.537347 0.142699
0.713453 0.533587 0.138939
0.842125 0.529917 0.135269
0.968237 0.526320 0.131673
1.000000 0.523742 0.129094
0.000000 0.680892 0.147041
0.140478 0.675776 0.141925
0.291222 0.671477 0.137626
0.432765 0.667440 0.133589
0.568646 0.663564 0.129713
0.700467 0.659805 0.125953
0.829139 0.656135 0.122284
0.955251 0.652538 0.118687
1.000000 0.649959 0.116108
0.000000 0.805343 0.134237
0.127674 0.800227 0.129121
0.278418 0.795927 0.124822
0.419961 0.791890 0.120785
0.555842 0.788015 0.116909
0.687663 0.784255 0.113149
0.816335 0.780585 0.109480
0.942447 0.776988 0.105883
1.000000 0.774409 0.103304
0.000000 0.928343 0.121582
0.115019 0.923227 0.116466
0.265763 0.918927 0.112167
0.407306 0.914890 0.108130
0.543188 0.911015 0.104254
0.675008 0.907255 0.100495
0.803680 0.903585 0.096825
0.929792 0.899988 0.093228
1.000000 0.897409 0.090649
0.000000 1.000000 0.110127
0.103564 1.000000 0.105011
0.254307 1.000000 0.100711
0.395851 1.000000 0.096674
0.531732 1.000000 0.092799
0.663552 1.000000 0.089039
0.792225 1.000000 0.085369
0.918337 1.000000 0.081772
1.000000 1.000000 0.079193
0.029077 0.006077 0.354942
0.208453 0.000961 0.349826
0.359197 0.000000 0.345527
0.500740 0.000000 0.341490
0.636621 0.000000 0.337614
0.768442 0.000000 0.333854
0.897114 0.000000 0.330185
1.000000 0.000000 0.326588
1.000000 0.000000 0.324009
0.013566 0.156840 0.339431
0.192942 0.151723 0.334315
0.343686 0.147424 0.330015
0.485229 0.143387 0.325978
0.621110 0.139512 0.322103
0.752931 0.135752 0.318343
0.881603 0.132082 0.314673
1.000000 0.128485 0.311076
1.000000 0.125906 0.308498
0.000000 0.293321 0.325389
0.178900 0.288205 0.320273
0.329644 0.283906 0.315974
0.471187 0.279869 0.311937
0.607068 0.275993 0.308061
0.738889 0.272234 0.304301
0.867561 0.268564 0.300631
0.993673 0.264967 0.297035
1.000000 0.262388 0.294456
0.000000 0.424887 0.311853
0.165364 0.419770 0.306737
0.316108 0.415471 0.302438
0.457651 0.411434 0.298401
0.593532 0.407559 0.294525
0.725353 0.403799 0.290765
0.854025 0.400129 0.287095
0.980137 0.396532 0.283499
1.000000 0.393953 0.280920
0.000000 0.553357 0.298635
0.152146 0.548241 0.293519
0.302890 0.543942 0.289220
0.444433 0.539905 0.285183
0.580315 0.536029 0.281307
0.712135 0.532269 0.277548
0.840807 0.528599 0.273878
0.966919 0.525003 0.270281
1.000000 0.522424 0.267702
0.000000 0.679575 0.285649
0.139161 0.674458 0.280533
0.289904 0.670159 0.276234
0.431447 0.666122 0.272197
0.567329 0.662247 0.268322
0.699149 0.658487 0.264562
0.827822 0.654817 0.260892
0.953933 0.651220 0.257295
1.000000 0.648641 0.254716
0.000000 0.804025 0.272845
0.126357 0.798909 0.267729
0.277100 0.794609 0.263430
0.418643 0.790572 0.259393
0.554525 0.786697 0.255517
0.686345 0.782937 0.251758
0.815018 0.779267 0.248088
0.941129 0.775670 0.244491
1.000000 0.773092 0.241912
0.000000 0.927025 0.260191
0.113702 0.921909 0.255075
0.264445 0.917610 0.250775
0.405989 0.913573 0.246738
0.541870 0.909697 0.242863
0.673690 0.905937 0.239103
0.802363 0.902267 0.235433
0.928475 0.898671 0.231836
1.000000 0.896092 0.229257
0.000000 1.000000 0.248735
0.102246 1.000000 0.243619
0.252990 1.000000 0.239319
0.394533 1.000000 0.235282
0.530414 1.000000 0.231407
0.662235 1.000000 0.227647
0.790907 1.000000 0.223977
0.917019 1.000000 0.220380
1.000000 1.000000 0.217802
0.027704 0.004704 0.499312
0.207081 0.000000 0.494196
0.357824 0.000000 0.489897
0.499368 0.000000 0.485860
0.635249 0.000000 0.481984
0.767069 0.000000 0.478224
0.895742 0.000000 0.474555
1.000000 0.000000 0.470958
1.000000 0.000000 0.468379
0.012193 0.155467 0.483801
0.191570 0.150351 0.478685
0.342313 0.146052 0.474386
0.483856 0.142015 0.470349
0.619738 0.138139 0.466473
0.751558 0.134379 0.462713
0.880231 0.130709 0.459043
1.000000 0.127113 0.455447
1.000000 0.124534 0.452868
0.000000 0.291949 0.469759
0.177528 0.286833 0.464643
0.328271 0.282533 0.460344
0.469814 0.278496 0.456307
0.605696 0.274621 0.452431
0.737516 0.270861 0.448671
0.866189 0.267191 0.445001
0.992301 0.263594 0.441405
1.000000 0.261016 0.438826
0.000000 0.423514 0.456223
0.163992 0.418398 0.451107
0.314735 0.414099 0.446808
0.456278 0.410062 0.442771
0.592160 0.406186 0.438895
0.723980 0.402426 0.435135
0.852653 0.398756 0.431465
0.978764 0.395160 0.427869
1.000000 0.392581 0.425290
0.000000 0.551985 0.443005
0.150774 0.546869 0.437889
0.301517 0.542569 0.433590
0.443061 0.538532 0.429553
0.578942 0.534657 0.425677
0.710763 0.530897 0.421918
0.839435 0.527227 0.418248
0.965547 0.523630 0.414651
1.000000 0.521051 0.412072
0.000000 0.678202 0.430020
0.137788 0.673086 0.424903
0.288532 0.668787 0.420604
0.430075 0.664750 0.416567
0.565956 0.660874 0.412692
0.697777 0.657114 0.408932
0.826449 0.653444 0.405262
0.952561 0.649848 0.401665
1.000000 0.647269 0.399086
0.000000 0.802652 0.417215
0.124984 0.797536 0.412099
0.275728 0.793237 0.407800
0.417271 0.789200 0.403763
0.553152 0.785324 0.399887
0.684973 0.781565 0.396128
0.813645 0.777895 0.392458
0.939757 0.774298 0.388861
1.000000 0.771719 0.386282
0.000000 0.925652 0.404561
0.112329 0.920536 0.399445
0.263073 0.916237 0.395145
0.404616 0.912200 0.391108
0.540497 0.908324 0.387233
0.672318 0.904565 0.383473
0.800990 0.900895 0.379803
0.927102 0.897298 0.376206
1.000000 0.894719 0.373627
0.000000 1.000000 0.393105
0.100874 1.000000 0.387989
0.251617 1.000000 0.383690
0.393160 1.000000 0.379653
0.529042 1.000000 0.375777
0.660862 1.000000 0.372017
0.789534 1.000000 0.368347
0.915646 1.000000 0.364751
1.000000 1.000000 0.362172
0.026290 0.003290 0.648124
0.205666 0.000000 0.643008
0.356409 0.000000 0.638708
0.497953 0.000000 0.634671
0.633834 0.000000 0.630796
0.765655 0.000000 0.627036
0.894327 0.000000 0.623366
1.000000 0.000000 0.619769
1.000000 0.000000 0.617190
0.010778 0.154052 0.632613
0.190155 0.148936 0.627496
0.340898 0.144637 0.623197
0.482442 0.140600 0.619160
0.618323 0.136724 0.615285
0.750143 0.132965 0.611525
0.878816 0.129295 0.607855
1.000000 0.125698 0.604258
1.000000 0.123119 0.601679
0.000000 0.290534 0.618571
0.176113 0.285418 0.613455
0.326856 0.281119 0.609155
0.468400 0.277082 0.605118
0.604281 0.273206 0.601243
0.736102 0.269446 0.597483
0.864774 0.265777 0.593813
0.990886 0.262180 0.590216
1.000000 0.259601 0.587637
0.000000 0.422099 0.605035
0.162577 0.416983 0.599919
0.313320 0.412684 0.595619
0.454864 0.408647 0.591582
0.590745 0.404771 0.587707
0.722566 0.401012 0.583947
0.851238 0.397342 0.580277
0.977350 0.393745 0.576680
1.000000 0.391166 0.574101
0.000000 0.550570 0.591817
0.149359 0.545454 0.586701
0.300103 0.541154 0.582401
0.441646 0.537117 0.578364
0.577527 0.533242 0.574489
0.709348 0.529482 0.570729
0.838020 0.525812 0.567059
0.964132 0.522215 0.563462
1.000000 0.519637 0.560884
0.000000 0.676787 0.578831
0.136373 0.671671 0.573715
0.287117 0.667372 0.569416
0.428660 0.663335 0.565379
0.564541 0.659459 0.561503
0.696362 0.655700 0.557743
0.825034 0.652030 0.554073
0.951146 0.648433 0.550477
1.000000 0.645854 0.547898
0.000000 0.801238 0.566027
0.123569 0.796122 0.560911
0.274313 0.791822 0.556612
0.415856 0.787785 0.552575
0.551737 0.783910 0.548699
0.683558 0.780150 0.544939
0.812230 0.776480 0.541269
0.938342 0.772883 0.537673
1.000000 0.770304 0.535094
0.000000 0.924238 0.553372
0.110914 0.919122 0.548256
0.261658 0.914822 0.543957
0.403201 0.910785 0.539920
0.539083 0.906910 0.536044
0.670903 0.903150 0.532284
0.799575 0.899480 0.528615
0.925687 0.895883 0.525018
1.000000 0.893304 0.522439
0.000000 1.000000 0.541917
0.099459 1.000000 0.536800
0.250202 1.000000 0.532501
0.391746 1.000000 0.528464
0.527627 1.000000 0.524589
0.659447 1.000000 0.520829
0.788120 1.000000 0.517159
0.914232 1.000000 0.513562
1.000000 1.000000 0.510983
0.024840 0.001840 0.800573
0.204217 0.000000 0.795457
0.354960 0.000000 0.791158
0.496503 0.000000 0.787121
0.632385 0.000000 0.783245
0.764205 0.000000 0.779486
0.892878 0.000000 0.775816
1.000000 0.000000 0.772219
1.000000 0.000000 0.769640
0.009329 0.152603 0.785062
0.188705 0.147487 0.779946
0.339449 0.143187 0.775647
0.480992 0.139150 0.771610
0.616874 0.135275 0.767734
0.748694 0.131515 0.763974
0.877366 0.127845 0.760304
1.000000 0.124248 0.756708
1.000000 0.121670 0.754129
0.000000 0.289085 0.771020
0.174664 0.283969 0.765904
0.325407 0.279669 0.761605
0.466950 0.275632 0.757568
0.602832 0.271757 0.753692
0.734652 0.267997 0.749932
0.863325 0.264327 0.746263
0.989436 0.260730 0.742666
1.000000 0.258152 0.740087
0.000000 0.420650 0.757484
0.161127 0.415534 0.752368
0.311871 0.411235 0.748069
0.453414 0.407197 0.744032
0.589296 0.403322 0.740156
0.721116 0.399562 0.736396
0.849788 0.395892 0.732726
0.975900 0.392295 0.729130
1.000000 0.389717 0.726551
0.000000 0.549121 0.744266
0.147910 0.544004 0.739150
0.298653 0.539705 0.734851
0.440197 0.535668 0.730814
0.576078 0.531793 0.726938
0.707899 0.528033 0.723179
0.836571 0.524363 0.719509
0.962683 0.520766 0.715912
1.000000 0.518187 0.713333
0.000000 0.675338 0.731281
0.134924 0.670222 0.726164
0.285667 0.665922 0.721865
0.427211 0.661885 0.717828
0.563092 0.658010 0.713953
0.694913 0.654250 0.710193
0.823585 0.650580 0.706523
0.949697 0.646983 0.702926
1.000000 0.644405 0.700347
0.000000 0.799788 0.718476
0.122120 0.794672 0.713360
0.272863 0.790373 0.709061
0.414407 0.786336 0.705024
0.550288 0.782460 0.701149
0.682109 0.778701 0.697389
0.810781 0.775031 0.693719
0.936893 0.771434 0.690122
1.000000 0.768855 0.687543
0.000000 0.922788 0.705822
0.109465 0.917672 0.700706
0.260209 0.913373 0.696406
0.401752 0.909336 0.692369
0.537633 0.905460 0.688494
0.669454 0.901701 0.684734
0.798126 0.898031 0.681064
0.924238 0.894434 0.677467
1.000000 0.891855 0.674888
0.000000 1.000000 0.694366
0.098009 1.000000 0.689250
0.248753 1.000000 0.684951
0.390296 1.000000 0.680914
0.526178 1.000000 0.677038
0.657998 1.000000 0.673278
0.786670 1.000000 0.669608
0.912782 1.000000 0.666012
1.000000 1.000000 0.663433
0.023361 0.000361 0.956116
0.202738 0.000000 0.951000
0.353481 0.000000 0.946701
0.495025 0.000000 0.942664
0.630906 0.000000 0.938788
0.762727 0.000000 0.935028
0.891399 0.000000 0.931358
1.000000 0.000000 0.927762
1.000000 0.000000 0.925183
0.007850 0.151124 0.940605
0.187227 0.146008 0.935489
0.337970 0.141709 0.931189
0.479514 0.137672 0.927152
0.615395 0.133796 0.923277
0.747215 0.130037 0.919517
0.875888 0.126367 0.915847
1.000000 0.122770 0.912250
1.000000 0.120191 0.909672
0.000000 0.287606 0.926563
0.173185 0.282490 0.921447
0.323928 0.278191 0.917148
0.465472 0.274154 0.913110
0.601353 0.270278 0.909235
0.733173 0.266518 0.905475
0.861846 0.262849 0.901805
0.987958 0.259252 0.898208
1.000000 0.256673 0.895630
0.000000 0.419171 0.913027
0.159649 0.414055 0.907911
0.310392 0.409756 0.903611
0.451936 0.405719 0.899574
0.587817 0.401843 0.895699
0.719637 0.398084 0.891939
0.848310 0.394414 0.888269
0.974422 0.390817 0.884672
1.000000 0.388238 0.882094
0.000000 0.547642 0.899809
0.146431 0.542526 0.894693
0.297175 0.538226 0.890394
0.438718 0.534189 0.886357
0.574599 0.530314 0.882481
0.706420 0.526554 0.878722
0.835092 0.522884 0.875052
0.961204 0.519287 0.871455
1.000000 0.516708 0.868876
0.000000 0.673859 0.886823
0.133445 0.668743 0.881707
0.284189 0.664444 0.877408
0.425732 0.660407 0.873371
0.561613 0.656531 0.869495
0.693434 0.652772 0.865736
0.822106 0.649102 0.862066
0.948218 0.645505 0.858469
1.000000 0.642926 0.855890
0.000000 0.798310 0.874019
0.120641 0.793194 0.868903
0.271385 0.788894 0.864604
0.412928 0.784857 0.860567
0.548809 0.780982 0.856691
0.680630 0.777222 0.852932
0.809302 0.773552 0.849262
0.935414 0.769955 0.845665
1.000000 0.767376 0.843086
0.000000 0.921310 0.861365
0.107986 0.916194 0.856248
0.258730 0.911894 0.851949
0.400273 0.907857 0.847912
0.536155 0.903982 0.844037
0.667975 0.900222 0.840277
0.796647 0.896552 0.836607
0.922759 0.892955 0.833010
1.000000 0.890376 0.830431
0.000000 1.000000 0.849909
0.096531 1.000000 0.844793
0.247274 1.000000 0.840493
0.388818 1.000000 0.836456
0.524699 1.000000 0.832581
0.656519 1.000000 0.828821
0.785192 1.000000 0.825151
0.911304 1.000000 0.821554
1.000000 1.000000 0.818976
0.021857 0.000000 1.000000
0.201234 0.000000 1.000000
0.351977 0.000000 1.000000
0.493520 0.000000 1.000000
0.629402 0.000000 1.000000
0.761222 0.000000 1.000000
0.889895 0.000000 1.000000
1.000000 0.000000 1.000000
1.000000 0.000000 1.000000
0.006346 0.149620 1.000000
0.185722 0.144504 1.000000
0.336466 0.140204 1.000000
0.478009 0.136167 1.000000
0.613890 0.132292 1.000000
0.745711 0.128532 1.000000
0.874383 0.124862 1.000000
1.000000 0.121265 1.000000
1.000000 0.118687 1.000000
0.000000 0.286102 1.000000
0.171680 0.280986 1.000000
0.322424 0.276686 1.000000
0.463967 0.272649 1.000000
0.599849 0.268774 1.000000
0.731669 0.265014 1.000000
0.860341 0.261344 1.000000
0.986453 0.257747 1.000000
1.000000 0.255168 1.000000
0.000000 0.417667 1.000000
0.158144 0.412551 1.000000
0.308888 0.408251 1.000000
0.450431 0.404214 1.000000
0.586313 0.400339 1.000000
0.718133 0.396579 1.000000
0.846805 0.392909 1.000000
0.972917 0.389312 1.000000
1.000000 0.386734 1.000000
0.000000 0.546137 1.000000
0.144927 0.541021 1.000000
0.295670 0.536722 1.000000
0.437214 0.532685 1.000000
0.573095 0.528809 1.000000
0.704915 0.525050 1.000000
0.833588 0.521380 1.000000
0.959700 0.517783 1.000000
1.000000 0.515204 1.000000
0.000000 0.672355 1.000000
0.131941 0.667239 1.000000
0.282684 0.662939 1.000000
0.424228 0.658902 1.000000
0.560109 0.655027 1.000000
0.691930 0.651267 1.000000
0.820602 0.647597 1.000000
0.946714 0.644000 1.000000
1.000000 0.641422 1.000000
0.000000 0.796805 1.000000
0.119137 0.791689 1.000000
0.269880 0.787390 1.000000
0.411424 0.783353 1.000000
0.547305 0.779477 1.000000
0.679125 0.775718 1.000000
0.807798 0.772048 1.000000
0.933910 0.768451 1.000000
1.000000 0.765872 1.000000
0.000000 0.919805 1.000000
0.106482 0.914689 1.000000
0.257225 0.910390 1.000000
0.398769 0.906353 1.000000
0.534650 0.902477 1.000000
0.666471 0.898718 0.998518
0.795143 0.895048 0.994848
0.921255 0.891451 0.991251
1.000000 0.888872 0.988672
0.000000 1.000000 1.000000
0.095026 1.000000 1.000000
0.245770 1.000000 0.998734
0.387313 1.000000 0.994697
0.523194 1.000000 0.990822
0.655015 1.000000 0.987062
0.783687 1.000000 0.983392
0.909799 1.000000 0.979795
1.000000 1.000000 0.977217
