project/modules/step7_final_render/luts/food.cube
TITLE "Food"
LUT_3D_SIZE 17
DOMAIN_MIN 0.0 0.0 0.0
DOMAIN_MAX 1.0 1.0 1.0
0.032470 0.009470 0.000000
0.129938 0.006691 0.000000
0.211847 0.004354 0.000000
0.288757 0.002161 0.000000
0.362590 0.000055 0.000000
0.434217 0.000000 0.000000
0.504134 0.000000 0.000000
0.572659 0.000000 0.000000
0.640015 0.000000 0.000000
0.706366 0.000000 0.000000
0.771836 0.000000 0.000000
0.836523 0.000000 0.000000
0.900508 0.000000 0.000000
0.963855 0.000000 0.000000
1.000000 0.000000 0.000000
1.000000 0.000000 0.000000
1.000000 0.000000 0.000000
0.024329 0.088600 0.000000
0.121797 0.085820 0.000000
0.203706 0.083484 0.000000
0.280616 0.081290 0.000000
0.354449 0.079184 0.000000
0.426076 0.077141 0.000000
0.495993 0.075147 0.000000
0.564518 0.073193 0.000000
0.631874 0.071272 0.000000
0.698225 0.069379 0.000000
0.763694 0.067512 0.000000
0.828382 0.065667 0.000000
0.892367 0.063842 0.000000
0.955714 0.062035 0.000000
1.000000 0.060245 0.000000
1.000000 0.058470 0.000000
1.000000 0.057666 0.000000
0.016959 0.160233 0.000000
0.114427 0.157453 0.000000
0.196336 0.155117 0.000000
0.273246 0.152924 0.000000
0.347079 0.150818 0.000000
0.418706 0.148775 0.000000
0.488623 0.146781 0.000000
0.557148 0.144826 0.000000
0.624504 0.142905 0.000000
0.690854 0.141013 0.000000
0.756324 0.139146 0.000000
0.821012 0.137301 0.000000
0.884997 0.135476 0.000000
0.948344 0.133669 0.000000
1.000000 0.131879 0.000000
1.000000 0.130104 0.000000
1.000000 0.129300 0.000000
0.009855 0.229286 0.000000
0.107322 0.226506 0.000000
0.189231 0.224170 0.000000
0.266141 0.221977 0.000000
0.339975 0.219871 0.000000
0.411602 0.217828 0.000000
0.481518 0.215834 0.000000
0.550043 0.213879 0.000000
0.617399 0.211958 0.000000
0.683750 0.210066 0.000000
0.749220 0.208199 0.000000
0.813907 0.206354 0.000000
0.877892 0.204529 0.000000
0.941239 0.202722 0.000000
1.000000 0.200932 0.000000
1.000000 0.199157 0.000000
1.000000 0.198353 0.000000
0.002917 0.296715 0.000000
0.100385 0.293935 0.000000
0.182294 0.291599 0.000000
0.259204 0.289405 0.000000
0.333037 0.287300 0.000000
0.404664 0.285257 0.000000
0.474581 0.283263 0.000000
0.543106 0.281308 0.000000
0.610462 0.279387 0.000000
0.676813 0.277495 0.000000
0.742283 0.275627 0.000000
0.806970 0.273782 0.000000
0.870955 0.271958 0.000000
0.934302 0.270151 0.000000
0.997067 0.268361 0.000000
1.000000 0.266586 0.000000
1.000000 0.265782 0.000000
0.000000 0.362961 0.000000
0.093569 0.360181 0.000000
0.175478 0.357845 0.000000
0.252388 0.355652 0.000000
0.326222 0.353546 0.000000
0.397849 0.351503 0.000000
0.467765 0.349509 0.000000
0.536290 0.347554 0.000000
0.603646 0.345633 0.000000
0.669997 0.343741 0.000000
0.735467 0.341874 0.000000
0.800154 0.340029 0.000000
0.864139 0.338204 0.000000
0.927486 0.336397 0.000000
0.990251 0.334607 0.000000
1.000000 0.332832 0.000000
1.000000 0.332028 0.000000
0.000000 0.428280 0.000000
0.086849 0.425500 0.000000
0.168758 0.423164 0.000000
0.245668 0.420971 0.000000
0.319501 0.418865 0.000000
0.391128 0.416822 0.000000
0.461045 0.414828 0.000000
0.529570 0.412873 0.000000
0.596926 0.410952 0.000000
0.663277 0.409060 0.000000
0.728746 0.407193 0.000000
0.793434 0.405348 0.000000
0.857419 0.403523 0.000000
0.920766 0.401716 0.000000
0.983531 0.399926 0.000000
1.000000 0.398151 0.000000
1.000000 0.397347 0.000000
0.000000 0.492838 0.000000
0.080207 0.490058 0.000000
0.162116 0.487722 0.000000
0.239026 0.485528 0.000000
0.312859 0.483422 0.000000
0.384486 0.481379 0.000000
0.454403 0.479385 0.000000
0.522928 0.477431 0.000000
0.590284 0.475510 0.000000
0.656635 0.473617 0.000000
0.722104 0.471750 0.000000
0.786792 0.469905 0.000000
0.850777 0.468080 0.000000
0.914124 0.466273 0.000000
0.976889 0.464483 0.000000
1.000000 0.462709 0.000000
1.000000 0.461905 0.000000
0.000000 0.556751 0.000000
0.073631 0.553971 0.000000
0.155540 0.551635 0.000000
0.232450 0.549441 0.000000
0.306284 0.547335 0.000000
0.377911 0.545292 0.000000
0.447827 0.543298 0.000000
0.516352 0.541344 0.000000
0.583708 0.539423 0.000000
0.650059 0.537530 0.000000
0.715529 0.535663 0.000000
0.780216 0.533818 0.000000
0.844201 0.531993 0.000000
0.907548 0.530186 0.000000
0.970313 0.528396 0.000000
1.000000 0.526621 0.000000
1.000000 0.525817 0.000000
0.000000 0.620105 0.000000
0.067113 0.617326 0.000000
0.149022 0.614989 0.000000
0.225932 0.612796 0.000000
0.299765 0.610690 0.000000
0.371392 0.608647 0.000000
0.441309 0.606653 0.000000
0.509834 0.604699 0.000000
0.577190 0.602777 0.000000
0.643541 0.600885 0.000000
0.709011 0.599018 0.000000
0.773698 0.597173 0.000000
0.837683 0.595348 0.000000
0.901030 0.593541 0.000000
0.963795 0.591751 0.000000
1.000000 0.589976 0.000000
1.000000 0.589172 0.000000
0.000000 0.682968 0.000000
0.060645 0.680188 0.000000
0.142554 0.677852 0.000000
0.219464 0.675659 0.000000
0.293298 0.673553 0.000000
0.364925 0.671510 0.000000
0.434841 0.669516 0.000000
0.503366 0.667561 0.000000
0.570722 0.665640 0.000000
0.637073 0.663748 0.000000
0.702543 0.661881 0.000000
0.767231 0.660036 0.000000
0.831215 0.658211 0.000000
0.894563 0.656404 0.000000
0.957327 0.654614 0.000000
1.000000 0.652839 0.000000
1.000000 0.652035 0.000000
0.000000 0.745392 0.000000
0.054223 0.742612 0.000000
0.136132 0.740276 0.000000
0.213042 0.738082 0.000000
0.286875 0.735976 0.000000
0.358502 0.733933 0.000000
0.428419 0.731939 0.000000
0.496944 0.729985 0.000000
0.564300 0.728064 0.000000
0.630651 0.726171 0.000000
0.696121 0.724304 0.000000
0.760808 0.722459 0.000000
0.824793 0.720634 0.000000
0.888140 0.718827 0.000000
0.950905 0.717037 0.000000
1.000000 0.715262 0.000000
1.000000 0.714458 0.000000
0.000000 0.807419 0.000000
0.047841 0.804639 0.000000
0.129750 0.802303 0.000000
0.206660 0.800109 0.000000
0.280494 0.798003 0.000000
0.352121 0.795960 0.000000
0.422037 0.793966 0.000000
0.490562 0.792012 0.000000
0.557918 0.790091 0.000000
0.624269 0.788198 0.000000
0.689739 0.786331 0.000000
0.754426 0.784486 0.000000
0.818411 0.782661 0.000000
0.881758 0.780854 0.000000
0.944523 0.779064 0.000000
1.000000 0.777289 0.000000
1.000000 0.776485 0.000000
0.000000 0.869084 0.000000
0.041497 0.866305 0.000000
0.123406 0.863968 0.000000
0.200316 0.861775 0.000000
0.274149 0.859669 0.000000
0.345776 0.857626 0.000000
0.415693 0.855632 0.000000
0.484218 0.853678 0.000000
0.551574 0.851756 0.000000
0.617925 0.849864 0.000000
0.683394 0.847997 0.000000
0.748082 0.846152 0.000000
0.812067 0.844327 0.000000
0.875414 0.842520 0.000000
0.938179 0.840730 0.000000
1.000000 0.838955 0.000000
1.000000 0.838151 0.000000
0.000000 0.930419 0.000000
0.035186 0.927639 0.000000
0.117095 0.925303 0.000000
0.194005 0.923109 0.000000
0.267839 0.921003 0.000000
0.339466 0.918960 0.000000
0.409382 0.916966 0.000000
0.477907 0.915012 0.000000
0.545264 0.913091 0.000000
0.611614 0.911198 0.000000
0.677084 0.909331 0.000000
0.741772 0.907486 0.000000
0.805756 0.905661 0.000000
0.869104 0.903854 0.000000
0.931868 0.902064 0.000000
0.994097 0.900289 0.000000
1.000000 0.899485 0.000000
0.000000 0.991447 0.000000
0.028907 0.988667 0.000000
0.110817 0.986331 0.000000
0.187727 0.984137 0.000000
0.261560 0.982031 0.000000
0.333187 0.979988 0.000000
0.403103 0.977994 0.000000
0.471628 0.976040 0.000000
0.538985 0.974119 0.000000
0.605335 0.972226 0.000000
0.670805 0.970359 0.000000
0.735493 0.968514 0.000000
0.799478 0.966689 0.000000
0.862825 0.964882 0.000000
0.925589 0.963092 0.000000
0.987818 0.961317 0.000000
1.000000 0.960513 0.000000
0.000000 1.000000 0.000000
0.023731 1.000000 0.000000
0.105640 1.000000 0.000000
0.182550 1.000000 0.000000
0.256383 1.000000 0.000000
0.328010 1.000000 0.000000
0.397927 1.000000 0.000000
0.466452 1.000000 0.000000
0.533808 1.000000 0.000000
0.600158 1.000000 0.000000
0.665628 1.000000 0.000000
0.730316 1.000000 0.000000
0.794301 1.000000 0.000000
0.857648 1.000000 0.000000
0.920413 1.000000 0.000000
0.982641 1.000000 0.000000
1.000000 1.000000 0.000000
0.032202 0.009202 0.026235
0.129669 0.006422 0.023455
0.211578 0.004086 0.021119
0.288488 0.001892 0.018925
0.362322 0.000000 0.016819
0.433949 0.000000 0.014776
0.503865 0.000000 0.012782
0.572390 0.000000 0.010828
0.639746 0.000000 0.008907
0.706097 0.000000 0.007014
0.771567 0.000000 0.005147
0.836254 0.000000 0.003302
0.900239 0.000000 0.001477
0.963586 0.000000 0.000000
1.000000 0.000000 0.000000
1.000000 0.000000 0.000000
1.000000 0.000000 0.000000
0.024061 0.088331 0.018093
0.121528 0.085551 0.015313
0.203437 0.083215 0.012977
0.280347 0.081021 0.010784
0.354181 0.078915 0.008678
0.425808 0.076873 0.006635
0.495724 0.074878 0.004641
0.564249 0.072924 0.002686
0.631605 0.071003 0.000765
0.697956 0.069110 0.000000
0.763426 0.067243 0.000000
0.828113 0.065398 0.000000
0.892098 0.063573 0.000000
0.955445 0.061767 0.000000
1.000000 0.059976 0.000000
1.000000 0.058202 0.000000
1.000000 0.057398 0.000000
0.016691 0.159965 0.010723
0.114158 0.157185 0.007943
0.196067 0.154848 0.005607
0.272977 0.152655 0.003414
0.346811 0.150549 0.001308
0.418438 0.148506 0.000000
0.488354 0.146512 0.000000
0.556879 0.144558 0.000000
0.624235 0.142637 0.000000
0.690586 0.140744 0.000000
0.756056 0.138877 0.000000
0.820743 0.137032 0.000000
0.884728 0.135207 0.000000
0.948075 0.133400 0.000000
1.000000 0.131610 0.000000
1.000000 0.129835 0.000000
1.000000 0.129031 0.000000
0.009586 0.229018 0.003619
0.107053 0.226238 0.000839
0.188963 0.223902 0.000000
0.265873 0.221708 0.000000
0.339706 0.219602 0.000000
0.411333 0.217559 0.000000
0.481249 0.215565 0.000000
0.549774 0.213611 0.000000
0.617131 0.211690 0.000000
0.683481 0.209797 0.000000
0.748951 0.207930 0.000000
0.813639 0.206085 0.000000
0.877624 0.204260 0.000000
0.940971 0.202453 0.000000
1.000000 0.200663 0.000000
1.000000 0.198888 0.000000
1.000000 0.198084 0.000000
0.002649 0.296446 0.000000
0.100116 0.293667 0.000000
0.182025 0.291330 0.000000
0.258935 0.289137 0.000000
0.332769 0.287031 0.000000
0.404396 0.284988 0.000000
0.474312 0.282994 0.000000
0.542837 0.281040 0.000000
0.610193 0.279118 0.000000
0.676544 0.277226 0.000000
0.742014 0.275359 0.000000
0.806701 0.273514 0.000000
0.870686 0.271689 0.000000
0.934033 0.269882 0.000000
0.996798 0.268092 0.000000
1.000000 0.266317 0.000000
1.000000 0.265513 0.000000
0.000000 0.362693 0.000000
0.093300 0.359913 0.000000
0.175209 0.357577 0.000000
0.252119 0.355383 0.000000
0.325953 0.353277 0.000000
0.397580 0.351234 0.000000
0.467496 0.349240 0.000000
0.536021 0.347286 0.000000
0.603378 0.345365 0.000000
0.669728 0.343472 0.000000
0.735198 0.341605 0.000000
0.799886 0.339760 0.000000
0.863870 0.337935 0.000000
0.927218 0.336128 0.000000
0.989982 0.334338 0.000000
1.000000 0.332563 0.000000
1.000000 0.331759 0.000000
0.000000 0.428012 0.000000
0.086580 0.425232 0.000000
0.168489 0.422895 0.000000
0.245399 0.420702 0.000000
0.319233 0.418596 0.000000
0.390860 0.416553 0.000000
0.460776 0.414559 0.000000
0.529301 0.412605 0.000000
0.596657 0.410684 0.000000
0.663008 0.408791 0.000000
0.728478 0.406924 0.000000
0.793165 0.405079 0.000000
0.857150 0.403254 0.000000
0.920497 0.401447 0.000000
0.983262 0.399657 0.000000
1.000000 0.397882 0.000000
1.000000 0.397078 0.000000
0.000000 0.492569 0.000000
0.079938 0.489789 0.000000
0.161847 0.487453 0.000000
0.238757 0.485259 0.000000
0.312591 0.483154 0.000000
0.384218 0.481111 0.000000
0.454134 0.479117 0.000000
0.522659 0.477162 0.000000
0.590015 0.475241 0.000000
0.656366 0.473349 0.000000
0.721836 0.471481 0.000000
0.786523 0.469636 0.000000
0.850508 0.467812 0.000000
0.913855 0.466005 0.000000
0.976620 0.464215 0.000000
1.000000 0.462440 0.000000
1.000000 0.461636 0.000000
0.000000 0.556482 0.000000
0.073362 0.553702 0.000000
0.155271 0.551366 0.000000
0.232181 0.549172 0.000000
0.306015 0.547067 0.000000
0.377642 0.545024 0.000000
0.447558 0.543030 0.000000
0.516083 0.541075 0.000000
0.583440 0.539154 0.000000
0.649790 0.537262 0.000000
0.715260 0.535394 0.000000
0.779948 0.533549 0.000000
0.843932 0.531724 0.000000
0.907280 0.529918 0.000000
0.970044 0.528128 0.000000
1.000000 0.526353 0.000000
1.000000 0.525549 0.000000
0.000000 0.619837 0.000000
0.066844 0.617057 0.000000
0.148753 0.614721 0.000000
0.225663 0.612527 0.000000
0.299497 0.610421 0.000000
0.371124 0.608378 0.000000
0.441040 0.606384 0.000000
0.509565 0.604430 0.000000
0.576921 0.602509 0.000000
0.643272 0.600616 0.000000
0.708742 0.598749 0.000000
0.773429 0.596904 0.000000
0.837414 0.595079 0.000000
0.900761 0.593272 0.000000
0.963526 0.591482 0.000000
1.000000 0.589707 0.000000
1.000000 0.588903 0.000000
0.000000 0.682700 0.000000
0.060376 0.679920 0.000000
0.142286 0.677583 0.000000
0.219196 0.675390 0.000000
0.293029 0.673284 0.000000
0.364656 0.671241 0.000000
0.434572 0.669247 0.000000
0.503098 0.667293 0.000000
0.570454 0.665372 0.000000
0.636804 0.663479 0.000000
0.702274 0.661612 0.000000
0.766962 0.659767 0.000000
0.830947 0.657942 0.000000
0.894294 0.656135 0.000000
0.957058 0.654345 0.000000
1.000000 0.652570 0.000000
1.000000 0.651766 0.000000
0.000000 0.745123 0.000000
0.053954 0.742343 0.000000
0.135863 0.740007 0.000000
0.212773 0.737813 0.000000
0.286607 0.735708 0.000000
0.358234 0.733665 0.000000
0.428150 0.731671 0.000000
0.496675 0.729716 0.000000
0.564031 0.727795 0.000000
0.630382 0.725903 0.000000
0.695852 0.724035 0.000000
0.760539 0.722190 0.000000
0.824524 0.720365 0.000000
0.887871 0.718559 0.000000
0.950636 0.716769 0.000000
1.000000 0.714994 0.000000
1.000000 0.714190 0.000000
0.000000 0.807150 0.000000
0.047572 0.804370 0.000000
0.129482 0.802034 0.000000
0.206392 0.799840 0.000000
0.280225 0.797734 0.000000
0.351852 0.795692 0.000000
0.421768 0.793697 0.000000
0.490293 0.791743 0.000000
0.557650 0.789822 0.000000
0.624000 0.787930 0.000000
0.689470 0.786062 0.000000
0.754158 0.784217 0.000000
0.818143 0.782392 0.000000
0.881490 0.780586 0.000000
0.944254 0.778795 0.000000
1.000000 0.777021 0.000000
1.000000 0.776217 0.000000
0.000000 0.868816 0.000000
0.041228 0.866036 0.000000
0.123137 0.863700 0.000000
0.200047 0.861506 0.000000
0.273881 0.859400 0.000000
0.345508 0.857357 0.000000
0.415424 0.855363 0.000000
0.483949 0.853409 0.000000
0.551305 0.851488 0.000000
0.617656 0.849595 0.000000
0.683126 0.847728 0.000000
0.747813 0.845883 0.000000
0.811798 0.844058 0.000000
0.875145 0.842251 0.000000
0.937910 0.840461 0.000000
1.000000 0.838686 0.000000
1.000000 0.837882 0.000000
0.000000 0.930150 0.000000
0.034918 0.927370 0.000000
0.116827 0.925034 0.000000
0.193737 0.922840 0.000000
0.267570 0.920735 0.000000
0.339197 0.918692 0.000000
0.409114 0.916698 0.000000
0.477639 0.914743 0.000000
0.544995 0.912822 0.000000
0.611345 0.910930 0.000000
0.676815 0.909062 0.000000
0.741503 0.907217 0.000000
0.805488 0.905392 0.000000
0.868835 0.903586 0.000000
0.931600 0.901795 0.000000
0.993828 0.900021 0.000000
1.000000 0.899217 0.000000
0.000000 0.991178 0.000000
0.028639 0.988398 0.000000
0.110548 0.986062 0.000000
0.187458 0.983868 0.000000
0.261291 0.981763 0.000000
0.332918 0.979720 0.000000
0.402835 0.977726 0.000000
0.471360 0.975771 0.000000
0.538716 0.973850 0.000000
0.605067 0.971958 0.000000
0.670537 0.970090 0.000000
0.735224 0.968245 0.000000
0.799209 0.966420 0.000000
0.862556 0.964614 0.000000
0.925321 0.962824 0.000000
0.987549 0.961049 0.000000
1.000000 0.960245 0.000000
0.000000 1.000000 0.000000
0.023462 1.000000 0.000000
0.105371 1.000000 0.000000
0.182281 1.000000 0.000000
0.256115 1.000000 0.000000
0.327742 1.000000 0.000000
0.397658 1.000000 0.000000
0.466183 1.000000 0.000000
0.533539 1.000000 0.000000
0.599890 1.000000 0.000000
0.665360 1.000000 0.000000
0.730047 1.000000 0.000000
0.794032 1.000000 0.000000
0.857379 1.000000 0.000000
0.920144 1.000000 0.000000
0.982372 1.000000 0.000000
1.000000 1.000000 0.000000
0.031632 0.008632 0.086137
0.129100 0.005852 0.083357
0.211009 0.003516 0.081021
0.287919 0.001323 0.078828
0.361752 0.000000 0.076722
0.433379 0.000000 0.074679
0.503296 0.000000 0.072685
0.571821 0.000000 0.070730
0.639177 0.000000 0.068809
0.705527 0.000000 0.066917
0.770997 0.000000 0.065050
0.835685 0.000000 0.063205
0.899670 0.000000 0.061380
0.963017 0.000000 0.059573
1.000000 0.000000 0.057783
1.000000 0.000000 0.056008
1.000000 0.000000 0.055204
0.023491 0.087761 0.077996
0.120958 0.084981 0.075216
0.202868 0.082645 0.072880
0.279778 0.080452 0.070686
0.353611 0.078346 0.068581
0.425238 0.076303 0.066538
0.495154 0.074309 0.064544
0.563679 0.072354 0.062589
0.631036 0.070433 0.060668
0.697386 0.068541 0.058776
0.762856 0.066674 0.056908
0.827544 0.064829 0.055063
0.891529 0.063004 0.053238
0.954876 0.061197 0.051432
1.000000 0.059407 0.049642
1.000000 0.057632 0.047867
1.000000 0.056828 0.047063
0.016121 0.159395 0.070626
0.113588 0.156615 0.067846
0.195498 0.154279 0.065510
0.272408 0.152085 0.063316
0.346241 0.149980 0.061211
0.417868 0.147937 0.059168
0.487784 0.145943 0.057174
0.556309 0.143988 0.055219
0.623666 0.142067 0.053298
0.690016 0.140175 0.051406
0.755486 0.138307 0.049538
0.820174 0.136462 0.047693
0.884159 0.134637 0.045868
0.947506 0.132831 0.044062
1.000000 0.131041 0.042272
1.000000 0.129266 0.040497
1.000000 0.128462 0.039693
0.009017 0.228448 0.063522
0.106484 0.225668 0.060742
0.188393 0.223332 0.058405
0.265303 0.221138 0.056212
0.339137 0.219033 0.054106
0.410764 0.216990 0.052063
0.480680 0.214996 0.050069
0.549205 0.213041 0.048115
0.616561 0.211120 0.046194
0.682912 0.209228 0.044301
0.748382 0.207360 0.042434
0.813069 0.205515 0.040589
0.877054 0.203691 0.038764
0.940401 0.201884 0.036957
1.000000 0.200094 0.035167
1.000000 0.198319 0.033392
1.000000 0.197515 0.032588
0.002079 0.295877 0.056584
0.099547 0.293097 0.053804
0.181456 0.290761 0.051468
0.258366 0.288567 0.049274
0.332199 0.286461 0.047169
0.403826 0.284419 0.045126
0.473742 0.282424 0.043132
0.542268 0.280470 0.041177
0.609624 0.278549 0.039256
0.675974 0.276657 0.037364
0.741444 0.274789 0.035496
0.806132 0.272944 0.033651
0.870117 0.271119 0.031827
0.933464 0.269313 0.030020
0.996229 0.267522 0.028230
1.000000 0.265748 0.026455
1.000000 0.264944 0.025651
0.000000 0.362123 0.049768
0.092731 0.359343 0.046988
0.174640 0.357007 0.044652
0.251550 0.354814 0.042459
0.325383 0.352708 0.040353
0.397010 0.350665 0.038310
0.466927 0.348671 0.036316
0.535452 0.346716 0.034361
0.602808 0.344795 0.032440
0.669159 0.342903 0.030548
0.734629 0.341036 0.028681
0.799316 0.339191 0.026836
0.863301 0.337366 0.025011
0.926648 0.335559 0.023204
0.989413 0.333769 0.021414
1.000000 0.331994 0.019639
1.000000 0.331190 0.018835
0.000000 0.427442 0.043048
0.086010 0.424662 0.040268
0.167920 0.422326 0.037932
0.244830 0.420132 0.035738
0.318663 0.418027 0.033633
0.390290 0.415984 0.031590
0.460206 0.413990 0.029596
0.528732 0.412035 0.027641
0.596088 0.410114 0.025720
0.662438 0.408222 0.023828
0.727908 0.406354 0.021960
0.792596 0.404509 0.020115
0.856581 0.402684 0.018290
0.919928 0.400878 0.016484
0.982692 0.399088 0.014694
1.000000 0.397313 0.012919
1.000000 0.396509 0.012115
0.000000 0.492000 0.036406
0.079368 0.489220 0.033626
0.161278 0.486884 0.031290
0.238188 0.484690 0.029096
0.312021 0.482584 0.026991
0.383648 0.480541 0.024948
0.453564 0.478547 0.022954
0.522090 0.476593 0.020999
0.589446 0.474672 0.019078
0.655796 0.472779 0.017186
0.721266 0.470912 0.015318
0.785954 0.469067 0.013473
0.849939 0.467242 0.011648
0.913286 0.465435 0.009842
0.976050 0.463645 0.008052
1.000000 0.461870 0.006277
1.000000 0.461066 0.005473
0.000000 0.555913 0.029830
0.072793 0.553133 0.027051
0.154702 0.550797 0.024714
0.231612 0.548603 0.022521
0.305445 0.546497 0.020415
0.377072 0.544454 0.018372
0.446989 0.542460 0.016378
0.515514 0.540506 0.014424
0.582870 0.538585 0.012502
0.649221 0.536692 0.010610
0.714691 0.534825 0.008743
0.779378 0.532980 0.006898
0.843363 0.531155 0.005073
0.906710 0.529348 0.003266
0.969475 0.527558 0.001476
1.000000 0.525783 0.000000
1.000000 0.524979 0.000000
0.000000 0.619267 0.023312
0.066275 0.616487 0.020532
0.148184 0.614151 0.018196
0.225094 0.611958 0.016003
0.298927 0.609852 0.013897
0.370554 0.607809 0.011854
0.440471 0.605815 0.009860
0.508996 0.603860 0.007905
0.576352 0.601939 0.005984
0.642702 0.600047 0.004092
0.708172 0.598180 0.002224
0.772860 0.596335 0.000380
0.836845 0.594510 0.000000
0.900192 0.592703 0.000000
0.962957 0.590913 0.000000
1.000000 0.589138 0.000000
1.000000 0.588334 0.000000
0.000000 0.682130 0.016845
0.059807 0.679350 0.014065
0.141716 0.677014 0.011729
0.218626 0.674820 0.009535
0.292460 0.672715 0.007429
0.364087 0.670672 0.005386
0.434003 0.668678 0.003392
0.502528 0.666723 0.001438
0.569884 0.664802 0.000000
0.636235 0.662910 0.000000
0.701705 0.661042 0.000000
0.766392 0.659197 0.000000
0.830377 0.657372 0.000000
0.893724 0.655566 0.000000
0.956489 0.653776 0.000000
1.000000 0.652001 0.000000
1.000000 0.651197 0.000000
0.000000 0.744554 0.010422
0.053385 0.741774 0.007642
0.135294 0.739437 0.005306
0.212204 0.737244 0.003113
0.286037 0.735138 0.001007
0.357664 0.733095 0.000000
0.427580 0.731101 0.000000
0.496106 0.729147 0.000000
0.563462 0.727226 0.000000
0.629812 0.725333 0.000000
0.695282 0.723466 0.000000
0.759970 0.721621 0.000000
0.823955 0.719796 0.000000
0.887302 0.717989 0.000000
0.950067 0.716199 0.000000
1.000000 0.714424 0.000000
1.000000 0.713620 0.000000
0.000000 0.806580 0.004041
0.047003 0.803801 0.001261
0.128912 0.801464 0.000000
0.205822 0.799271 0.000000
0.279656 0.797165 0.000000
0.351283 0.795122 0.000000
0.421199 0.793128 0.000000
0.489724 0.791174 0.000000
0.557080 0.789252 0.000000
0.623431 0.787360 0.000000
0.688901 0.785493 0.000000
0.753588 0.783648 0.000000
0.817573 0.781823 0.000000
0.880920 0.780016 0.000000
0.943685 0.778226 0.000000
1.000000 0.776451 0.000000
1.000000 0.775647 0.000000
0.000000 0.868246 0.000000
0.040658 0.865466 0.000000
0.122568 0.863130 0.000000
0.199478 0.860937 0.000000
0.273311 0.858831 0.000000
0.344938 0.856788 0.000000
0.414854 0.854794 0.000000
0.483379 0.852839 0.000000
0.550736 0.850918 0.000000
0.617086 0.849026 0.000000
0.682556 0.847159 0.000000
0.747244 0.845314 0.000000
0.811229 0.843489 0.000000
0.874576 0.841682 0.000000
0.937340 0.839892 0.000000
0.999569 0.838117 0.000000
1.000000 0.837313 0.000000
0.000000 0.929580 0.000000
0.034348 0.926801 0.000000
0.116257 0.924464 0.000000
0.193167 0.922271 0.000000
0.267001 0.920165 0.000000
0.338628 0.918122 0.000000
0.408544 0.916128 0.000000
0.477069 0.914174 0.000000
0.544425 0.912252 0.000000
0.610776 0.910360 0.000000
0.676246 0.908493 0.000000
0.740933 0.906648 0.000000
0.804918 0.904823 0.000000
0.868265 0.903016 0.000000
0.931030 0.901226 0.000000
0.993259 0.899451 0.000000
1.000000 0.898647 0.000000
0.000000 0.990609 0.000000
0.028069 0.987829 0.000000
0.109978 0.985493 0.000000
0.186888 0.983299 0.000000
0.260722 0.981193 0.000000
0.332349 0.979150 0.000000
0.402265 0.977156 0.000000
0.470790 0.975202 0.000000
0.538146 0.973281 0.000000
0.604497 0.971388 0.000000
0.669967 0.969521 0.000000
0.734655 0.967676 0.000000
0.798639 0.965851 0.000000
0.861987 0.964044 0.000000
0.924751 0.962254 0.000000
0.986980 0.960479 0.000000
1.000000 0.959675 0.000000
0.000000 1.000000 0.000000
0.022892 1.000000 0.000000
0.104802 1.000000 0.000000
0.181712 1.000000 0.000000
0.255545 1.000000 0.000000
0.327172 1.000000 0.000000
0.397088 1.000000 0.000000
0.465613 1.000000 0.000000
0.532970 1.000000 0.000000
0.599320 1.000000 0.000000
0.664790 1.000000 0.000000
0.729478 1.000000 0.000000
0.793463 1.000000 0.000000
0.856810 1.000000 0.000000
0.919574 1.000000 0.000000
0.981803 1.000000 0.000000
1.000000 1.000000 0.000000
0.031026 0.008026 0.149910
0.128493 0.005246 0.147130
0.210402 0.002910 0.144794
0.287312 0.000716 0.142600
0.361146 0.000000 0.140495
0.432773 0.000000 0.138452
0.502689 0.000000 0.136458
0.571214 0.000000 0.134503
0.638571 0.000000 0.132582
0.704921 0.000000 0.130690
0.770391 0.000000 0.128822
0.835079 0.000000 0.126977
0.899063 0.000000 0.125152
0.962411 0.000000 0.123346
1.000000 0.000000 0.121556
1.000000 0.000000 0.119781
1.000000 0.000000 0.118977
0.022885 0.087155 0.141769
0.120352 0.084375 0.138989
