project/modules/step7_final_render/luts/indoor_warm.cube
TITLE "Indoor Warm"
LUT_3D_SIZE 17
DOMAIN_MIN 0.0 0.0 0.0
DOMAIN_MAX 1.0 1.0 1.0
0.020688 0.009888 0.000000
0.108352 0.008485 0.000000
0.184275 0.007270 0.000000
0.256318 0.006118 0.000000
0.325952 0.005003 0.000000
0.393848 0.003917 0.000000
0.460389 0.002852 0.000000
0.525826 0.001805 0.000000
0.590331 0.000773 0.000000
0.654033 0.000000 0.000000
0.717029 0.000000 0.000000
0.779397 0.000000 0.000000
0.841200 0.000000 0.000000
0.902490 0.000000 0.000000
0.963309 0.000000 0.000000
1.000000 0.000000 0.000000
1.000000 0.000000 0.000000
0.016580 0.083317 0.000000
0.104244 0.081914 0.000000
0.180167 0.080700 0.000000
0.252210 0.079547 0.000000
0.321844 0.078433 0.000000
0.389740 0.077346 0.000000
0.456282 0.076282 0.000000
0.521718 0.075235 0.000000
0.586223 0.074203 0.000000
0.649925 0.073183 0.000000
0.712921 0.072176 0.000000
0.775289 0.071178 0.000000
0.837092 0.070189 0.000000
0.898382 0.069208 0.000000
0.959201 0.068235 0.000000
1.000000 0.067269 0.000000
1.000000 0.066649 0.000000
0.012752 0.151744 0.000000
0.100416 0.150341 0.000000
0.176339 0.149127 0.000000
0.248382 0.147974 0.000000
0.318016 0.146860 0.000000
0.385912 0.145773 0.000000
0.452454 0.144709 0.000000
0.517890 0.143662 0.000000
0.582395 0.142630 0.000000
0.646097 0.141610 0.000000
0.709093 0.140602 0.000000
0.771461 0.139604 0.000000
0.833264 0.138616 0.000000
0.894554 0.137635 0.000000
0.955373 0.136662 0.000000
1.000000 0.135696 0.000000
1.000000 0.135076 0.000000
0.009023 0.218402 0.000000
0.096687 0.216999 0.000000
0.172610 0.215784 0.000000
0.244653 0.214632 0.000000
0.314287 0.213517 0.000000
0.382183 0.212431 0.000000
0.448725 0.211366 0.000000
0.514161 0.210319 0.000000
0.578666 0.209287 0.000000
0.642368 0.208268 0.000000
0.705364 0.207260 0.000000
0.767732 0.206262 0.000000
0.829535 0.205273 0.000000
0.890825 0.204293 0.000000
0.951644 0.203320 0.000000
1.000000 0.202353 0.000000
1.000000 0.201734 0.000000
0.005357 0.283936 0.000000
0.093021 0.282533 0.000000
0.168944 0.281318 0.000000
0.240987 0.280166 0.000000
0.310621 0.279052 0.000000
0.378517 0.277965 0.000000
0.445059 0.276901 0.000000
0.510495 0.275854 0.000000
0.575000 0.274822 0.000000
0.638702 0.273802 0.000000
0.701698 0.272794 0.000000
0.764066 0.271796 0.000000
0.825869 0.270808 0.000000
0.887159 0.269827 0.000000
0.947978 0.268854 0.000000
1.000000 0.267888 0.000000
1.000000 0.267268 0.000000
0.001737 0.348647 0.000000
0.089401 0.347245 0.000000
0.165324 0.346030 0.000000
0.237367 0.344877 0.000000
0.307001 0.343763 0.000000
0.374897 0.342677 0.000000
0.441439 0.341612 0.000000
0.506875 0.340565 0.000000
0.571380 0.339533 0.000000
0.635082 0.338514 0.000000
0.698078 0.337506 0.000000
0.760446 0.336508 0.000000
0.822249 0.335519 0.000000
0.883539 0.334538 0.000000
0.944358 0.333565 0.000000
1.000000 0.332599 0.000000
1.000000 0.331979 0.000000
0.000000 0.412710 0.000000
0.085817 0.411307 0.000000
0.161740 0.410093 0.000000
0.233784 0.408940 0.000000
0.303418 0.407826 0.000000
0.371313 0.406739 0.000000
0.437855 0.405675 0.000000
0.503291 0.404628 0.000000
0.567797 0.403596 0.000000
0.631498 0.402577 0.000000
0.694494 0.401569 0.000000
0.756863 0.400571 0.000000
0.818666 0.399582 0.000000
0.879955 0.398601 0.000000
0.940775 0.397628 0.000000
1.000000 0.396662 0.000000
1.000000 0.396042 0.000000
0.000000 0.476239 0.000000
0.082263 0.474836 0.000000
0.158186 0.473621 0.000000
0.230230 0.472469 0.000000
0.299864 0.471355 0.000000
0.367759 0.470268 0.000000
0.434301 0.469204 0.000000
0.499738 0.468157 0.000000
0.564243 0.467124 0.000000
0.627944 0.466105 0.000000
0.690940 0.465097 0.000000
0.753309 0.464099 0.000000
0.815112 0.463111 0.000000
0.876401 0.462130 0.000000
0.937221 0.461157 0.000000
0.997607 0.460191 0.000000
1.000000 0.459571 0.000000
0.000000 0.539314 0.000000
0.078735 0.537911 0.000000
0.154658 0.536696 0.000000
0.226701 0.535544 0.000000
0.296335 0.534430 0.000000
0.364231 0.533343 0.000000
0.430773 0.532279 0.000000
0.496209 0.531232 0.000000
0.560714 0.530200 0.000000
0.624416 0.529180 0.000000
0.687412 0.528172 0.000000
0.749780 0.527174 0.000000
0.811583 0.526186 0.000000
0.872873 0.525205 0.000000
0.933692 0.524232 0.000000
0.994078 0.523266 0.000000
1.000000 0.522646 0.000000
0.000000 0.601995 0.000000
0.075229 0.600592 0.000000
0.151151 0.599377 0.000000
0.223195 0.598225 0.000000
0.292829 0.597111 0.000000
0.360724 0.596024 0.000000
0.427266 0.594960 0.000000
0.492703 0.593913 0.000000
0.557208 0.592880 0.000000
0.620909 0.591861 0.000000
0.683905 0.590853 0.000000
0.746274 0.589855 0.000000
0.808077 0.588867 0.000000
0.869366 0.587886 0.000000
0.930186 0.586913 0.000000
0.990572 0.585947 0.000000
1.000000 0.585327 0.000000
0.000000 0.664328 0.000000
0.071742 0.662925 0.000000
0.147664 0.661710 0.000000
0.219708 0.660558 0.000000
0.289342 0.659444 0.000000
0.357237 0.658357 0.000000
0.423779 0.657293 0.000000
0.489216 0.656246 0.000000
0.553721 0.655213 0.000000
0.617422 0.654194 0.000000
0.680418 0.653186 0.000000
0.742787 0.652188 0.000000
0.804590 0.651200 0.000000
0.865879 0.650219 0.000000
0.926699 0.649246 0.000000
0.987085 0.648280 0.000000
1.000000 0.647660 0.000000
0.000000 0.726349 0.000000
0.068272 0.724947 0.000000
0.144195 0.723732 0.000000
0.216238 0.722579 0.000000
0.285872 0.721465 0.000000
0.353768 0.720379 0.000000
0.420309 0.719314 0.000000
0.485746 0.718267 0.000000
0.550251 0.717235 0.000000
0.613953 0.716216 0.000000
0.676949 0.715208 0.000000
0.739317 0.714210 0.000000
0.801120 0.713221 0.000000
0.862410 0.712240 0.000000
0.923229 0.711267 0.000000
0.983615 0.710301 0.000000
1.000000 0.709682 0.000000
0.000000 0.788089 0.000000
0.064818 0.786687 0.000000
0.140741 0.785472 0.000000
0.212784 0.784319 0.000000
0.282418 0.783205 0.000000
0.350314 0.782119 0.000000
0.416856 0.781054 0.000000
0.482292 0.780007 0.000000
0.546797 0.778975 0.000000
0.610499 0.777956 0.000000
0.673495 0.776948 0.000000
0.735863 0.775950 0.000000
0.797666 0.774961 0.000000
0.858956 0.773980 0.000000
0.919775 0.773007 0.000000
0.980161 0.772041 0.000000
1.000000 0.771421 0.000000
0.000000 0.849572 0.000000
0.061379 0.848170 0.000000
0.137302 0.846955 0.000000
0.209345 0.845802 0.000000
0.278979 0.844688 0.000000
0.346874 0.843602 0.000000
0.413416 0.842537 0.000000
0.478853 0.841490 0.000000
0.543358 0.840458 0.000000
0.607059 0.839439 0.000000
0.670056 0.838431 0.000000
0.732424 0.837433 0.000000
0.794227 0.836444 0.000000
0.855516 0.835463 0.000000
0.916336 0.834490 0.000000
0.976722 0.833524 0.000000
1.000000 0.832904 0.000000
0.000000 0.910819 0.000000
0.057952 0.909416 0.000000
0.133875 0.908201 0.000000
0.205919 0.907049 0.000000
0.275553 0.905935 0.000000
0.343448 0.904848 0.000000
0.409990 0.903783 0.000000
0.475427 0.902737 0.000000
0.539932 0.901704 0.000000
0.603633 0.900685 0.000000
0.666629 0.899677 0.000000
0.728998 0.898679 0.000000
0.790801 0.897690 0.000000
0.852090 0.896710 0.000000
0.912910 0.895737 0.000000
0.973296 0.894771 0.000000
1.000000 0.894151 0.000000
0.000000 0.971847 0.000000
0.054538 0.970444 0.000000
0.130461 0.969229 0.000000
0.202505 0.968077 0.000000
0.272139 0.966963 0.000000
0.340034 0.965876 0.000000
0.406576 0.964812 0.000000
0.472013 0.963765 0.000000
0.536518 0.962732 0.000000
0.600219 0.961713 0.000000
0.663215 0.960705 0.000000
0.725584 0.959707 0.000000
0.787387 0.958719 0.000000
0.848676 0.957738 0.000000
0.909496 0.956765 0.000000
0.969882 0.955799 0.000000
1.000000 0.955179 0.000000
0.000000 1.000000 0.000000
0.051708 1.000000 0.000000
0.127631 1.000000 0.000000
0.199674 1.000000 0.000000
0.269308 1.000000 0.000000
0.337204 1.000000 0.000000
0.403746 1.000000 0.000000
0.469182 1.000000 0.000000
0.533687 1.000000 0.000000
0.597389 1.000000 0.000000
0.660385 1.000000 0.000000
0.722753 1.000000 0.000000
0.784556 1.000000 0.000000
0.845846 1.000000 0.000000
0.906665 1.000000 0.000000
0.967051 1.000000 0.000000
1.000000 1.000000 0.000000
0.020530 0.009730 0.028485
0.108194 0.008327 0.027082
0.184117 0.007112 0.025868
0.256160 0.005959 0.024715
0.325794 0.004845 0.023601
0.393690 0.003759 0.022514
0.460231 0.002694 0.021450
0.525668 0.001647 0.020403
0.590173 0.000615 0.019371
0.653875 0.000000 0.018351
0.716871 0.000000 0.017344
0.779239 0.000000 0.016346
0.841042 0.000000 0.015357
0.902332 0.000000 0.014376
0.963151 0.000000 0.013403
1.000000 0.000000 0.012437
1.000000 0.000000 0.011817
0.016422 0.083159 0.024377
0.104086 0.081756 0.022975
0.180009 0.080542 0.021760
0.252052 0.079389 0.020607
0.321686 0.078275 0.019493
0.389582 0.077188 0.018407
0.456124 0.076124 0.017342
0.521560 0.075077 0.016295
0.586065 0.074045 0.015263
0.649767 0.073025 0.014244
0.712763 0.072017 0.013236
0.775131 0.071020 0.012238
0.836934 0.070031 0.011249
0.898224 0.069050 0.010268
0.959043 0.068077 0.009295
1.000000 0.067111 0.008329
1.000000 0.066491 0.007709
0.012594 0.151586 0.020549
0.100258 0.150183 0.019147
0.176181 0.148968 0.017932
0.248224 0.147816 0.016779
0.317858 0.146702 0.015665
0.385754 0.145615 0.014579
0.452296 0.144551 0.013514
0.517732 0.143504 0.012467
0.582237 0.142471 0.011435
0.645939 0.141452 0.010416
0.708935 0.140444 0.009408
0.771303 0.139446 0.008410
0.833106 0.138458 0.007421
0.894396 0.137477 0.006440
0.955215 0.136504 0.005467
1.000000 0.135538 0.004501
1.000000 0.134918 0.003882
0.008865 0.218244 0.016820
0.096529 0.216841 0.015418
0.172452 0.215626 0.014203
0.244495 0.214473 0.013050
0.314129 0.213359 0.011936
0.382025 0.212273 0.010850
0.448567 0.211208 0.009785
0.514003 0.210161 0.008738
0.578508 0.209129 0.007706
0.642210 0.208110 0.006687
0.705206 0.207102 0.005679
0.767574 0.206104 0.004681
0.829377 0.205115 0.003692
0.890667 0.204135 0.002712
0.951486 0.203162 0.001738
1.000000 0.202195 0.000772
1.000000 0.201576 0.000153
0.005199 0.283778 0.013154
0.092863 0.282375 0.011752
0.168786 0.281160 0.010537
0.240829 0.280008 0.009384
0.310463 0.278894 0.008270
0.378359 0.277807 0.007184
0.444901 0.276743 0.006119
0.510337 0.275696 0.005072
0.574842 0.274663 0.004040
0.638544 0.273644 0.003021
0.701540 0.272636 0.002013
0.763908 0.271638 0.001015
0.825711 0.270650 0.000026
0.887001 0.269669 0.000000
0.947820 0.268696 0.000000
1.000000 0.267730 0.000000
1.000000 0.267110 0.000000
0.001579 0.348489 0.009534
0.089243 0.347086 0.008132
0.165166 0.345872 0.006917
0.237209 0.344719 0.005764
0.306843 0.343605 0.004650
0.374739 0.342518 0.003564
0.441281 0.341454 0.002499
0.506717 0.340407 0.001452
0.571222 0.339375 0.000420
0.634924 0.338355 0.000000
0.697920 0.337348 0.000000
0.760288 0.336350 0.000000
0.822091 0.335361 0.000000
0.883381 0.334380 0.000000
0.944200 0.333407 0.000000
1.000000 0.332441 0.000000
1.000000 0.331821 0.000000
0.000000 0.412552 0.005951
0.085659 0.411149 0.004548
0.161582 0.409935 0.003333
0.233625 0.408782 0.002180
0.303259 0.407668 0.001066
0.371155 0.406581 0.000000
0.437697 0.405517 0.000000
0.503133 0.404470 0.000000
0.567638 0.403438 0.000000
0.631340 0.402418 0.000000
0.694336 0.401410 0.000000
0.756704 0.400413 0.000000
0.818508 0.399424 0.000000
0.879797 0.398443 0.000000
0.940616 0.397470 0.000000
1.000000 0.396504 0.000000
1.000000 0.395884 0.000000
0.000000 0.476081 0.002397
0.082105 0.474678 0.000994
0.158028 0.473463 0.000000
0.230072 0.472311 0.000000
0.299706 0.471197 0.000000
0.367601 0.470110 0.000000
0.434143 0.469046 0.000000
0.499580 0.467999 0.000000
0.564085 0.466966 0.000000
0.627786 0.465947 0.000000
0.690782 0.464939 0.000000
0.753151 0.463941 0.000000
0.814954 0.462952 0.000000
0.876243 0.461972 0.000000
0.937063 0.460999 0.000000
0.997449 0.460033 0.000000
1.000000 0.459413 0.000000
0.000000 0.539156 0.000000
0.078577 0.537753 0.000000
0.154500 0.536538 0.000000
0.226543 0.535386 0.000000
0.296177 0.534272 0.000000
0.364073 0.533185 0.000000
0.430614 0.532121 0.000000
0.496051 0.531074 0.000000
0.560556 0.530041 0.000000
0.624258 0.529022 0.000000
0.687254 0.528014 0.000000
0.749622 0.527016 0.000000
0.811425 0.526028 0.000000
0.872715 0.525047 0.000000
0.933534 0.524074 0.000000
0.993920 0.523108 0.000000
1.000000 0.522488 0.000000
0.000000 0.601837 0.000000
0.075070 0.600434 0.000000
0.150993 0.599219 0.000000
0.223037 0.598067 0.000000
0.292671 0.596953 0.000000
0.360566 0.595866 0.000000
0.427108 0.594802 0.000000
0.492545 0.593755 0.000000
0.557050 0.592722 0.000000
0.620751 0.591703 0.000000
0.683747 0.590695 0.000000
0.746116 0.589697 0.000000
0.807919 0.588708 0.000000
0.869208 0.587728 0.000000
0.930028 0.586755 0.000000
0.990414 0.585789 0.000000
1.000000 0.585169 0.000000
0.000000 0.664170 0.000000
0.071583 0.662767 0.000000
0.147506 0.661552 0.000000
0.219550 0.660400 0.000000
0.289184 0.659286 0.000000
0.357079 0.658199 0.000000
0.423621 0.657134 0.000000
0.489058 0.656088 0.000000
0.553563 0.655055 0.000000
0.617264 0.654036 0.000000
0.680260 0.653028 0.000000
0.742629 0.652030 0.000000
0.804432 0.651041 0.000000
0.865721 0.650061 0.000000
0.926541 0.649088 0.000000
0.986927 0.648122 0.000000
1.000000 0.647502 0.000000
0.000000 0.726191 0.000000
0.068114 0.724789 0.000000
0.144037 0.723574 0.000000
0.216080 0.722421 0.000000
0.285714 0.721307 0.000000
0.353610 0.720221 0.000000
0.420151 0.719156 0.000000
0.485588 0.718109 0.000000
0.550093 0.717077 0.000000
0.613795 0.716058 0.000000
0.676791 0.715050 0.000000
0.739159 0.714052 0.000000
0.800962 0.713063 0.000000
0.862252 0.712082 0.000000
0.923071 0.711109 0.000000
0.983457 0.710143 0.000000
1.000000 0.709523 0.000000
0.000000 0.787931 0.000000
0.064660 0.786529 0.000000
0.140583 0.785314 0.000000
0.212626 0.784161 0.000000
0.282260 0.783047 0.000000
0.350156 0.781961 0.000000
0.416698 0.780896 0.000000
0.482134 0.779849 0.000000
0.546639 0.778817 0.000000
0.610341 0.777798 0.000000
0.673337 0.776790 0.000000
0.735705 0.775792 0.000000
0.797508 0.774803 0.000000
0.858798 0.773822 0.000000
0.919617 0.772849 0.000000
0.980003 0.771883 0.000000
1.000000 0.771263 0.000000
0.000000 0.849414 0.000000
0.061221 0.848011 0.000000
0.137144 0.846797 0.000000
0.209187 0.845644 0.000000
0.278821 0.844530 0.000000
0.346716 0.843443 0.000000
0.413258 0.842379 0.000000
0.478695 0.841332 0.000000
0.543200 0.840300 0.000000
0.606901 0.839280 0.000000
0.669898 0.838273 0.000000
0.732266 0.837275 0.000000
0.794069 0.836286 0.000000
0.855358 0.835305 0.000000
0.916178 0.834332 0.000000
0.976564 0.833366 0.000000
1.000000 0.832746 0.000000
0.000000 0.910661 0.000000
0.057794 0.909258 0.000000
0.133717 0.908043 0.000000
0.205761 0.906891 0.000000
0.275395 0.905776 0.000000
0.343290 0.904690 0.000000
0.409832 0.903625 0.000000
0.475268 0.902578 0.000000
0.539774 0.901546 0.000000
0.603475 0.900527 0.000000
0.666471 0.899519 0.000000
0.728840 0.898521 0.000000
0.790643 0.897532 0.000000
0.851932 0.896552 0.000000
0.912752 0.895579 0.000000
0.973138 0.894612 0.000000
1.000000 0.893993 0.000000
0.000000 0.971689 0.000000
0.054380 0.970286 0.000000
0.130303 0.969071 0.000000
0.202347 0.967919 0.000000
0.271981 0.966805 0.000000
0.339876 0.965718 0.000000
0.406418 0.964654 0.000000
0.471854 0.963607 0.000000
0.536360 0.962574 0.000000
0.600061 0.961555 0.000000
0.663057 0.960547 0.000000
0.725426 0.959549 0.000000
0.787229 0.958560 0.000000
0.848518 0.957580 0.000000
0.909338 0.956607 0.000000
0.969724 0.955641 0.000000
1.000000 0.955021 0.000000
0.000000 1.000000 0.000000
0.051550 1.000000 0.000000
0.127473 1.000000 0.000000
0.199516 1.000000 0.000000
0.269150 1.000000 0.000000
0.337046 1.000000 0.000000
0.403587 1.000000 0.000000
0.469024 1.000000 0.000000
0.533529 1.000000 0.000000
0.597231 1.000000 0.000000
0.660227 1.000000 0.000000
0.722595 1.000000 0.000000
0.784398 1.000000 0.000000
0.845688 1.000000 0.000000
0.906507 1.000000 0.000000
0.966893 1.000000 0.000000
1.000000 1.000000 0.000000
0.020217 0.009417 0.086671
0.107881 0.008014 0.085268
0.183804 0.006799 0.084053
0.255847 0.005647 0.082901
0.325481 0.004532 0.081787
0.393377 0.003446 0.080700
0.459918 0.002381 0.079636
0.525355 0.001334 0.078589
0.589860 0.000302 0.077556
0.653562 0.000000 0.076537
0.716558 0.000000 0.075529
0.778926 0.000000 0.074531
0.840729 0.000000 0.073543
0.902019 0.000000 0.072562
0.962838 0.000000 0.071589
1.000000 0.000000 0.070623
1.000000 0.000000 0.070003
0.016109 0.082846 0.082563
0.103773 0.081444 0.081160
0.179696 0.080229 0.079946
0.251739 0.079076 0.078793
0.321373 0.077962 0.077679
0.389269 0.076876 0.076592
0.455811 0.075811 0.075528
0.521247 0.074764 0.074481
0.585752 0.073732 0.073449
0.649454 0.072713 0.072429
0.712450 0.071705 0.071422
0.774818 0.070707 0.070424
0.836621 0.069718 0.069435
0.897911 0.068737 0.068454
0.958730 0.067764 0.067481
1.000000 0.066798 0.066515
1.000000 0.066178 0.065895
0.012281 0.151273 0.078735
0.099945 0.149870 0.077333
0.175868 0.148656 0.076118
0.247911 0.147503 0.074965
0.317545 0.146389 0.073851
0.385441 0.145302 0.072765
0.451983 0.144238 0.071700
0.517419 0.143191 0.070653
0.581924 0.142159 0.069621
0.645626 0.141139 0.068602
0.708622 0.140131 0.067594
0.770990 0.139134 0.066596
0.832793 0.138145 0.065607
0.894083 0.137164 0.064626
0.954902 0.136191 0.063653
1.000000 0.135225 0.062687
1.000000 0.134605 0.062067
0.008552 0.217931 0.075006
0.096216 0.216528 0.073604
0.172139 0.215313 0.072389
0.244182 0.214161 0.071236
0.313816 0.213046 0.070122
0.381712 0.211960 0.069036
0.448254 0.210895 0.067971
0.513690 0.209848 0.066924
0.578195 0.208816 0.065892
0.641897 0.207797 0.064873
0.704893 0.206789 0.063865
0.767262 0.205791 0.062867
0.829065 0.204802 0.061878
0.890354 0.203822 0.060897
0.951173 0.202849 0.059924
1.000000 0.201882 0.058958
1.000000 0.201263 0.058338
0.004886 0.283465 0.071340
0.092550 0.282062 0.069938
0.168473 0.280848 0.068723
0.240516 0.279695 0.067570
0.310150 0.278581 0.066456
0.378046 0.277494 0.065370
0.444588 0.276430 0.064305
0.510024 0.275383 0.063258
0.574529 0.274351 0.062226
0.638231 0.273331 0.061207
0.701227 0.272323 0.060199
0.763595 0.271326 0.059201
0.825398 0.270337 0.058212
0.886688 0.269356 0.057231
0.947507 0.268383 0.056258
1.000000 0.267417 0.055292
1.000000 0.266797 0.054672
0.001266 0.348176 0.067720
0.088930 0.346774 0.066318
0.164853 0.345559 0.065103
0.236896 0.344406 0.063950
0.306530 0.343292 0.062836
0.374426 0.342206 0.061750
0.440968 0.341141 0.060685
0.506404 0.340094 0.059638
0.570909 0.339062 0.058606
0.634611 0.338043 0.057587
0.697607 0.337035 0.056579
0.759975 0.336037 0.055581
0.821778 0.335048 0.054592
0.883068 0.334067 0.053611
0.943887 0.333094 0.052638
1.000000 0.332128 0.051672
1.000000 0.331508 0.051052
0.000000 0.412239 0.064136
0.085346 0.410837 0.062734
0.161269 0.409622 0.061519
0.233313 0.408469 0.060366
0.302947 0.407355 0.059252
0.370842 0.406269 0.058166
0.437384 0.405204 0.057101
0.502821 0.404157 0.056054
0.567326 0.403125 0.055022
0.631027 0.402106 0.054003
0.694023 0.401098 0.052995
0.756392 0.400100 0.051997
0.818195 0.399111 0.051008
0.879484 0.398130 0.050027
0.940304 0.397157 0.049054
1.000000 0.396191 0.048088
1.000000 0.395571 0.047469
0.000000 0.475768 0.060582
0.081793 0.474365 0.059180
0.157715 0.473151 0.057965
0.229759 0.471998 0.056812
0.299393 0.470884 0.055698
0.367288 0.469797 0.054612
0.433830 0.468733 0.053547
0.499267 0.467686 0.052500
0.563772 0.466654 0.051468
0.627473 0.465634 0.050449
0.690469 0.464626 0.049441
0.752838 0.463628 0.048443
0.814641 0.462640 0.047454
0.875930 0.461659 0.046474
0.936750 0.460686 0.045500
0.997136 0.459720 0.044534
1.000000 0.459100 0.043915
0.000000 0.538843 0.057054
0.078264 0.537440 0.055651
0.154187 0.536226 0.054437
0.226230 0.535073 0.053284
0.295864 0.533959 0.052170
0.363760 0.532872 0.051083
0.430302 0.531808 0.050019
0.495738 0.530761 0.048972
0.560243 0.529729 0.047940
0.623945 0.528709 0.046920
0.686941 0.527701 0.045912
0.749309 0.526704 0.044915
0.811112 0.525715 0.043926
0.872402 0.524734 0.042945
0.933221 0.523761 0.041972
0.993607 0.522795 0.041006
1.000000 0.522175 0.040386
0.000000 0.601524 0.053548
0.074758 0.600121 0.052145
0.150681 0.598907 0.050930
0.222724 0.597754 0.049777
0.292358 0.596640 0.048663
0.360253 0.595553 0.047577
0.426795 0.594489 0.046512
0.492232 0.593442 0.045465
0.556737 0.592410 0.044433
0.620438 0.591390 0.043414
0.683435 0.590382 0.042406
0.745803 0.589384 0.041408
0.807606 0.588396 0.040419
0.868895 0.587415 0.039439
0.929715 0.586442 0.038465
0.990101 0.585476 0.037499
1.000000 0.584856 0.036880
0.000000 0.663857 0.050061
0.071271 0.662454 0.048658
0.147194 0.661240 0.047443
0.219237 0.660087 0.046290
0.288871 0.658973 0.045176
0.356766 0.657886 0.044090
0.423308 0.656822 0.043025
0.488745 0.655775 0.041978
0.553250 0.654743 0.040946
0.616951 0.653723 0.039927
0.679948 0.652715 0.038919
0.742316 0.651717 0.037921
0.804119 0.650729 0.036932
0.865408 0.649748 0.035952
0.926228 0.648775 0.034978
0.986614 0.647809 0.034012
1.000000 0.647189 0.033393
0.000000 0.725878 0.046591
0.067801 0.724476 0.045188
0.143724 0.723261 0.043974
0.215767 0.722108 0.042821
0.285401 0.720994 0.041707
0.353297 0.719908 0.040620
0.419839 0.718843 0.039556
0.485275 0.717796 0.038509
0.549780 0.716764 0.037477
0.613482 0.715745 0.036457
0.676478 0.714737 0.035449
0.738846 0.713739 0.034451
0.800649 0.712750 0.033463
0.861939 0.711770 0.032482
0.922758 0.710796 0.031509
0.983144 0.709830 0.030543
1.000000 0.709211 0.029923
0.000000 0.787618 0.043137
0.064347 0.786216 0.041734
0.140270 0.785001 0.040520
0.212313 0.783848 0.039367
0.281947 0.782734 0.038253
0.349843 0.781648 0.037167
0.416385 0.780583 0.036102
0.481821 0.779536 0.035055
0.546326 0.778504 0.034023
0.610028 0.777485 0.033004
0.673024 0.776477 0.031996
0.735392 0.775479 0.030998
0.797195 0.774490 0.030009
0.858485 0.773509 0.029028
0.919304 0.772536 0.028055
0.979690 0.771570 0.027089
1.000000 0.770951 0.026469
0.000000 0.849101 0.039698
0.060908 0.847699 0.038295
0.136831 0.846484 0.037080
0.208874 0.845331 0.035928
0.278508 0.844217 0.034813
0.346404 0.843131 0.033727
0.412945 0.842066 0.032662
0.478382 0.841019 0.031615
0.542887 0.839987 0.030583
0.606588 0.838968 0.029564
0.669585 0.837960 0.028556
0.731953 0.836962 0.027558
0.793756 0.835973 0.026569
0.855045 0.834992 0.025589
0.915865 0.834019 0.024616
0.976251 0.833053 0.023649
1.000000 0.832433 0.023030
0.000000 0.910348 0.036271
0.057482 0.908945 0.034869
0.133404 0.907730 0.033654
0.205448 0.906578 0.032501
0.275082 0.905464 0.031387
0.342977 0.904377 0.030301
0.409519 0.903313 0.029236
0.474956 0.902266 0.028189
0.539461 0.901233 0.027157
0.603162 0.900214 0.026138
0.666158 0.899206 0.025130
0.728527 0.898208 0.024132
0.790330 0.897220 0.023143
0.851619 0.896239 0.022163
0.912439 0.895266 0.021189
0.972825 0.894300 0.020223
1.000000 0.893680 0.019604
0.000000 0.971376 0.032857
0.054068 0.969973 0.031455
0.129990 0.968759 0.030240
0.202034 0.967606 0.029087
0.271668 0.966492 0.027973
0.339563 0.965405 0.026887
0.406105 0.964341 0.025822
0.471542 0.963294 0.024775
0.536047 0.962262 0.023743
0.599748 0.961242 0.022724
0.662744 0.960234 0.021716
0.725113 0.959236 0.020718
0.786916 0.958248 0.019729
0.848205 0.957267 0.018749
0.909025 0.956294 0.017775
0.969411 0.955328 0.016809
1.000000 0.954708 0.016190
0.000000 1.000000 0.030027
0.051237 1.000000 0.028624
0.127160 1.000000 0.027410
0.199203 1.000000 0.026257
0.268837 1.000000 0.025143
0.336733 1.000000 0.024056
0.403275 1.000000 0.022992
0.468711 1.000000 0.021945
0.533216 1.000000 0.020913
0.596918 1.000000 0.019893
0.659914 1.000000 0.018885
0.722282 1.000000 0.017888
0.784085 1.000000 0.016899
0.845375 1.000000 0.015918
0.906194 1.000000 0.014945
0.966580 1.000000 0.013979
1.000000 1.000000 0.013359
0.019887 0.009087 0.147974
0.107551 0.007684 0.146572
0.183474 0.006470 0.145357
0.255517 0.005317 0.144204
0.325151 0.004203 0.143090
0.393047 0.003117 0.142004
0.459589 0.002052 0.140939
0.525025 0.001005 0.139892
0.589530 0.000000 0.138860
0.653232 0.000000 0.137841
0.716228 0.000000 0.136833
0.778596 0.000000 0.135835
0.840400 0.000000 0.134846
0.901689 0.000000 0.133865
0.962508 0.000000 0.132892
1.000000 0.000000 0.131926
1.000000 0.000000 0.131307
0.015779 0.082517 0.143867
