project/modules/step7_final_render/luts/indoor_warm.cube
TITLE "Indoor Warm"
LUT_3D_SIZE 5
DOMAIN_MIN 0.0 0.0 0.0
DOMAIN_MAX 1.0 1.0 1.0
0.020688 0.009888 0.000000
0.325952 0.005003 0.000000
0.590331 0.000773 0.000000
0.841200 0.000000 0.000000
1.000000 0.000000 0.000000
0.005357 0.283936 0.000000
0.310621 0.279052 0.000000
0.575000 0.274822 0.000000
0.825869 0.270808 0.000000
1.000000 0.267268 0.000000
0.000000 0.539314 0.000000
0.296335 0.534430 0.000000
0.560714 0.530200 0.000000
0.811583 0.526186 0.000000
1.000000 0.522646 0.000000
0.000000 0.788089 0.000000
0.282418 0.783205 0.000000
0.546797 0.778975 0.000000
0.797666 0.774961 0.000000
1.000000 0.771421 0.000000
0.000000 1.000000 0.000000
0.269308 1.000000 0.000000
0.533687 1.000000 0.000000
0.784556 1.000000 0.000000
1.000000 1.000000 0.000000
0.019546 0.008746 0.211395
0.324810 0.003862 0.206511
0.589189 0.000000 0.202280
0.840058 0.000000 0.198266
1.000000 0.000000 0.194727
0.004215 0.282794 0.196064
0.309480 0.277910 0.191180
0.573859 0.273680 0.186950
0.824728 0.269666 0.182936
1.000000 0.266126 0.179396
0.000000 0.538172 0.181778
0.295194 0.533288 0.176894
0.559573 0.529058 0.172664
0.810442 0.525044 0.168650
1.000000 0.521504 0.165110
0.000000 0.786948 0.167861
0.281277 0.782063 0.162977
0.545656 0.777833 0.158747
0.796525 0.773819 0.154733
1.000000 0.770280 0.151193
0.000000 1.000000 0.154751
0.268167 1.000000 0.149867
0.532546 1.000000 0.145637
0.783415 1.000000 0.141623
1.000000 1.000000 0.138083
0.018109 0.007309 0.478746
0.323373 0.002424 0.473862
0.587752 0.000000 0.469632
0.838621 0.000000 0.465618
1.000000 0.000000 0.462079
0.002778 0.281357 0.463416
0.308042 0.276473 0.458532
0.572421 0.272242 0.454301
0.823290 0.268228 0.450287
1.000000 0.264689 0.446748
0.000000 0.536735 0.449130
0.293756 0.531851 0.444245
0.558135 0.527620 0.440015
0.809004 0.523607 0.436001
1.000000 0.520067 0.432462
0.000000 0.785510 0.435213
0.279839 0.780626 0.430328
0.544218 0.776396 0.426098
0.795087 0.772382 0.422084
1.000000 0.768842 0.418545
0.000000 1.000000 0.422103
0.266729 1.000000 0.417218
0.531108 1.000000 0.412988
0.781977 1.000000 0.408974
1.000000 1.000000 0.405435
0.016594 0.005794 0.760424
0.321858 0.000910 0.755540
0.586237 0.000000 0.751309
0.837106 0.000000 0.747295
1.000000 0.000000 0.743756
0.001263 0.279842 0.745093
0.306528 0.274958 0.740209
0.570907 0.270728 0.735979
0.821776 0.266714 0.731965
1.000000 0.263174 0.728425
0.000000 0.535220 0.730807
0.292241 0.530336 0.725923
0.556620 0.526106 0.721693
0.807490 0.522092 0.717679
1.000000 0.518552 0.714139
0.000000 0.783996 0.716890
0.278325 0.779111 0.712006
0.542704 0.774881 0.707776
0.793573 0.770867 0.703762
1.000000 0.767328 0.700222
0.000000 1.000000 0.703780
0.265214 1.000000 0.698896
0.529594 1.000000 0.694666
0.780463 1.000000 0.690652
1.000000 1.000000 0.687112
0.015027 0.004227 1.000000
0.320291 0.000000 1.000000
0.584671 0.000000 1.000000
0.835540 0.000000 1.000000
1.000000 0.000000 1.000000
0.000000 0.278275 1.000000
0.304961 0.273391 1.000000
0.569340 0.269161 1.000000
0.820209 0.265147 1.000000
1.000000 0.261608 1.000000
0.000000 0.533653 1.000000
0.290675 0.528769 1.000000
0.555054 0.524539 1.000000
0.805923 0.520525 1.000000
1.000000 0.516986 1.000000
0.000000 0.782429 1.000000
0.276758 0.777545 1.000000
0.541137 0.773314 0.999179
0.792006 0.769301 0.995165
1.000000 0.765761 0.991626
0.000000 1.000000 0.995183
0.263648 1.000000 0.990299
0.528027 1.000000 0.986069
0.778896 1.000000 0.982055
1.000000 1.000000 0.978516
