project/modules/step7_final_render/luts/indoor_warm.cube
TITLE "Indoor Warm"
LUT_3D_SIZE 9
DOMAIN_MIN 0.0 0.0 0.0
DOMAIN_MAX 1.0 1.0 1.0
0.020688 0.009888 0.000000
0.184275 0.007270 0.000000
0.325952 0.005003 0.000000
0.460389 0.002852 0.000000
0.590331 0.000773 0.000000
0.717029 0.000000 0.000000
0.841200 0.000000 0.000000
0.963309 0.000000 0.000000
1.000000 0.000000 0.000000
0.012752 0.151744 0.000000
0.176339 0.149127 0.000000
0.318016 0.146860 0.000000
0.452454 0.144709 0.000000
0.582395 0.142630 0.000000
0.709093 0.140602 0.000000
0.833264 0.138616 0.000000
0.955373 0.136662 0.000000
1.000000 0.135076 0.000000
0.005357 0.283936 0.000000
0.168944 0.281318 0.000000
0.310621 0.279052 0.000000
0.445059 0.276901 0.000000
0.575000 0.274822 0.000000
0.701698 0.272794 0.000000
0.825869 0.270808 0.000000
0.947978 0.268854 0.000000
1.000000 0.267268 0.000000
0.000000 0.412710 0.000000
0.161740 0.410093 0.000000
0.303418 0.407826 0.000000
0.437855 0.405675 0.000000
0.567797 0.403596 0.000000
0.694494 0.401569 0.000000
0.818666 0.399582 0.000000
0.940775 0.397628 0.000000
1.000000 0.396042 0.000000
0.000000 0.539314 0.000000
0.154658 0.536696 0.000000
0.296335 0.534430 0.000000
0.430773 0.532279 0.000000
0.560714 0.530200 0.000000
0.687412 0.528172 0.000000
0.811583 0.526186 0.000000
0.933692 0.524232 0.000000
1.000000 0.522646 0.000000
0.000000 0.664328 0.000000
0.147664 0.661710 0.000000
0.289342 0.659444 0.000000
0.423779 0.657293 0.000000
0.553721 0.655213 0.000000
0.680418 0.653186 0.000000
0.804590 0.651200 0.000000
0.926699 0.649246 0.000000
1.000000 0.647660 0.000000
0.000000 0.788089 0.000000
0.140741 0.785472 0.000000
0.282418 0.783205 0.000000
0.416856 0.781054 0.000000
0.546797 0.778975 0.000000
0.673495 0.776948 0.000000
0.797666 0.774961 0.000000
0.919775 0.773007 0.000000
1.000000 0.771421 0.000000
0.000000 0.910819 0.000000
0.133875 0.908201 0.000000
0.275553 0.905935 0.000000
0.409990 0.903783 0.000000
0.539932 0.901704 0.000000
0.666629 0.899677 0.000000
0.790801 0.897690 0.000000
0.912910 0.895737 0.000000
1.000000 0.894151 0.000000
0.000000 1.000000 0.000000
0.127631 1.000000 0.000000
0.269308 1.000000 0.000000
0.403746 1.000000 0.000000
0.533687 1.000000 0.000000
0.660385 1.000000 0.000000
0.784556 1.000000 0.000000
0.906665 1.000000 0.000000
1.000000 1.000000 0.000000
0.020217 0.009417 0.086671
0.183804 0.006799 0.084053
0.325481 0.004532 0.081787
0.459918 0.002381 0.079636
0.589860 0.000302 0.077556
0.716558 0.000000 0.075529
0.840729 0.000000 0.073543
0.962838 0.000000 0.071589
1.000000 0.000000 0.070003
0.012281 0.151273 0.078735
0.175868 0.148656 0.076118
0.317545 0.146389 0.073851
0.451983 0.144238 0.071700
0.581924 0.142159 0.069621
0.708622 0.140131 0.067594
0.832793 0.138145 0.065607
0.954902 0.136191 0.063653
1.000000 0.134605 0.062067
0.004886 0.283465 0.071340
0.168473 0.280848 0.068723
0.310150 0.278581 0.066456
0.444588 0.276430 0.064305
0.574529 0.274351 0.062226
0.701227 0.272323 0.060199
0.825398 0.270337 0.058212
0.947507 0.268383 0.056258
1.000000 0.266797 0.054672
0.000000 0.412239 0.064136
0.161269 0.409622 0.061519
0.302947 0.407355 0.059252
0.437384 0.405204 0.057101
0.567326 0.403125 0.055022
0.694023 0.401098 0.052995
0.818195 0.399111 0.051008
0.940304 0.397157 0.049054
1.000000 0.395571 0.047469
0.000000 0.538843 0.057054
0.154187 0.536226 0.054437
0.295864 0.533959 0.052170
0.430302 0.531808 0.050019
0.560243 0.529729 0.047940
0.686941 0.527701 0.045912
0.811112 0.525715 0.043926
0.933221 0.523761 0.041972
1.000000 0.522175 0.040386
0.000000 0.663857 0.050061
0.147194 0.661240 0.047443
0.288871 0.658973 0.045176
0.423308 0.656822 0.043025
0.553250 0.654743 0.040946
0.679948 0.652715 0.038919
0.804119 0.650729 0.036932
0.926228 0.648775 0.034978
1.000000 0.647189 0.033393
0.000000 0.787618 0.043137
0.140270 0.785001 0.040520
0.281947 0.782734 0.038253
0.416385 0.780583 0.036102
0.546326 0.778504 0.034023
0.673024 0.776477 0.031996
0.797195 0.774490 0.030009
0.919304 0.772536 0.028055
1.000000 0.770951 0.026469
0.000000 0.910348 0.036271
0.133404 0.907730 0.033654
0.275082 0.905464 0.031387
0.409519 0.903313 0.029236
0.539461 0.901233 0.027157
0.666158 0.899206 0.025130
0.790330 0.897220 0.023143
0.912439 0.895266 0.021189
1.000000 0.893680 0.019604
0.000000 1.000000 0.030027
0.127160 1.000000 0.027410
0.268837 1.000000 0.025143
0.403275 1.000000 0.022992
0.533216 1.000000 0.020913
0.659914 1.000000 0.018885
0.784085 1.000000 0.016899
0.906194 1.000000 0.014945
1.000000 1.000000 0.013359
0.019546 0.008746 0.211395
0.183133 0.006129 0.208777
0.324810 0.003862 0.206511
0.459248 0.001711 0.204359
0.589189 0.000000 0.202280
0.715887 0.000000 0.200253
0.840058 0.000000 0.198266
0.962167 0.000000 0.196313
1.000000 0.000000 0.194727
0.011610 0.150602 0.203459
0.175198 0.147985 0.200842
0.316875 0.145718 0.198575
0.451312 0.143567 0.196424
0.581254 0.141488 0.194345
0.707952 0.139461 0.192318
0.832123 0.137474 0.190331
0.954232 0.135520 0.188377
1.000000 0.133935 0.186791
0.004215 0.282794 0.196064
0.167803 0.280177 0.193447
0.309480 0.277910 0.191180
0.443917 0.275759 0.189029
0.573859 0.273680 0.186950
0.700557 0.271653 0.184923
0.824728 0.269666 0.182936
0.946837 0.267712 0.180982
1.000000 0.266126 0.179396
0.000000 0.411569 0.188860
0.160599 0.408951 0.186243
0.302276 0.406684 0.183976
0.436713 0.404533 0.181825
0.566655 0.402454 0.179746
0.693353 0.400427 0.177719
0.817524 0.398440 0.175732
0.939633 0.396486 0.173778
1.000000 0.394901 0.172192
0.000000 0.538172 0.181778
0.153516 0.535555 0.179161
0.295194 0.533288 0.176894
0.429631 0.531137 0.174743
0.559573 0.529058 0.172664
0.686270 0.527031 0.170636
0.810442 0.525044 0.168650
0.932551 0.523090 0.166696
1.000000 0.521504 0.165110
0.000000 0.663186 0.174784
0.146523 0.660569 0.172167
0.288200 0.658302 0.169900
0.422637 0.656151 0.167749
0.552579 0.654072 0.165670
0.679277 0.652045 0.163643
0.803448 0.650058 0.161656
0.925557 0.648104 0.159702
1.000000 0.646518 0.158117
0.000000 0.786948 0.167861
0.139599 0.784330 0.165244
0.281277 0.782063 0.162977
0.415714 0.779912 0.160826
0.545656 0.777833 0.158747
0.672353 0.775806 0.156720
0.796525 0.773819 0.154733
0.918634 0.771866 0.152779
1.000000 0.770280 0.151193
0.000000 0.909677 0.160995
0.132734 0.907060 0.158378
0.274411 0.904793 0.156111
0.408848 0.902642 0.153960
0.538790 0.900563 0.151881
0.665488 0.898536 0.149854
0.789659 0.896549 0.147867
0.911768 0.894595 0.145913
1.000000 0.893009 0.144328
0.000000 1.000000 0.154751
0.126489 1.000000 0.152134
0.268167 1.000000 0.149867
0.402604 1.000000 0.147716
0.532546 1.000000 0.145637
0.659243 1.000000 0.143609
0.783415 1.000000 0.141623
0.905524 1.000000 0.139669
1.000000 1.000000 0.138083
0.018840 0.008040 0.342802
0.182427 0.005422 0.340185
0.324104 0.003155 0.337918
0.458541 0.001004 0.335767
0.588483 0.000000 0.333688
0.715181 0.000000 0.331660
0.839352 0.000000 0.329674
0.961461 0.000000 0.327720
1.000000 0.000000 0.326134
0.010904 0.149896 0.334866
0.174491 0.147278 0.332249
0.316168 0.145012 0.329982
0.450606 0.142861 0.327831
0.580547 0.140781 0.325752
0.707245 0.138754 0.323725
0.831416 0.136768 0.321738
0.953525 0.134814 0.319784
1.000000 0.133228 0.318198
0.003509 0.282088 0.327471
0.167096 0.279470 0.324854
0.308773 0.277203 0.322587
0.443211 0.275052 0.320436
0.573152 0.272973 0.318357
0.699850 0.270946 0.316330
0.824021 0.268959 0.314343
0.946130 0.267006 0.312389
1.000000 0.265420 0.310803
0.000000 0.410862 0.320267
0.159892 0.408245 0.317650
0.301569 0.405978 0.315383
0.436007 0.403827 0.313232
0.565948 0.401748 0.311153
0.692646 0.399720 0.309126
0.816817 0.397734 0.307139
0.938926 0.395780 0.305185
1.000000 0.394194 0.303600
0.000000 0.537466 0.313185
0.152810 0.534848 0.310568
0.294487 0.532581 0.308301
0.428924 0.530430 0.306150
0.558866 0.528351 0.304071
0.685564 0.526324 0.302044
0.809735 0.524337 0.300057
0.931844 0.522384 0.298103
1.000000 0.520798 0.296517
0.000000 0.662480 0.306192
0.145816 0.659862 0.303574
0.287494 0.657595 0.301307
0.421931 0.655444 0.299156
0.551873 0.653365 0.297077
0.678570 0.651338 0.295050
0.802742 0.649351 0.293063
0.924851 0.647398 0.291110
1.000000 0.645812 0.289524
0.000000 0.786241 0.299268
0.138893 0.783624 0.296651
0.280570 0.781357 0.294384
0.415008 0.779206 0.292233
0.544949 0.777127 0.290154
0.671647 0.775100 0.288127
0.795818 0.773113 0.286140
0.917927 0.771159 0.284186
1.000000 0.769573 0.282600
0.000000 0.908971 0.292403
0.132027 0.906353 0.289785
0.273704 0.904086 0.287518
0.408142 0.901935 0.285367
0.538083 0.899856 0.283288
0.664781 0.897829 0.281261
0.788953 0.895842 0.279274
0.911061 0.893889 0.277320
1.000000 0.892303 0.275735
0.000000 1.000000 0.286158
0.125783 1.000000 0.283541
0.267460 1.000000 0.281274
0.401897 1.000000 0.279123
0.531839 1.000000 0.277044
0.658537 1.000000 0.275017
0.782708 1.000000 0.273030
0.904817 1.000000 0.271076
1.000000 1.000000 0.269490
0.018109 0.007309 0.478746
0.181696 0.004691 0.476129
0.323373 0.002424 0.473862
0.457810 0.000273 0.471711
0.587752 0.000000 0.469632
0.714450 0.000000 0.467605
0.838621 0.000000 0.465618
0.960730 0.000000 0.463664
1.000000 0.000000 0.462079
0.010173 0.149165 0.470811
0.173760 0.146547 0.468193
0.315437 0.144281 0.465927
0.449875 0.142130 0.463775
0.579816 0.140050 0.461696
0.706514 0.138023 0.459669
0.830685 0.136037 0.457682
0.952794 0.134083 0.455729
1.000000 0.132497 0.454143
0.002778 0.281357 0.463416
0.166365 0.278739 0.460798
0.308042 0.276473 0.458532
0.442480 0.274322 0.456380
0.572421 0.272242 0.454301
0.699119 0.270215 0.452274
0.823290 0.268228 0.450287
0.945399 0.266275 0.448334
1.000000 0.264689 0.446748
0.000000 0.410131 0.456212
0.159161 0.407514 0.453595
0.300838 0.405247 0.451328
0.435276 0.403096 0.449177
0.565217 0.401017 0.447098
0.691915 0.398989 0.445070
0.816087 0.397003 0.443084
0.938195 0.395049 0.441130
1.000000 0.393463 0.439544
0.000000 0.536735 0.449130
0.152079 0.534117 0.446512
0.293756 0.531851 0.444245
0.428193 0.529700 0.442094
0.558135 0.527620 0.440015
0.684833 0.525593 0.437988
0.809004 0.523607 0.436001
0.931113 0.521653 0.434048
1.000000 0.520067 0.432462
0.000000 0.661749 0.442136
0.145085 0.659131 0.439519
0.286763 0.656864 0.437252
0.421200 0.654713 0.435101
0.551142 0.652634 0.433022
0.677839 0.650607 0.430995
0.802011 0.648620 0.429008
0.924120 0.646667 0.427054
1.000000 0.645081 0.425468
0.000000 0.785510 0.435213
0.138162 0.782893 0.432595
0.279839 0.780626 0.430328
0.414277 0.778475 0.428177
0.544218 0.776396 0.426098
0.670916 0.774369 0.424071
0.795087 0.772382 0.422084
0.917196 0.770428 0.420131
1.000000 0.768842 0.418545
0.000000 0.908240 0.428347
0.131296 0.905622 0.425730
0.272974 0.903355 0.423463
0.407411 0.901204 0.421312
0.537353 0.899125 0.419233
0.664050 0.897098 0.417206
0.788222 0.895111 0.415219
0.910331 0.893158 0.413265
1.000000 0.891572 0.411679
0.000000 1.000000 0.422103
0.125052 1.000000 0.419485
0.266729 1.000000 0.417218
0.401166 1.000000 0.415067
0.531108 1.000000 0.412988
0.657806 1.000000 0.410961
0.781977 1.000000 0.408974
0.904086 1.000000 0.407021
1.000000 1.000000 0.405435
0.017359 0.006559 0.618168
0.180946 0.003942 0.615550
0.322623 0.001675 0.613283
0.457061 0.000000 0.611132
0.587002 0.000000 0.609053
0.713700 0.000000 0.607026
0.837871 0.000000 0.605039
0.959980 0.000000 0.603086
1.000000 0.000000 0.601500
0.009423 0.148415 0.610232
0.173010 0.145798 0.607615
0.314688 0.143531 0.605348
0.449125 0.141380 0.603197
0.579067 0.139301 0.601118
0.705764 0.137274 0.599091
0.829936 0.135287 0.597104
0.952045 0.133333 0.595150
1.000000 0.131747 0.593564
0.002028 0.280607 0.602837
0.165615 0.277990 0.600220
0.307293 0.275723 0.597953
0.441730 0.273572 0.595802
0.571672 0.271493 0.593723
0.698369 0.269466 0.591696
0.822541 0.267479 0.589709
0.944650 0.265525 0.587755
1.000000 0.263939 0.586169
0.000000 0.409381 0.595633
0.158412 0.406764 0.593016
0.300089 0.404497 0.590749
0.434526 0.402346 0.588598
0.564468 0.400267 0.586519
0.691166 0.398240 0.584492
0.815337 0.396253 0.582505
0.937446 0.394299 0.580551
1.000000 0.392714 0.578965
0.000000 0.535985 0.588551
0.151329 0.533368 0.585933
0.293006 0.531101 0.583667
0.427444 0.528950 0.581516
0.557385 0.526871 0.579436
0.684083 0.524844 0.577409
0.808254 0.522857 0.575423
0.930363 0.520903 0.573469
1.000000 0.519317 0.571883
0.000000 0.660999 0.581557
0.144336 0.658382 0.578940
0.286013 0.656115 0.576673
0.420450 0.653964 0.574522
0.550392 0.651885 0.572443
0.677090 0.649858 0.570416
0.801261 0.647871 0.568429
0.923370 0.645917 0.566475
1.000000 0.644331 0.564890
0.000000 0.784761 0.574634
0.137412 0.782143 0.572017
0.279090 0.779876 0.569750
0.413527 0.777725 0.567599
0.543469 0.775646 0.565520
0.670166 0.773619 0.563492
0.794338 0.771632 0.561506
0.916447 0.769679 0.559552
1.000000 0.768093 0.557966
0.000000 0.907490 0.567768
0.130547 0.904873 0.565151
0.272224 0.902606 0.562884
0.406661 0.900455 0.560733
0.536603 0.898376 0.558654
0.663301 0.896348 0.556627
0.787472 0.894362 0.554640
0.909581 0.892408 0.552686
1.000000 0.890822 0.551100
0.000000 1.000000 0.561524
0.124302 1.000000 0.558906
0.265979 1.000000 0.556640
0.400417 1.000000 0.554489
0.530358 1.000000 0.552410
0.657056 1.000000 0.550382
0.781227 1.000000 0.548396
0.903336 1.000000 0.546442
1.000000 1.000000 0.544856
0.016594 0.005794 0.760424
0.180181 0.003177 0.757806
0.321858 0.000910 0.755540
0.456296 0.000000 0.753389
0.586237 0.000000 0.751309
0.712935 0.000000 0.749282
0.837106 0.000000 0.747295
0.959215 0.000000 0.745342
1.000000 0.000000 0.743756
0.008658 0.147650 0.752488
0.172245 0.145033 0.749871
0.313923 0.142766 0.747604
0.448360 0.140615 0.745453
0.578302 0.138536 0.743374
0.704999 0.136509 0.741347
0.829171 0.134522 0.739360
0.951280 0.132568 0.737406
1.000000 0.130982 0.735820
0.001263 0.279842 0.745093
0.164850 0.277225 0.742476
0.306528 0.274958 0.740209
0.440965 0.272807 0.738058
0.570907 0.270728 0.735979
0.697604 0.268701 0.733952
0.821776 0.266714 0.731965
0.943885 0.264760 0.730011
1.000000 0.263174 0.728425
0.000000 0.408616 0.737889
0.157647 0.405999 0.735272
0.299324 0.403732 0.733005
0.433761 0.401581 0.730854
0.563703 0.399502 0.728775
0.690401 0.397475 0.726748
0.814572 0.395488 0.724761
0.936681 0.393534 0.722807
1.000000 0.391949 0.721221
0.000000 0.535220 0.730807
0.150564 0.532603 0.728190
0.292241 0.530336 0.725923
0.426679 0.528185 0.723772
0.556620 0.526106 0.721693
0.683318 0.524079 0.719665
0.807490 0.522092 0.717679
0.929598 0.520138 0.715725
1.000000 0.518552 0.714139
0.000000 0.660234 0.723813
0.143571 0.657617 0.721196
0.285248 0.655350 0.718929
0.419685 0.653199 0.716778
0.549627 0.651120 0.714699
0.676325 0.649093 0.712672
0.800496 0.647106 0.710685
0.922605 0.645152 0.708731
1.000000 0.643566 0.707146
0.000000 0.783996 0.716890
0.136647 0.781378 0.714273
0.278325 0.779111 0.712006
0.412762 0.776960 0.709855
0.542704 0.774881 0.707776
0.669401 0.772854 0.705749
0.793573 0.770867 0.703762
0.915682 0.768914 0.701808
1.000000 0.767328 0.700222
0.000000 0.906725 0.710024
0.129782 0.904108 0.707407
0.271459 0.901841 0.705140
0.405896 0.899690 0.702989
0.535838 0.897611 0.700910
0.662536 0.895584 0.698883
0.786707 0.893597 0.696896
0.908816 0.891643 0.694942
1.000000 0.890057 0.693357
0.000000 1.000000 0.703780
0.123537 1.000000 0.701163
0.265214 1.000000 0.698896
0.399652 1.000000 0.696745
0.529594 1.000000 0.694666
0.656291 1.000000 0.692638
0.780463 1.000000 0.690652
0.902571 1.000000 0.688698
1.000000 1.000000 0.687112
0.015816 0.005016 0.905081
0.179403 0.002399 0.902464
0.321081 0.000132 0.900197
0.455518 0.000000 0.898046
0.585460 0.000000 0.895967
0.712157 0.000000 0.893940
0.836329 0.000000 0.891953
0.958438 0.000000 0.889999
1.000000 0.000000 0.888414
0.007881 0.146872 0.897146
0.171468 0.144255 0.894528
0.313145 0.141988 0.892261
0.447582 0.139837 0.890110
0.577524 0.137758 0.888031
0.704222 0.135731 0.886004
0.828393 0.133744 0.884017
0.950502 0.131790 0.882064
1.000000 0.130205 0.880478
0.000486 0.279064 0.889751
0.164073 0.276447 0.887133
0.305750 0.274180 0.884866
0.440187 0.272029 0.882715
0.570129 0.269950 0.880636
0.696827 0.267923 0.878609
0.820998 0.265936 0.876622
0.943107 0.263982 0.874669
1.000000 0.262397 0.873083
0.000000 0.407839 0.882547
0.156869 0.405221 0.879930
0.298546 0.402954 0.877663
0.432983 0.400803 0.875512
0.562925 0.398724 0.873433
0.689623 0.396697 0.871405
0.813794 0.394710 0.869419
0.935903 0.392757 0.867465
1.000000 0.391171 0.865879
0.000000 0.534442 0.875465
0.149786 0.531825 0.872847
0.291464 0.529558 0.870580
0.425901 0.527407 0.868429
0.555843 0.525328 0.866350
0.682540 0.523301 0.864323
0.806712 0.521314 0.862336
0.928821 0.519360 0.860382
1.000000 0.517775 0.858797
0.000000 0.659456 0.868471
0.142793 0.656839 0.865854
0.284470 0.654572 0.863587
0.418908 0.652421 0.861436
0.548849 0.650342 0.859357
0.675547 0.648315 0.857330
0.799718 0.646328 0.855343
0.921827 0.644374 0.853389
1.000000 0.642789 0.851803
0.000000 0.783218 0.861548
0.135870 0.780600 0.858930
0.277547 0.778334 0.856663
0.411984 0.776183 0.854512
0.541926 0.774103 0.852433
0.668624 0.772076 0.850406
0.792795 0.770090 0.848419
0.914904 0.768136 0.846466
1.000000 0.766550 0.844880
0.000000 0.905947 0.854682
0.129004 0.903330 0.852065
0.270681 0.901063 0.849798
0.405119 0.898912 0.847647
0.535060 0.896833 0.845568
0.661758 0.894806 0.843540
0.785929 0.892819 0.841554
0.908038 0.890865 0.839600
1.000000 0.889279 0.838014
0.000000 1.000000 0.848438
0.122759 1.000000 0.845820
0.264437 1.000000 0.843553
0.398874 1.000000 0.841402
0.528816 1.000000 0.839323
0.655513 1.000000 0.837296
0.779685 1.000000 0.835309
0.901794 1.000000 0.833356
1.000000 1.000000 0.831770
0.015027 0.004227 1.000000
0.178614 0.001610 1.000000
0.320291 0.000000 1.000000
0.454729 0.000000 1.000000
0.584671 0.000000 1.000000
0.711368 0.000000 1.000000
0.835540 0.000000 1.000000
0.957648 0.000000 1.000000
1.000000 0.000000 1.000000
0.007092 0.146083 1.000000
0.170679 0.143466 1.000000
0.312356 0.141199 1.000000
0.446793 0.139048 1.000000
0.576735 0.136969 1.000000
0.703433 0.134942 1.000000
0.827604 0.132955 1.000000
0.949713 0.131001 1.000000
1.000000 0.129416 1.000000
0.000000 0.278275 1.000000
0.163284 0.275658 1.000000
0.304961 0.273391 1.000000
0.439398 0.271240 1.000000
0.569340 0.269161 1.000000
0.696038 0.267134 1.000000
0.820209 0.265147 1.000000
0.942318 0.263193 1.000000
1.000000 0.261608 1.000000
0.000000 0.407050 1.000000
0.156080 0.404432 1.000000
0.297757 0.402165 1.000000
0.432194 0.400014 1.000000
0.562136 0.397935 1.000000
0.688834 0.395908 1.000000
0.813005 0.393921 1.000000
0.935114 0.391968 1.000000
1.000000 0.390382 1.000000
0.000000 0.533653 1.000000
0.148997 0.531036 1.000000
0.290675 0.528769 1.000000
0.425112 0.526618 1.000000
0.555054 0.524539 1.000000
0.681751 0.522512 1.000000
0.805923 0.520525 1.000000
0.928032 0.518571 1.000000
1.000000 0.516986 1.000000
0.000000 0.658667 1.000000
0.142004 0.656050 1.000000
0.283681 0.653783 1.000000
0.418119 0.651632 1.000000
0.548060 0.649553 1.000000
0.674758 0.647526 1.000000
0.798929 0.645539 1.000000
0.921038 0.643585 1.000000
1.000000 0.642000 0.998549
0.000000 0.782429 1.000000
0.135081 0.779811 1.000000
0.276758 0.777545 1.000000
0.411195 0.775394 1.000000
0.541137 0.773314 0.999179
0.667835 0.771287 0.997152
0.792006 0.769301 0.995165
0.914115 0.767347 0.993211
1.000000 0.765761 0.991626
0.000000 0.905158 1.000000
0.128215 0.902541 0.998810
0.269892 0.900274 0.996544
0.404330 0.898123 0.994393
0.534271 0.896044 0.992313
0.660969 0.894017 0.990286
0.785140 0.892030 0.988300
0.907249 0.890076 0.986346
1.000000 0.888490 0.984760
0.000000 1.000000 0.995183
0.121970 1.000000 0.992566
0.263648 1.000000 0.990299
0.398085 1.000000 0.988148
0.528027 1.000000 0.986069
0.654724 1.000000 0.984042
0.778896 1.000000 0.982055
0.901005 1.000000 0.980101
1.000000 1.000000 0.978516
