project/modules/step7_final_render/luts/night.cube
TITLE "Night"
LUT_3D_SIZE 17
DOMAIN_MIN 0.0 0.0 0.0
DOMAIN_MAX 1.0 1.0 1.0
0.020108 0.020108 0.048608
0.062769 0.020580 0.049080
0.118723 0.021200 0.049700
0.176158 0.021835 0.050335
0.234577 0.022482 0.050982
0.293738 0.023136 0.051636
0.353498 0.023797 0.052297
0.413760 0.024464 0.052964
0.474456 0.025136 0.053636
0.535533 0.025812 0.054312
0.596951 0.026491 0.054991
0.658677 0.027174 0.055674
0.720685 0.027861 0.056361
0.782953 0.028550 0.057050
0.845460 0.029241 0.057741
0.908191 0.029936 0.058436
0.961526 0.030526 0.059026
0.022223 0.078395 0.050723
0.064884 0.078867 0.051195
0.120837 0.079486 0.051814
0.178273 0.080122 0.052450
0.236691 0.080768 0.053096
0.295853 0.081423 0.053751
0.355612 0.082084 0.054412
0.415875 0.082751 0.055079
0.476570 0.083423 0.055750
0.537647 0.084098 0.056426
0.599065 0.084778 0.057106
0.660792 0.085461 0.057789
0.722800 0.086147 0.058475
0.785067 0.086836 0.059164
0.847574 0.087528 0.059856
0.910306 0.088222 0.060550
0.963640 0.088812 0.061140
0.024396 0.138309 0.052896
0.067057 0.138781 0.053368
0.123011 0.139400 0.053987
0.180446 0.140036 0.054623
0.238865 0.140682 0.055269
0.298026 0.141337 0.055924
0.357786 0.141998 0.056585
0.418048 0.142665 0.057252
0.478744 0.143336 0.057924
0.539821 0.144012 0.058600
0.601239 0.144692 0.059279
0.662965 0.145375 0.059962
0.724973 0.146061 0.060649
0.787240 0.146750 0.061338
0.849748 0.147442 0.062029
0.912479 0.148136 0.062723
0.965814 0.148726 0.063314
0.026593 0.198853 0.055093
0.069254 0.199325 0.055565
0.125207 0.199944 0.056184
0.182642 0.200580 0.056819
0.241061 0.201226 0.057466
0.300222 0.201881 0.058120
0.359982 0.202542 0.058782
0.420244 0.203209 0.059449
0.480940 0.203880 0.060120
0.542017 0.204556 0.060796
0.603435 0.205236 0.061476
0.665162 0.205919 0.062159
0.727170 0.206605 0.062845
0.789437 0.207294 0.063534
0.851944 0.207986 0.064226
0.914675 0.208680 0.064920
0.968010 0.209270 0.065510
0.028804 0.259809 0.057304
0.071465 0.260281 0.057776
0.127419 0.260901 0.058395
0.184854 0.261536 0.059031
0.243272 0.262183 0.059677
0.302434 0.262837 0.060332
0.362193 0.263499 0.060993
0.422456 0.264165 0.061660
0.483151 0.264837 0.062331
0.544228 0.265513 0.063007
0.605646 0.266193 0.063687
0.667373 0.266876 0.064370
0.729381 0.267562 0.065056
0.791648 0.268251 0.065745
0.854155 0.268942 0.066437
0.916887 0.269637 0.067131
0.970221 0.270227 0.067721
0.031026 0.321075 0.059526
0.073687 0.321547 0.059998
0.129641 0.322166 0.060618
0.187076 0.322802 0.061253
0.245495 0.323448 0.061900
0.304656 0.324103 0.062554
0.364416 0.324764 0.063216
0.424678 0.325431 0.063882
0.485374 0.326102 0.064554
0.546451 0.326778 0.065230
0.607869 0.327458 0.065909
0.669595 0.328141 0.066593
0.731603 0.328827 0.067279
0.793871 0.329516 0.067968
0.856378 0.330208 0.068659
0.919109 0.330902 0.069354
0.972444 0.331492 0.069944
0.033258 0.382587 0.061758
0.075919 0.383060 0.062230
0.131873 0.383679 0.062849
0.189308 0.384314 0.063485
0.247726 0.384961 0.064131
0.306888 0.385615 0.064786
0.366647 0.386277 0.065447
0.426910 0.386944 0.066114
0.487605 0.387615 0.066785
0.548682 0.388291 0.067461
0.610100 0.388971 0.068141
0.671827 0.389654 0.068824
0.733835 0.390340 0.069510
0.796102 0.391029 0.070199
0.858609 0.391721 0.070891
0.921341 0.392415 0.071585
0.974675 0.393005 0.072175
0.035497 0.444306 0.063997
0.078158 0.444779 0.064469
0.134111 0.445398 0.065088
0.191547 0.446033 0.065724
0.249965 0.446680 0.066370
0.309127 0.447334 0.067025
0.368886 0.447996 0.067686
0.429149 0.448663 0.068353
0.489844 0.449334 0.069024
0.550921 0.450010 0.069700
0.612339 0.450690 0.070380
0.674066 0.451373 0.071063
0.736074 0.452059 0.071749
0.798341 0.452748 0.072438
0.860848 0.453440 0.073130
0.923580 0.454134 0.073824
0.976914 0.454724 0.074414
0.037742 0.506203 0.066242
0.080403 0.506675 0.066714
0.136357 0.507294 0.067333
0.193792 0.507929 0.067969
0.252211 0.508576 0.068615
0.311372 0.509231 0.069270
0.371132 0.509892 0.069931
0.431394 0.510559 0.070598
0.492090 0.511230 0.071270
0.553167 0.511906 0.071946
0.614585 0.512586 0.072625
0.676311 0.513269 0.073308
0.738319 0.513955 0.073994
0.800586 0.514644 0.074684
0.863094 0.515336 0.075375
0.925825 0.516030 0.076069
0.979160 0.516620 0.076660
0.039993 0.568254 0.068493
0.082654 0.568726 0.068965
0.138608 0.569345 0.069584
0.196043 0.569981 0.070220
0.254462 0.570627 0.070866
0.313623 0.571282 0.071521
0.373383 0.571943 0.072182
0.433645 0.572610 0.072849
0.494341 0.573282 0.073521
0.555418 0.573958 0.074197
0.616836 0.574637 0.074876
0.678562 0.575320 0.075559
0.740570 0.576007 0.076246
0.802837 0.576696 0.076935
0.865345 0.577387 0.077626
0.928076 0.578081 0.078320
0.981411 0.578672 0.078911
0.042249 0.630444 0.070749
0.084910 0.630916 0.071221
0.140864 0.631535 0.071840
0.198299 0.632171 0.072476
0.256718 0.632817 0.073122
0.315879 0.633472 0.073777
0.375639 0.634133 0.074438
0.435901 0.634800 0.075105
0.496597 0.635472 0.075777
0.557674 0.636148 0.076453
0.619092 0.636827 0.077132
0.680818 0.637510 0.077815
0.742826 0.638196 0.078502
0.805093 0.638885 0.079191
0.867601 0.639577 0.079882
0.930332 0.640271 0.080576
0.983667 0.640861 0.081167
0.044510 0.692759 0.073010
0.087171 0.693231 0.073482
0.143124 0.693850 0.074101
0.200560 0.694485 0.074737
0.258978 0.695132 0.075383
0.318140 0.695787 0.076038
0.377899 0.696448 0.076699
0.438162 0.697115 0.077366
0.498857 0.697786 0.078037
0.559934 0.698462 0.078713
0.621352 0.699142 0.079393
0.683079 0.699825 0.080076
0.745087 0.700511 0.080762
0.807354 0.701200 0.081451
0.869861 0.701892 0.082143
0.932593 0.702586 0.082837
0.985927 0.703176 0.083427
0.046774 0.755187 0.075274
0.089435 0.755659 0.075747
0.145389 0.756278 0.076366
0.202824 0.756914 0.077001
0.261243 0.757560 0.077648
0.320404 0.758215 0.078302
0.380164 0.758876 0.078964
0.440426 0.759543 0.079630
0.501122 0.760214 0.080302
0.562199 0.760890 0.080978
0.623617 0.761570 0.081658
0.685343 0.762253 0.082341
0.747351 0.762939 0.083027
0.809619 0.763628 0.083716
0.872126 0.764320 0.084407
0.934857 0.765014 0.085102
0.988192 0.765604 0.085692
0.049043 0.817719 0.077543
0.091704 0.818191 0.078015
0.147658 0.818810 0.078634
0.205093 0.819446 0.079270
0.263511 0.820092 0.079916
0.322673 0.820747 0.080571
0.382433 0.821408 0.081232
0.442695 0.822075 0.081899
0.503390 0.822747 0.082571
0.564467 0.823423 0.083246
0.625885 0.824102 0.083926
0.687612 0.824785 0.084609
0.749620 0.825471 0.085295
0.811887 0.826160 0.085984
0.874395 0.826852 0.086676
0.937126 0.827546 0.087370
0.990460 0.828137 0.087960
0.051315 0.880348 0.079815
0.093976 0.880820 0.080287
0.149930 0.881439 0.080906
0.207365 0.882075 0.081542
0.265783 0.882721 0.082188
0.324945 0.883376 0.082843
0.384704 0.884037 0.083504
0.444967 0.884704 0.084171
0.505662 0.885376 0.084842
0.566739 0.886051 0.085518
0.628157 0.886731 0.086198
0.689884 0.887414 0.086881
0.751892 0.888100 0.087567
0.814159 0.888789 0.088256
0.876666 0.889481 0.088948
0.939398 0.890175 0.089642
0.992732 0.890765 0.090232
0.053590 0.943066 0.082090
0.096251 0.943538 0.082562
0.152205 0.944157 0.083181
0.209640 0.944793 0.083817
0.268059 0.945439 0.084463
0.327220 0.946094 0.085118
0.386980 0.946755 0.085779
0.447242 0.947422 0.086446
0.507937 0.948094 0.087118
0.569015 0.948770 0.087794
0.630433 0.949449 0.088473
0.692159 0.950132 0.089156
0.754167 0.950819 0.089842
0.816434 0.951508 0.090531
0.878942 0.952199 0.091223
0.941673 0.952893 0.091917
0.995007 0.953484 0.092507
0.055153 0.986153 0.083653
0.097814 0.986625 0.084125
0.153768 0.987244 0.084744
0.211203 0.987880 0.085380
0.269622 0.988526 0.086026
0.328783 0.989181 0.086681
0.388543 0.989842 0.087342
0.448805 0.990509 0.088009
0.509501 0.991181 0.088681
0.570578 0.991857 0.089357
0.631996 0.992536 0.090036
0.693722 0.993219 0.090719
0.755730 0.993905 0.091405
0.817997 0.994594 0.092094
0.880505 0.995286 0.092786
0.943236 0.995980 0.093480
0.996571 0.996571 0.094071
0.020390 0.020390 0.123010
0.063051 0.020862 0.123482
0.119005 0.021481 0.124101
0.176440 0.022117 0.124736
0.234859 0.022763 0.125383
0.294020 0.023418 0.126037
0.353780 0.024079 0.126699
0.414042 0.024746 0.127366
0.474737 0.025418 0.128037
0.535814 0.026093 0.128713
0.597233 0.026773 0.129393
0.658959 0.027456 0.130076
0.720967 0.028142 0.130762
0.783234 0.028831 0.131451
0.845742 0.029523 0.132143
0.908473 0.030217 0.132837
0.961807 0.030807 0.133427
0.022504 0.078677 0.125124
0.065165 0.079149 0.125596
0.121119 0.079768 0.126215
0.178554 0.080403 0.126851
0.236973 0.081050 0.127497
0.296134 0.081704 0.128152
0.355894 0.082366 0.128813
0.416156 0.083033 0.129480
0.476852 0.083704 0.130152
0.537929 0.084380 0.130828
0.599347 0.085060 0.131507
0.661073 0.085743 0.132190
0.723081 0.086429 0.132876
0.785349 0.087118 0.133565
0.847856 0.087810 0.134257
0.910587 0.088504 0.134951
0.963922 0.089094 0.135541
0.024678 0.138590 0.127297
0.067339 0.139063 0.127770
0.123293 0.139682 0.128389
0.180728 0.140317 0.129024
0.239146 0.140964 0.129671
0.298308 0.141618 0.130325
0.358068 0.142280 0.130987
0.418330 0.142946 0.131654
0.479025 0.143618 0.132325
0.540102 0.144294 0.133001
0.601520 0.144974 0.133681
0.663247 0.145657 0.134364
0.725255 0.146343 0.135050
0.787522 0.147032 0.135739
0.850030 0.147724 0.136431
0.912761 0.148418 0.137125
0.966095 0.149008 0.137715
0.026874 0.199134 0.129494
0.069535 0.199606 0.129966
0.125489 0.200226 0.130585
0.182924 0.200861 0.131221
0.241343 0.201508 0.131867
0.300504 0.202162 0.132522
0.360264 0.202824 0.133183
0.420526 0.203490 0.133850
0.481222 0.204162 0.134521
0.542299 0.204838 0.135197
0.603717 0.205518 0.135877
0.665443 0.206201 0.136560
0.727451 0.206887 0.137246
0.789718 0.207576 0.137935
0.852226 0.208267 0.138627
0.914957 0.208962 0.139321
0.968292 0.209552 0.139911
0.029085 0.260091 0.131705
0.071747 0.260563 0.132177
0.127700 0.261182 0.132796
0.185135 0.261818 0.133432
0.243554 0.262464 0.134078
0.302715 0.263119 0.134733
0.362475 0.263780 0.135394
0.422737 0.264447 0.136061
0.483433 0.265119 0.136733
0.544510 0.265795 0.137409
0.605928 0.266474 0.138088
0.667654 0.267157 0.138771
0.729663 0.267843 0.139457
0.791930 0.268532 0.140146
0.854437 0.269224 0.140838
0.917168 0.269918 0.141532
0.970503 0.270508 0.142123
0.031308 0.321356 0.133928
0.073969 0.321829 0.134400
0.129923 0.322448 0.135019
0.187358 0.323083 0.135654
0.245777 0.323730 0.136301
0.304938 0.324384 0.136956
0.364698 0.325046 0.137617
0.424960 0.325713 0.138284
0.485655 0.326384 0.138955
0.546733 0.327060 0.139631
0.608151 0.327740 0.140311
0.669877 0.328423 0.140994
0.731885 0.329109 0.141680
0.794152 0.329798 0.142369
0.856660 0.330490 0.143061
0.919391 0.331184 0.143755
0.972725 0.331774 0.144345
0.033539 0.382869 0.136159
0.076200 0.383341 0.136631
0.132154 0.383960 0.137250
0.189589 0.384596 0.137886
0.248008 0.385242 0.138532
0.307169 0.385897 0.139187
0.366929 0.386558 0.139848
0.427191 0.387225 0.140515
0.487887 0.387897 0.141187
0.548964 0.388573 0.141863
0.610382 0.389252 0.142542
0.672108 0.389935 0.143225
0.734116 0.390621 0.143911
0.796384 0.391311 0.144600
0.858891 0.392002 0.145292
0.921622 0.392696 0.145986
0.974957 0.393287 0.146576
0.035778 0.444588 0.138398
0.078439 0.445060 0.138870
0.134393 0.445679 0.139489
0.191828 0.446315 0.140125
0.250247 0.446961 0.140771
0.309408 0.447616 0.141426
0.369168 0.448277 0.142087
0.429430 0.448944 0.142754
0.490126 0.449616 0.143426
0.551203 0.450292 0.144102
0.612621 0.450971 0.144781
0.674347 0.451654 0.145464
0.736355 0.452340 0.146150
0.798623 0.453030 0.146839
0.861130 0.453721 0.147531
0.923861 0.454415 0.148225
0.977196 0.455006 0.148815
0.038024 0.506484 0.140643
0.080685 0.506956 0.141115
0.136639 0.507576 0.141735
0.194074 0.508211 0.142370
0.252492 0.508858 0.143017
0.311654 0.509512 0.143671
0.371413 0.510174 0.144333
0.431676 0.510840 0.144999
0.492371 0.511512 0.145671
0.553448 0.512188 0.146347
0.614866 0.512867 0.147027
0.676593 0.513551 0.147710
0.738601 0.514237 0.148396
0.800868 0.514926 0.149085
0.863375 0.515617 0.149776
0.926107 0.516312 0.150471
0.979441 0.516902 0.151061
0.040275 0.568536 0.142894
0.082936 0.569008 0.143367
0.138890 0.569627 0.143986
0.196325 0.570263 0.144621
0.254743 0.570909 0.145268
0.313905 0.571564 0.145922
0.373664 0.572225 0.146584
0.433927 0.572892 0.147250
0.494622 0.573564 0.147922
0.555699 0.574239 0.148598
0.617117 0.574919 0.149278
0.678844 0.575602 0.149961
0.740852 0.576288 0.150647
0.803119 0.576977 0.151336
0.865626 0.577669 0.152027
0.928358 0.578363 0.152722
0.981692 0.578953 0.153312
0.042531 0.630726 0.145150
0.085192 0.631198 0.145623
0.141146 0.631817 0.146242
0.198581 0.632452 0.146877
0.256999 0.633099 0.147524
0.316161 0.633754 0.148178
0.375920 0.634415 0.148840
0.436183 0.635082 0.149506
0.496878 0.635753 0.150178
0.557955 0.636429 0.150854
0.619373 0.637109 0.151534
0.681100 0.637792 0.152217
0.743108 0.638478 0.152903
0.805375 0.639167 0.153592
0.867882 0.639859 0.154284
0.930614 0.640553 0.154978
0.983948 0.641143 0.155568
0.044791 0.693040 0.147411
0.087452 0.693512 0.147883
0.143406 0.694132 0.148502
0.200841 0.694767 0.149138
0.259260 0.695414 0.149784
0.318421 0.696068 0.150439
0.378181 0.696729 0.151100
0.438443 0.697396 0.151767
0.499139 0.698068 0.152439
0.560216 0.698744 0.153115
0.621634 0.699423 0.153794
0.683360 0.700106 0.154477
0.745368 0.700793 0.155163
0.807636 0.701482 0.155852
0.870143 0.702173 0.156544
0.932874 0.702867 0.157238
0.986209 0.703458 0.157828
0.047056 0.755468 0.149676
0.089717 0.755940 0.150148
0.145671 0.756560 0.150767
0.203106 0.757195 0.151403
0.261525 0.757842 0.152049
0.320686 0.758496 0.152704
0.380446 0.759158 0.153365
0.440708 0.759824 0.154032
0.501403 0.760496 0.154703
0.562481 0.761172 0.155379
0.623899 0.761852 0.156059
0.685625 0.762535 0.156742
0.747633 0.763221 0.157428
0.809900 0.763910 0.158117
0.872408 0.764601 0.158809
0.935139 0.765296 0.159503
0.988473 0.765886 0.160093
0.049325 0.818001 0.151944
0.091986 0.818473 0.152416
0.147939 0.819092 0.153035
0.205374 0.819728 0.153671
0.263793 0.820374 0.154317
0.322954 0.821029 0.154972
0.382714 0.821690 0.155633
0.442976 0.822357 0.156300
0.503672 0.823028 0.156972
0.564749 0.823704 0.157648
0.626167 0.824384 0.158327
0.687894 0.825067 0.159010
0.749902 0.825753 0.159697
0.812169 0.826442 0.160386
0.874676 0.827134 0.161077
0.937407 0.827828 0.161771
0.990742 0.828418 0.162362
0.051597 0.880630 0.154216
0.094258 0.881102 0.154688
0.150211 0.881721 0.155307
0.207646 0.882356 0.155943
0.266065 0.883003 0.156589
0.325226 0.883657 0.157244
0.384986 0.884319 0.157905
0.445248 0.884986 0.158572
0.505944 0.885657 0.159244
0.567021 0.886333 0.159920
0.628439 0.887013 0.160599
0.690166 0.887696 0.161282
0.752174 0.888382 0.161968
0.814441 0.889071 0.162657
0.876948 0.889763 0.163349
0.939679 0.890457 0.164043
0.993014 0.891047 0.164634
0.053872 0.943348 0.156491
0.096533 0.943820 0.156963
0.152486 0.944439 0.157583
0.209922 0.945075 0.158218
0.268340 0.945721 0.158865
0.327502 0.946376 0.159519
0.387261 0.947037 0.160181
0.447524 0.947704 0.160847
0.508219 0.948376 0.161519
0.569296 0.949051 0.162195
0.630714 0.949731 0.162874
0.692441 0.950414 0.163558
0.754449 0.951100 0.164244
0.816716 0.951789 0.164933
0.879223 0.952481 0.165624
0.941955 0.953175 0.166319
0.995289 0.953765 0.166909
0.055435 0.986435 0.158054
0.098096 0.986907 0.158526
0.154049 0.987526 0.159146
0.211485 0.988162 0.159781
0.269903 0.988808 0.160428
0.329065 0.989463 0.161082
0.388824 0.990124 0.161744
0.449087 0.990791 0.162410
0.509782 0.991462 0.163082
0.570859 0.992138 0.163758
0.632277 0.992818 0.164438
0.694004 0.993501 0.165121
0.756012 0.994187 0.165807
0.818279 0.994876 0.166496
0.880786 0.995568 0.167187
0.943518 0.996262 0.167882
0.996852 0.996852 0.168472
0.020641 0.020641 0.189384
0.063302 0.021113 0.189856
0.119256 0.021732 0.190475
0.176691 0.022368 0.191111
0.235110 0.023014 0.191757
0.294271 0.023669 0.192412
0.354031 0.024330 0.193073
0.414293 0.024997 0.193740
0.474989 0.025669 0.194412
0.536066 0.026345 0.195088
0.597484 0.027024 0.195767
0.659210 0.027707 0.196450
0.721218 0.028394 0.197136
0.783485 0.029083 0.197825
0.845993 0.029774 0.198517
0.908724 0.030468 0.199211
0.962059 0.031059 0.199802
0.022756 0.078928 0.191499
0.065417 0.079400 0.191971
0.121370 0.080019 0.192590
0.178805 0.080655 0.193225
0.237224 0.081301 0.193872
0.296386 0.081956 0.194526
0.356145 0.082617 0.195188
0.416407 0.083284 0.195855
0.477103 0.083955 0.196526
0.538180 0.084631 0.197202
0.599598 0.085311 0.197882
0.661325 0.085994 0.198565
0.723333 0.086680 0.199251
0.785600 0.087369 0.199940
0.848107 0.088061 0.200632
0.910839 0.088755 0.201326
0.964173 0.089345 0.201916
0.024929 0.138842 0.193672
0.067590 0.139314 0.194144
0.123544 0.139933 0.194763
0.180979 0.140569 0.195399
0.239398 0.141215 0.196045
0.298559 0.141870 0.196700
0.358319 0.142531 0.197361
0.418581 0.143198 0.198028
0.479277 0.143869 0.198700
0.540354 0.144545 0.199376
0.601772 0.145225 0.200055
0.663498 0.145908 0.200738
0.725506 0.146594 0.201424
0.787773 0.147283 0.202113
0.850281 0.147975 0.202805
0.913012 0.148669 0.203499
0.966347 0.149259 0.204089
0.027125 0.199386 0.195868
0.069786 0.199858 0.196340
0.125740 0.200477 0.196960
0.183175 0.201112 0.197595
0.241594 0.201759 0.198242
0.300755 0.202414 0.198896
0.360515 0.203075 0.199558
0.420777 0.203742 0.200224
0.481473 0.204413 0.200896
0.542550 0.205089 0.201572
0.603968 0.205769 0.202251
0.665694 0.206452 0.202935
0.727702 0.207138 0.203621
0.789970 0.207827 0.204310
0.852477 0.208519 0.205001
0.915208 0.209213 0.205696
0.968543 0.209803 0.206286
0.029337 0.260342 0.198080
0.071998 0.260814 0.198552
0.127951 0.261434 0.199171
0.185387 0.262069 0.199806
0.243805 0.262716 0.200453
0.302967 0.263370 0.201108
0.362726 0.264031 0.201769
0.422989 0.264698 0.202436
0.483684 0.265370 0.203107
0.544761 0.266046 0.203783
0.606179 0.266725 0.204463
0.667906 0.267408 0.205146
0.729914 0.268095 0.205832
0.792181 0.268784 0.206521
0.854688 0.269475 0.207213
0.917420 0.270170 0.207907
0.970754 0.270760 0.208497
0.031559 0.321608 0.200302
0.074220 0.322080 0.200774
0.130174 0.322699 0.201393
0.187609 0.323335 0.202029
0.246028 0.323981 0.202675
0.305189 0.324636 0.203330
0.364949 0.325297 0.203991
0.425211 0.325964 0.204658
0.485907 0.326635 0.205330
0.546984 0.327311 0.206006
0.608402 0.327991 0.206685
0.670128 0.328674 0.207368
0.732136 0.329360 0.208054
0.794404 0.330049 0.208744
0.856911 0.330741 0.209435
0.919642 0.331435 0.210129
0.972977 0.332025 0.210720
0.033791 0.383120 0.202534
0.076452 0.383592 0.203006
0.132405 0.384212 0.203625
0.189841 0.384847 0.204260
0.248259 0.385494 0.204907
0.307421 0.386148 0.205561
0.367180 0.386810 0.206223
0.427443 0.387476 0.206890
0.488138 0.388148 0.207561
0.549215 0.388824 0.208237
0.610633 0.389504 0.208917
0.672360 0.390187 0.209600
0.734368 0.390873 0.210286
0.796635 0.391562 0.210975
0.859142 0.392253 0.211667
0.921874 0.392948 0.212361
0.975208 0.393538 0.212951
0.036030 0.444839 0.204773
0.078691 0.445311 0.205245
0.134644 0.445931 0.205864
0.192080 0.446566 0.206499
0.250498 0.447213 0.207146
0.309660 0.447867 0.207800
0.369419 0.448529 0.208462
0.429681 0.449195 0.209129
0.490377 0.449867 0.209800
0.551454 0.450543 0.210476
0.612872 0.451223 0.211156
0.674599 0.451906 0.211839
0.736607 0.452592 0.212525
0.798874 0.453281 0.213214
0.861381 0.453972 0.213906
0.924113 0.454667 0.214600
0.977447 0.455257 0.215190
0.038275 0.506736 0.207018
0.080936 0.507208 0.207490
0.136890 0.507827 0.208109
0.194325 0.508462 0.208745
0.252744 0.509109 0.209391
0.311905 0.509763 0.210046
0.371665 0.510425 0.210707
0.431927 0.511092 0.211374
0.492622 0.511763 0.212046
0.553700 0.512439 0.212721
0.615118 0.513119 0.213401
0.676844 0.513802 0.214084
0.738852 0.514488 0.214770
0.801119 0.515177 0.215459
0.863627 0.515869 0.216151
0.926358 0.516563 0.216845
0.979692 0.517153 0.217435
0.040526 0.568787 0.209269
0.083187 0.569259 0.209741
0.139141 0.569878 0.210360
0.196576 0.570514 0.210996
0.254995 0.571160 0.211642
0.314156 0.571815 0.212297
0.373916 0.572476 0.212958
0.434178 0.573143 0.213625
0.494873 0.573815 0.214297
0.555951 0.574491 0.214972
0.617369 0.575170 0.215652
0.679095 0.575853 0.216335
0.741103 0.576539 0.217021
0.803370 0.577228 0.217710
0.865878 0.577920 0.218402
0.928609 0.578614 0.219096
0.981943 0.579205 0.219686
0.042782 0.630977 0.211525
0.085443 0.631449 0.211997
0.141397 0.632068 0.212616
0.198832 0.632704 0.213252
0.257251 0.633350 0.213898
0.316412 0.634005 0.214553
0.376172 0.634666 0.215214
0.436434 0.635333 0.215881
0.497130 0.636005 0.216553
0.558207 0.636680 0.217229
0.619625 0.637360 0.217908
0.681351 0.638043 0.218591
0.743359 0.638729 0.219277
0.805626 0.639418 0.219966
0.868134 0.640110 0.220658
0.930865 0.640804 0.221352
0.984200 0.641394 0.221942
0.045043 0.693292 0.213786
0.087704 0.693764 0.214258
0.143657 0.694383 0.214877
0.201092 0.695018 0.215512
0.259511 0.695665 0.216159
0.318673 0.696319 0.216813
0.378432 0.696981 0.217475
0.438694 0.697648 0.218142
0.499390 0.698319 0.218813
0.560467 0.698995 0.219489
0.621885 0.699675 0.220169
0.683612 0.700358 0.220852
0.745620 0.701044 0.221538
0.807887 0.701733 0.222227
0.870394 0.702425 0.222919
0.933126 0.703119 0.223613
0.986460 0.703709 0.224203
0.047307 0.755720 0.216050
0.089968 0.756192 0.216522
0.145922 0.756811 0.217141
0.203357 0.757446 0.217777
0.261776 0.758093 0.218423
0.320937 0.758748 0.219078
0.380697 0.759409 0.219739
0.440959 0.760076 0.220406
0.501655 0.760747 0.221078
0.562732 0.761423 0.221754
0.624150 0.762103 0.222433
0.685876 0.762786 0.223116
0.747884 0.763472 0.223803
0.810152 0.764161 0.224492
0.872659 0.764853 0.225183
0.935390 0.765547 0.225877
0.988725 0.766137 0.226468
0.049576 0.818252 0.218319
0.092237 0.818724 0.218791
0.148191 0.819343 0.219410
0.205626 0.819979 0.220045
0.264044 0.820625 0.220692
0.323206 0.821280 0.221347
0.382965 0.821941 0.222008
0.443228 0.822608 0.222675
0.503923 0.823280 0.223346
0.565000 0.823956 0.224022
0.626418 0.824635 0.224702
0.688145 0.825318 0.225385
0.750153 0.826004 0.226071
0.812420 0.826693 0.226760
0.874927 0.827385 0.227452
0.937659 0.828079 0.228146
0.990993 0.828669 0.228736
0.051848 0.880881 0.220591
0.094509 0.881353 0.221063
0.150462 0.881972 0.221682
0.207898 0.882608 0.222317
0.266316 0.883254 0.222964
0.325478 0.883909 0.223619
0.385237 0.884570 0.224280
0.445500 0.885237 0.224947
0.506195 0.885908 0.225618
0.567272 0.886584 0.226294
0.628690 0.887264 0.226974
0.690417 0.887947 0.227657
0.752425 0.888633 0.228343
0.814692 0.889322 0.229032
0.877199 0.890014 0.229724
0.939931 0.890708 0.230418
0.993265 0.891298 0.231008
0.054123 0.943599 0.222866
0.096784 0.944071 0.223338
0.152738 0.944690 0.223957
0.210173 0.945326 0.224593
0.268592 0.945972 0.225239
0.327753 0.946627 0.225894
0.387513 0.947288 0.226555
0.447775 0.947955 0.227222
0.508470 0.948627 0.227894
0.569547 0.949303 0.228569
0.630966 0.949982 0.229249
0.692692 0.950665 0.229932
0.754700 0.951351 0.230618
0.816967 0.952040 0.231307
0.879475 0.952732 0.231999
0.942206 0.953426 0.232693
0.995540 0.954017 0.233283
0.055686 0.986686 0.224429
0.098347 0.987158 0.224901
0.154301 0.987777 0.225520
0.211736 0.988413 0.226156
0.270155 0.989059 0.226802
0.329316 0.989714 0.227457
0.389076 0.990375 0.228118
0.449338 0.991042 0.228785
0.510033 0.991714 0.229457
0.571111 0.992390 0.230132
0.632529 0.993069 0.230812
0.694255 0.993752 0.231495
0.756263 0.994438 0.232181
0.818530 0.995127 0.232870
0.881038 0.995819 0.233562
0.943769 0.996513 0.234256
0.997103 0.997103 0.234846
0.020882 0.020882 0.253032
0.063543 0.021354 0.253504
0.119497 0.021973 0.254124
0.176932 0.022609 0.254759
0.235351 0.023255 0.255406
0.294512 0.023910 0.256060
0.354272 0.024571 0.256722
0.414534 0.025238 0.257388
0.475230 0.025910 0.258060
0.536307 0.026586 0.258736
0.597725 0.027265 0.259415
0.659451 0.027948 0.260099
0.721459 0.028635 0.260785
0.783726 0.029324 0.261474
0.846234 0.030015 0.262165
0.908965 0.030709 0.262860
0.962300 0.031300 0.263450
0.022997 0.079169 0.255147
0.065658 0.079641 0.255619
