project/modules/step7_final_render/luts/night.cube
TITLE "Night"
LUT_3D_SIZE 5
DOMAIN_MIN 0.0 0.0 0.0
DOMAIN_MAX 1.0 1.0 1.0
0.020108 0.020108 0.048608
0.234577 0.022482 0.050982
0.474456 0.025136 0.053636
0.720685 0.027861 0.056361
0.961526 0.030526 0.059026
0.028804 0.259809 0.057304
0.243272 0.262183 0.059677
0.483151 0.264837 0.062331
0.729381 0.267562 0.065056
0.970221 0.270227 0.067721
0.037742 0.506203 0.066242
0.252211 0.508576 0.068615
0.492090 0.511230 0.071270
0.738319 0.513955 0.073994
0.979160 0.516620 0.076660
0.046774 0.755187 0.075274
0.261243 0.757560 0.077648
0.501122 0.760214 0.080302
0.747351 0.762939 0.083027
0.988192 0.765604 0.085692
0.055153 0.986153 0.083653
0.269622 0.988526 0.086026
0.509501 0.991181 0.088681
0.755730 0.993905 0.091405
0.996571 0.996571 0.094071
0.021117 0.021117 0.314972
0.235585 0.023490 0.317346
0.475464 0.026144 0.320000
0.721694 0.028869 0.322725
0.962534 0.031534 0.325390
0.029812 0.260818 0.323668
0.244281 0.263191 0.326041
0.484160 0.265845 0.328696
0.730389 0.268570 0.331420
0.971230 0.271235 0.334085
0.038750 0.507211 0.332606
0.253219 0.509584 0.334979
0.493098 0.512239 0.337634
0.739328 0.514963 0.340359
0.980168 0.517628 0.343024
0.047783 0.756195 0.341638
0.262251 0.758568 0.344012
0.502130 0.761223 0.346666
0.748360 0.763947 0.349391
0.989200 0.766612 0.352056
0.056161 0.987161 0.350017
0.270630 0.989535 0.352390
0.510509 0.992189 0.355045
0.756738 0.994914 0.357769
0.997579 0.997579 0.360435
0.022016 0.022016 0.552600
0.236485 0.024389 0.554973
0.476364 0.027044 0.557627
0.722593 0.029769 0.560352
0.963434 0.032434 0.563017
0.030712 0.261717 0.561295
0.245180 0.264091 0.563669
0.485059 0.266745 0.566323
0.731289 0.269470 0.569048
0.972129 0.272135 0.571713
0.039650 0.508111 0.570234
0.254119 0.510484 0.572607
0.493997 0.513138 0.575261
0.740227 0.515863 0.577986
0.981067 0.518528 0.580651
0.048682 0.757095 0.579266
0.263151 0.759468 0.581639
0.503030 0.762122 0.584294
0.749259 0.764847 0.587018
0.990100 0.767512 0.589683
0.057061 0.988061 0.587645
0.271530 0.990434 0.590018
0.511408 0.993089 0.592672
0.757638 0.995813 0.595397
0.998478 0.998478 0.598062
0.022879 0.022879 0.780467
0.237347 0.025252 0.782840
0.477226 0.027906 0.785495
0.723456 0.030631 0.788219
0.964296 0.033296 0.790884
0.031574 0.262580 0.789162
0.246043 0.264953 0.791536
0.485922 0.267608 0.794190
0.732151 0.270332 0.796915
0.972992 0.272997 0.799580
0.040513 0.508973 0.798101
0.254981 0.511346 0.800474
0.494860 0.514001 0.803128
0.741090 0.516726 0.805853
0.981930 0.519391 0.808518
0.049545 0.757957 0.807133
0.264014 0.760331 0.809506
0.503892 0.762985 0.812161
0.750122 0.765710 0.814885
0.990962 0.768375 0.817550
0.057924 0.988924 0.815512
0.272392 0.991297 0.817885
0.512271 0.993951 0.820539
0.758501 0.996676 0.823264
0.999341 0.999341 0.825929
0.023538 0.023538 0.954538
0.238006 0.025911 0.956911
0.477885 0.028565 0.959565
0.724115 0.031290 0.962290
0.964955 0.033955 0.964955
0.032233 0.263239 0.963233
0.246702 0.265612 0.965607
0.486581 0.268267 0.968261
0.732810 0.270991 0.970986
0.973651 0.273656 0.973651
0.041172 0.509632 0.972172
0.255640 0.512005 0.974545
0.495519 0.514660 0.977199
0.741749 0.517385 0.979924
0.982589 0.520050 0.982589
0.050204 0.758616 0.981204
0.264673 0.760989 0.983577
0.504551 0.763644 0.986232
0.750781 0.766369 0.988956
0.991621 0.769034 0.991621
0.058583 0.989583 0.989583
0.273051 0.991956 0.991956
0.512930 0.994610 0.994610
0.759160 0.997335 0.997335
1.000000 1.000000 1.000000
