project/modules/step7_final_render/luts/night.cube
TITLE "Night"
LUT_3D_SIZE 9
DOMAIN_MIN 0.0 0.0 0.0
DOMAIN_MAX 1.0 1.0 1.0
0.020108 0.020108 0.048608
0.118723 0.021200 0.049700
0.234577 0.022482 0.050982
0.353498 0.023797 0.052297
0.474456 0.025136 0.053636
0.596951 0.026491 0.054991
0.720685 0.027861 0.056361
0.845460 0.029241 0.057741
0.961526 0.030526 0.059026
0.024396 0.138309 0.052896
0.123011 0.139400 0.053987
0.238865 0.140682 0.055269
0.357786 0.141998 0.056585
0.478744 0.143336 0.057924
0.601239 0.144692 0.059279
0.724973 0.146061 0.060649
0.849748 0.147442 0.062029
0.965814 0.148726 0.063314
0.028804 0.259809 0.057304
0.127419 0.260901 0.058395
0.243272 0.262183 0.059677
0.362193 0.263499 0.060993
0.483151 0.264837 0.062331
0.605646 0.266193 0.063687
0.729381 0.267562 0.065056
0.854155 0.268942 0.066437
0.970221 0.270227 0.067721
0.033258 0.382587 0.061758
0.131873 0.383679 0.062849
0.247726 0.384961 0.064131
0.366647 0.386277 0.065447
0.487605 0.387615 0.066785
0.610100 0.388971 0.068141
0.733835 0.390340 0.069510
0.858609 0.391721 0.070891
0.974675 0.393005 0.072175
0.037742 0.506203 0.066242
0.136357 0.507294 0.067333
0.252211 0.508576 0.068615
0.371132 0.509892 0.069931
0.492090 0.511230 0.071270
0.614585 0.512586 0.072625
0.738319 0.513955 0.073994
0.863094 0.515336 0.075375
0.979160 0.516620 0.076660
0.042249 0.630444 0.070749
0.140864 0.631535 0.071840
0.256718 0.632817 0.073122
0.375639 0.634133 0.074438
0.496597 0.635472 0.075777
0.619092 0.636827 0.077132
0.742826 0.638196 0.078502
0.867601 0.639577 0.079882
0.983667 0.640861 0.081167
0.046774 0.755187 0.075274
0.145389 0.756278 0.076366
0.261243 0.757560 0.077648
0.380164 0.758876 0.078964
0.501122 0.760214 0.080302
0.623617 0.761570 0.081658
0.747351 0.762939 0.083027
0.872126 0.764320 0.084407
0.988192 0.765604 0.085692
0.051315 0.880348 0.079815
0.149930 0.881439 0.080906
0.265783 0.882721 0.082188
0.384704 0.884037 0.083504
0.505662 0.885376 0.084842
0.628157 0.886731 0.086198
0.751892 0.888100 0.087567
0.876666 0.889481 0.088948
0.992732 0.890765 0.090232
0.055153 0.986153 0.083653
0.153768 0.987244 0.084744
0.269622 0.988526 0.086026
0.388543 0.989842 0.087342
0.509501 0.991181 0.088681
0.631996 0.992536 0.090036
0.755730 0.993905 0.091405
0.880505 0.995286 0.092786
0.996571 0.996571 0.094071
0.020641 0.020641 0.189384
0.119256 0.021732 0.190475
0.235110 0.023014 0.191757
0.354031 0.024330 0.193073
0.474989 0.025669 0.194412
0.597484 0.027024 0.195767
0.721218 0.028394 0.197136
0.845993 0.029774 0.198517
0.962059 0.031059 0.199802
0.024929 0.138842 0.193672
0.123544 0.139933 0.194763
0.239398 0.141215 0.196045
0.358319 0.142531 0.197361
0.479277 0.143869 0.198700
0.601772 0.145225 0.200055
0.725506 0.146594 0.201424
0.850281 0.147975 0.202805
0.966347 0.149259 0.204089
0.029337 0.260342 0.198080
0.127951 0.261434 0.199171
0.243805 0.262716 0.200453
0.362726 0.264031 0.201769
0.483684 0.265370 0.203107
0.606179 0.266725 0.204463
0.729914 0.268095 0.205832
0.854688 0.269475 0.207213
0.970754 0.270760 0.208497
0.033791 0.383120 0.202534
0.132405 0.384212 0.203625
0.248259 0.385494 0.204907
0.367180 0.386810 0.206223
0.488138 0.388148 0.207561
0.610633 0.389504 0.208917
0.734368 0.390873 0.210286
0.859142 0.392253 0.211667
0.975208 0.393538 0.212951
0.038275 0.506736 0.207018
0.136890 0.507827 0.208109
0.252744 0.509109 0.209391
0.371665 0.510425 0.210707
0.492622 0.511763 0.212046
0.615118 0.513119 0.213401
0.738852 0.514488 0.214770
0.863627 0.515869 0.216151
0.979692 0.517153 0.217435
0.042782 0.630977 0.211525
0.141397 0.632068 0.212616
0.257251 0.633350 0.213898
0.376172 0.634666 0.215214
0.497130 0.636005 0.216553
0.619625 0.637360 0.217908
0.743359 0.638729 0.219277
0.868134 0.640110 0.220658
0.984200 0.641394 0.221942
0.047307 0.755720 0.216050
0.145922 0.756811 0.217141
0.261776 0.758093 0.218423
0.380697 0.759409 0.219739
0.501655 0.760747 0.221078
0.624150 0.762103 0.222433
0.747884 0.763472 0.223803
0.872659 0.764853 0.225183
0.988725 0.766137 0.226468
0.051848 0.880881 0.220591
0.150462 0.881972 0.221682
0.266316 0.883254 0.222964
0.385237 0.884570 0.224280
0.506195 0.885908 0.225618
0.628690 0.887264 0.226974
0.752425 0.888633 0.228343
0.877199 0.890014 0.229724
0.993265 0.891298 0.231008
0.055686 0.986686 0.224429
0.154301 0.987777 0.225520
0.270155 0.989059 0.226802
0.389076 0.990375 0.228118
0.510033 0.991714 0.229457
0.632529 0.993069 0.230812
0.756263 0.994438 0.232181
0.881038 0.995819 0.233562
0.997103 0.997103 0.234846
0.021117 0.021117 0.314972
0.119731 0.022208 0.316064
0.235585 0.023490 0.317346
0.354506 0.024806 0.318662
0.475464 0.026144 0.320000
0.597959 0.027500 0.321355
0.721694 0.028869 0.322725
0.846468 0.030250 0.324105
0.962534 0.031534 0.325390
0.025405 0.139317 0.319260
0.124019 0.140408 0.320351
0.239873 0.141690 0.321633
0.358794 0.143006 0.322949
0.479752 0.144345 0.324288
0.602247 0.145700 0.325643
0.725982 0.147070 0.327013
0.850756 0.148450 0.328393
0.966822 0.149735 0.329678
0.029812 0.260818 0.323668
0.128427 0.261909 0.324759
0.244281 0.263191 0.326041
0.363202 0.264507 0.327357
0.484160 0.265845 0.328696
0.606655 0.267201 0.330051
0.730389 0.268570 0.331420
0.855164 0.269951 0.332801
0.971230 0.271235 0.334085
0.034266 0.383596 0.328122
0.132881 0.384687 0.329213
0.248735 0.385969 0.330495
0.367656 0.387285 0.331811
0.488614 0.388623 0.333150
0.611109 0.389979 0.334505
0.734843 0.391348 0.335874
0.859618 0.392729 0.337255
0.975684 0.394013 0.338539
0.038750 0.507211 0.332606
0.137365 0.508302 0.333697
0.253219 0.509584 0.334979
0.372140 0.510900 0.336295
0.493098 0.512239 0.337634
0.615593 0.513594 0.338989
0.739328 0.514963 0.340359
0.864102 0.516344 0.341739
0.980168 0.517628 0.343024
0.043258 0.631452 0.337113
0.141872 0.632544 0.338204
0.257726 0.633826 0.339486
0.376647 0.635142 0.340802
0.497605 0.636480 0.342141
0.620100 0.637836 0.343496
0.743835 0.639205 0.344866
0.868609 0.640585 0.346246
0.984675 0.641870 0.347531
0.047783 0.756195 0.341638
0.146398 0.757286 0.342730
0.262251 0.758568 0.344012
0.381172 0.759884 0.345328
0.502130 0.761223 0.346666
0.624625 0.762578 0.348022
0.748360 0.763947 0.349391
0.873134 0.765328 0.350772
0.989200 0.766612 0.352056
0.052323 0.881356 0.346179
0.150938 0.882447 0.347270
0.266792 0.883729 0.348552
0.385713 0.885045 0.349868
0.506671 0.886384 0.351207
0.629166 0.887739 0.352562
0.752900 0.889109 0.353931
0.877675 0.890489 0.355312
0.993741 0.891774 0.356596
0.056161 0.987161 0.350017
0.154776 0.988253 0.351108
0.270630 0.989535 0.352390
0.389551 0.990851 0.353706
0.510509 0.992189 0.355045
0.633004 0.993545 0.356400
0.756738 0.994914 0.357769
0.881513 0.996295 0.359150
0.997579 0.997579 0.360435
0.021573 0.021573 0.435402
0.120187 0.022664 0.436493
0.236041 0.023946 0.437775
0.354962 0.025262 0.439091
0.475920 0.026600 0.440430
0.598415 0.027956 0.441785
0.722150 0.029325 0.443154
0.846924 0.030706 0.444535
0.962990 0.031990 0.445820
0.025860 0.139773 0.439690
0.124475 0.140864 0.440781
0.240329 0.142146 0.442063
0.359250 0.143462 0.443379
0.480208 0.144801 0.444718
0.602703 0.146156 0.446073
0.726437 0.147525 0.447442
0.851212 0.148906 0.448823
0.967278 0.150190 0.450107
0.030268 0.261274 0.444098
0.128883 0.262365 0.445189
0.244737 0.263647 0.446471
0.363658 0.264963 0.447787
0.484615 0.266301 0.449125
0.607111 0.267657 0.450481
0.730845 0.269026 0.451850
0.855620 0.270407 0.453231
0.971685 0.271691 0.454515
0.034722 0.384052 0.448552
0.133337 0.385143 0.449643
0.249191 0.386425 0.450925
0.368112 0.387741 0.452241
0.489069 0.389079 0.453579
0.611565 0.390435 0.454935
0.735299 0.391804 0.456304
0.860074 0.393185 0.457685
0.976139 0.394469 0.458969
0.039206 0.507667 0.453036
0.137821 0.508758 0.454127
0.253675 0.510040 0.455409
0.372596 0.511356 0.456725
0.493554 0.512695 0.458064
0.616049 0.514050 0.459419
0.739783 0.515419 0.460788
0.864558 0.516800 0.462169
0.980624 0.518084 0.463453
0.043713 0.631908 0.457543
0.142328 0.633000 0.458634
0.258182 0.634282 0.459916
0.377103 0.635597 0.461232
0.498061 0.636936 0.462571
0.620556 0.638291 0.463926
0.744290 0.639661 0.465295
0.869065 0.641041 0.466676
0.985131 0.642326 0.467960
0.048239 0.756651 0.462068
0.146853 0.757742 0.463160
0.262707 0.759024 0.464442
0.381628 0.760340 0.465757
0.502586 0.761679 0.467096
0.625081 0.763034 0.468451
0.748816 0.764403 0.469821
0.873590 0.765784 0.471201
0.989656 0.767068 0.472486
0.052779 0.881812 0.466609
0.151394 0.882903 0.467700
0.267248 0.884185 0.468982
0.386169 0.885501 0.470298
0.507127 0.886840 0.471636
0.629622 0.888195 0.472992
0.753356 0.889564 0.474361
0.878131 0.890945 0.475742
0.994197 0.892230 0.477026
0.056617 0.987617 0.470447
0.155232 0.988709 0.471538
0.271086 0.989991 0.472820
0.390007 0.991307 0.474136
0.510965 0.992645 0.475475
0.633460 0.994000 0.476830
0.757194 0.995370 0.478199
0.881969 0.996750 0.479580
0.998035 0.998035 0.480864
0.022016 0.022016 0.552600
0.120631 0.023107 0.553691
0.236485 0.024389 0.554973
0.355406 0.025705 0.556289
0.476364 0.027044 0.557627
0.598859 0.028399 0.558983
0.722593 0.029769 0.560352
0.847368 0.031149 0.561733
0.963434 0.032434 0.563017
0.026304 0.140217 0.556888
0.124919 0.141308 0.557979
0.240773 0.142590 0.559261
0.359694 0.143906 0.560577
0.480652 0.145244 0.561915
0.603147 0.146600 0.563271
0.726881 0.147969 0.564640
0.851656 0.149350 0.566021
0.967722 0.150634 0.567305
0.030712 0.261717 0.561295
0.129326 0.262809 0.562387
0.245180 0.264091 0.563669
0.364101 0.265406 0.564984
0.485059 0.266745 0.566323
0.607554 0.268100 0.567678
0.731289 0.269470 0.569048
0.856063 0.270850 0.570428
0.972129 0.272135 0.571713
0.035166 0.384495 0.565749
0.133780 0.385587 0.566841
0.249634 0.386869 0.568123
0.368555 0.388185 0.569438
0.489513 0.389523 0.570777
0.612008 0.390879 0.572132
0.735743 0.392248 0.573502
0.860517 0.393628 0.574882
0.976583 0.394913 0.576167
0.039650 0.508111 0.570234
0.138265 0.509202 0.571325
0.254119 0.510484 0.572607
0.373040 0.511800 0.573923
0.493997 0.513138 0.575261
0.616493 0.514494 0.576617
0.740227 0.515863 0.577986
0.865002 0.517244 0.579367
0.981067 0.518528 0.580651
0.044157 0.632352 0.574741
0.142772 0.633443 0.575832
0.258626 0.634725 0.577114
0.377547 0.636041 0.578430
0.498505 0.637380 0.579768
0.621000 0.638735 0.581124
0.744734 0.640104 0.582493
0.869509 0.641485 0.583874
0.985575 0.642769 0.585158
0.048682 0.757095 0.579266
0.147297 0.758186 0.580357
0.263151 0.759468 0.581639
0.382072 0.760784 0.582955
0.503030 0.762122 0.584294
0.625525 0.763478 0.585649
0.749259 0.764847 0.587018
0.874034 0.766228 0.588399
0.990100 0.767512 0.589683
0.053223 0.882256 0.583806
0.151837 0.883347 0.584898
0.267691 0.884629 0.586180
0.386612 0.885945 0.587496
0.507570 0.887283 0.588834
0.630065 0.888639 0.590189
0.753800 0.890008 0.591559
0.878574 0.891389 0.592939
0.994640 0.892673 0.594224
0.057061 0.988061 0.587645
0.155676 0.989152 0.588736
0.271530 0.990434 0.590018
0.390451 0.991750 0.591334
0.511408 0.993089 0.592672
0.633904 0.994444 0.594028
0.757638 0.995813 0.595397
0.882413 0.997194 0.596778
0.998478 0.998478 0.598062
0.022451 0.022451 0.667451
0.121066 0.023542 0.668542
0.236920 0.024824 0.669824
0.355841 0.026140 0.671140
0.476798 0.027479 0.672479
0.599294 0.028834 0.673834
0.723028 0.030203 0.675204
0.847803 0.031584 0.676584
0.963868 0.032868 0.677869
0.026739 0.140652 0.671739
0.125354 0.141743 0.672830
0.241207 0.143025 0.674112
0.360129 0.144341 0.675428
0.481086 0.145679 0.676767
0.603581 0.147035 0.678122
0.727316 0.148404 0.679491
0.852091 0.149785 0.680872
0.968156 0.151069 0.682157
0.031147 0.262152 0.676147
0.129761 0.263243 0.677238
0.245615 0.264525 0.678520
0.364536 0.265841 0.679836
0.485494 0.267180 0.681174
0.607989 0.268535 0.682530
0.731724 0.269904 0.683899
0.856498 0.271285 0.685280
0.972564 0.272569 0.686564
0.035601 0.384930 0.680601
0.134215 0.386021 0.681692
0.250069 0.387303 0.682974
0.368990 0.388619 0.684290
0.489948 0.389958 0.685628
0.612443 0.391313 0.686984
0.736178 0.392683 0.688353
0.860952 0.394063 0.689734
0.977018 0.395348 0.691018
0.040085 0.508545 0.685085
0.138700 0.509637 0.686176
0.254553 0.510919 0.687458
0.373474 0.512235 0.688774
0.494432 0.513573 0.690113
0.616927 0.514929 0.691468
0.740662 0.516298 0.692837
0.865436 0.517678 0.694218
0.981502 0.518963 0.695502
0.044592 0.632787 0.689592
0.143207 0.633878 0.690683
0.259060 0.635160 0.691965
0.377982 0.636476 0.693281
0.498939 0.637814 0.694620
0.621434 0.639170 0.695975
0.745169 0.640539 0.697344
0.869944 0.641920 0.698725
0.986009 0.643204 0.700009
0.049117 0.757529 0.694117
0.147732 0.758621 0.695209
0.263586 0.759903 0.696491
0.382507 0.761219 0.697807
0.503465 0.762557 0.699145
0.625960 0.763913 0.700500
0.749694 0.765282 0.701870
0.874469 0.766662 0.703250
0.990535 0.767947 0.704535
0.053658 0.882691 0.698658
0.152272 0.883782 0.699749
0.268126 0.885064 0.701031
0.387047 0.886380 0.702347
0.508005 0.887718 0.703685
0.630500 0.889074 0.705041
0.754235 0.890443 0.706410
0.879009 0.891824 0.707791
0.995075 0.893108 0.709075
0.057496 0.988496 0.702496
0.156111 0.989587 0.703587
0.271964 0.990869 0.704869
0.390885 0.992185 0.706185
0.511843 0.993523 0.707524
0.634338 0.994879 0.708879
0.758073 0.996248 0.710248
0.882847 0.997629 0.711629
0.998913 0.998913 0.712913
0.022879 0.022879 0.780467
0.121494 0.023970 0.781558
0.237347 0.025252 0.782840
0.356268 0.026568 0.784156
0.477226 0.027906 0.785495
0.599721 0.029262 0.786850
0.723456 0.030631 0.788219
0.848230 0.032012 0.789600
0.964296 0.033296 0.790884
0.027167 0.141079 0.784755
0.125781 0.142171 0.785846
0.241635 0.143453 0.787128
0.360556 0.144769 0.788444
0.481514 0.146107 0.789782
0.604009 0.147463 0.791138
0.727744 0.148832 0.792507
0.852518 0.150212 0.793888
0.968584 0.151497 0.795172
0.031574 0.262580 0.789162
0.130189 0.263671 0.790254
0.246043 0.264953 0.791536
0.364964 0.266269 0.792852
0.485922 0.267608 0.794190
0.608417 0.268963 0.795546
0.732151 0.270332 0.796915
0.856926 0.271713 0.798295
0.972992 0.272997 0.799580
0.036028 0.385358 0.793616
0.134643 0.386449 0.794708
0.250497 0.387731 0.795990
0.369418 0.389047 0.797306
0.490376 0.390386 0.798644
0.612871 0.391741 0.800000
0.736605 0.393110 0.801369
0.861380 0.394491 0.802749
0.977446 0.395775 0.804034
0.040513 0.508973 0.798101
0.139127 0.510064 0.799192
0.254981 0.511346 0.800474
0.373902 0.512662 0.801790
0.494860 0.514001 0.803128
0.617355 0.515356 0.804484
0.741090 0.516726 0.805853
0.865864 0.518106 0.807234
0.981930 0.519391 0.808518
0.045020 0.633215 0.802608
0.143634 0.634306 0.803699
0.259488 0.635588 0.804981
0.378409 0.636904 0.806297
0.499367 0.638242 0.807635
0.621862 0.639598 0.808991
0.745597 0.640967 0.810360
0.870371 0.642348 0.811741
0.986437 0.643632 0.813025
0.049545 0.757957 0.807133
0.148160 0.759049 0.808224
0.264014 0.760331 0.809506
0.382935 0.761646 0.810822
0.503892 0.762985 0.812161
0.626388 0.764340 0.813516
0.750122 0.765710 0.814885
0.874897 0.767090 0.816266
0.990962 0.768375 0.817550
0.054085 0.883118 0.811673
0.152700 0.884210 0.812765
0.268554 0.885492 0.814047
0.387475 0.886808 0.815363
0.508433 0.888146 0.816701
0.630928 0.889502 0.818057
0.754662 0.890871 0.819426
0.879437 0.892251 0.820806
0.995503 0.893536 0.822091
0.057924 0.988924 0.815512
0.156538 0.990015 0.816603
0.272392 0.991297 0.817885
0.391313 0.992613 0.819201
0.512271 0.993951 0.820539
0.634766 0.995307 0.821895
0.758501 0.996676 0.823264
0.883275 0.998057 0.824645
0.999341 0.999341 0.825929
0.023301 0.023301 0.891978
0.121916 0.024392 0.893070
0.237770 0.025674 0.894352
0.356691 0.026990 0.895668
0.477648 0.028329 0.897006
0.600144 0.029684 0.898362
0.723878 0.031053 0.899731
0.848653 0.032434 0.901111
0.964718 0.033718 0.902396
0.027589 0.141501 0.896266
0.126204 0.142593 0.897358
0.242057 0.143875 0.898640
0.360979 0.145191 0.899955
0.481936 0.146529 0.901294
0.604431 0.147885 0.902649
0.728166 0.149254 0.904019
0.852941 0.150635 0.905399
0.969006 0.151919 0.906684
0.031997 0.263002 0.900674
0.130611 0.264093 0.901765
0.246465 0.265375 0.903047
0.365386 0.266691 0.904363
0.486344 0.268030 0.905702
0.608839 0.269385 0.907057
0.732574 0.270754 0.908426
0.857348 0.272135 0.909807
0.973414 0.273419 0.911091
0.036450 0.385780 0.905128
0.135065 0.386871 0.906219
0.250919 0.388153 0.907501
0.369840 0.389469 0.908817
0.490798 0.390808 0.910156
0.613293 0.392163 0.911511
0.737028 0.393533 0.912880
0.861802 0.394913 0.914261
0.977868 0.396198 0.915545
0.040935 0.509395 0.909612
0.139550 0.510487 0.910703
0.255403 0.511769 0.911985
0.374324 0.513085 0.913301
0.495282 0.514423 0.914640
0.617777 0.515778 0.915995
0.741512 0.517148 0.917365
0.866286 0.518528 0.918745
0.982352 0.519813 0.920030
0.045442 0.633637 0.914119
0.144057 0.634728 0.915211
0.259910 0.636010 0.916493
0.378832 0.637326 0.917808
0.499789 0.638664 0.919147
0.622284 0.640020 0.920502
0.746019 0.641389 0.921872
0.870794 0.642770 0.923252
0.986859 0.644054 0.924537
0.049967 0.758379 0.918645
0.148582 0.759471 0.919736
0.264436 0.760753 0.921018
0.383357 0.762069 0.922334
0.504315 0.763407 0.923672
0.626810 0.764763 0.925028
0.750544 0.766132 0.926397
0.875319 0.767512 0.927778
0.991385 0.768797 0.929062
0.054508 0.883541 0.923185
0.153122 0.884632 0.924276
0.268976 0.885914 0.925558
0.387897 0.887230 0.926874
0.508855 0.888568 0.928213
0.631350 0.889924 0.929568
0.755085 0.891293 0.930937
0.879859 0.892674 0.932318
0.995925 0.893958 0.933602
0.058346 0.989346 0.927023
0.156961 0.990437 0.928114
0.272814 0.991719 0.929396
0.391735 0.993035 0.930712
0.512693 0.994373 0.932051
0.635188 0.995729 0.933406
0.758923 0.997098 0.934776
0.883697 0.998479 0.936156
0.999763 0.999763 0.937441
0.023538 0.023538 0.954538
0.122153 0.024629 0.955629
0.238006 0.025911 0.956911
0.356927 0.027227 0.958227
0.477885 0.028565 0.959565
0.600380 0.029921 0.960921
0.724115 0.031290 0.962290
0.848889 0.032671 0.963671
0.964955 0.033955 0.964955
0.027826 0.141738 0.958826
0.126440 0.142830 0.959917
0.242294 0.144112 0.961199
0.361215 0.145427 0.962515
0.482173 0.146766 0.963853
0.604668 0.148121 0.965209
0.728403 0.149491 0.966578
0.853177 0.150871 0.967959
0.969243 0.152156 0.969243
0.032233 0.263239 0.963233
0.130848 0.264330 0.964325
0.246702 0.265612 0.965607
0.365623 0.266928 0.966923
0.486581 0.268267 0.968261
0.609076 0.269622 0.969616
0.732810 0.270991 0.970986
0.857585 0.272372 0.972366
0.973651 0.273656 0.973651
0.036687 0.386017 0.967687
0.135302 0.387108 0.968779
0.251156 0.388390 0.970061
0.370077 0.389706 0.971376
0.491035 0.391045 0.972715
0.613530 0.392400 0.974070
0.737264 0.393769 0.975440
0.862039 0.395150 0.976820
0.978105 0.396434 0.978105
0.041172 0.509632 0.972172
0.139786 0.510723 0.973263
0.255640 0.512005 0.974545
0.374561 0.513321 0.975861
0.495519 0.514660 0.977199
0.618014 0.516015 0.978555
0.741749 0.517385 0.979924
0.866523 0.518765 0.981305
0.982589 0.520050 0.982589
0.045679 0.633874 0.976679
0.144293 0.634965 0.977770
0.260147 0.636247 0.979052
0.379068 0.637563 0.980368
0.500026 0.638901 0.981706
0.622521 0.640257 0.983062
0.746256 0.641626 0.984431
0.871030 0.643007 0.985812
0.987096 0.644291 0.987096
0.050204 0.758616 0.981204
0.148819 0.759707 0.982295
0.264673 0.760989 0.983577
0.383594 0.762305 0.984893
0.504551 0.763644 0.986232
0.627047 0.764999 0.987587
0.750781 0.766369 0.988956
0.875556 0.767749 0.990337
0.991621 0.769034 0.991621
0.054744 0.883777 0.985744
0.153359 0.884869 0.986836
0.269213 0.886151 0.988118
0.388134 0.887467 0.989434
0.509092 0.888805 0.990772
0.631587 0.890160 0.992127
0.755321 0.891530 0.993497
0.880096 0.892910 0.994877
0.996162 0.894195 0.996162
0.058583 0.989583 0.989583
0.157197 0.990674 0.990674
0.273051 0.991956 0.991956
0.391972 0.993272 0.993272
0.512930 0.994610 0.994610
0.635425 0.995966 0.995966
0.759160 0.997335 0.997335
0.883934 0.998716 0.998716
1.000000 1.000000 1.000000
