project/modules/step7_final_render/luts/outdoor_natural.cube
TITLE "Outdoor Natural"
LUT_3D_SIZE 5
DOMAIN_MIN 0.0 0.0 0.0
DOMAIN_MAX 1.0 1.0 1.0
0.011934 0.000000 0.000000
0.300198 0.000000 0.000000
0.559026 0.000000 0.000000
0.807495 0.000000 0.000000
1.000000 0.000000 0.000000
0.002614 0.264206 0.000000
0.290878 0.261257 0.000000
0.549706 0.258610 0.000000
0.798175 0.256069 0.000000
1.000000 0.253698 0.000000
0.000000 0.517654 0.000000
0.281942 0.514705 0.000000
0.540770 0.512058 0.000000
0.789239 0.509517 0.000000
1.000000 0.507146 0.000000
0.000000 0.767151 0.000000
0.273146 0.764203 0.000000
0.531973 0.761556 0.000000
0.780442 0.759015 0.000000
1.000000 0.756643 0.000000
0.000000 1.000000 0.000000
0.264438 1.000000 0.000000
0.523266 1.000000 0.000000
0.771735 1.000000 0.000000
1.000000 1.000000 0.000000
0.011128 0.000000 0.233493
0.299392 0.000000 0.230545
0.558220 0.000000 0.227898
0.806689 0.000000 0.225357
1.000000 0.000000 0.222985
0.001808 0.263400 0.224174
0.290072 0.260451 0.221225
0.548900 0.257804 0.218578
0.797369 0.255263 0.216037
1.000000 0.252892 0.213666
0.000000 0.516848 0.215237
0.281136 0.513899 0.212289
0.539964 0.511252 0.209642
0.788433 0.508711 0.207101
1.000000 0.506340 0.204730
0.000000 0.766345 0.206441
0.272340 0.763397 0.203492
0.531167 0.760750 0.200845
0.779636 0.758209 0.198304
1.000000 0.755837 0.195933
0.000000 1.000000 0.197733
0.263632 1.000000 0.194785
0.522460 1.000000 0.192138
0.770929 1.000000 0.189597
1.000000 1.000000 0.187225
0.010226 0.000000 0.494787
0.298491 0.000000 0.491839
0.557318 0.000000 0.489192
0.805787 0.000000 0.486651
1.000000 0.000000 0.484279
0.000907 0.262498 0.485467
0.289171 0.259550 0.482519
0.547999 0.256903 0.479872
0.796468 0.254362 0.477331
1.000000 0.251990 0.474960
0.000000 0.515946 0.476531
0.280235 0.512998 0.473583
0.539063 0.510351 0.470936
0.787532 0.507810 0.468395
1.000000 0.505438 0.466023
0.000000 0.765444 0.467735
0.271438 0.762496 0.464786
0.530266 0.759849 0.462139
0.778735 0.757307 0.459598
1.000000 0.754936 0.457227
0.000000 1.000000 0.459027
0.262731 1.000000 0.456079
0.521558 1.000000 0.453432
0.770027 1.000000 0.450891
1.000000 1.000000 0.448519
0.009301 0.000000 0.762999
0.297565 0.000000 0.760051
0.556393 0.000000 0.757404
0.804862 0.000000 0.754862
1.000000 0.000000 0.752491
0.000000 0.261573 0.753679
0.288246 0.258625 0.750731
0.547073 0.255978 0.748084
0.795542 0.253436 0.745543
1.000000 0.251065 0.743171
0.000000 0.515021 0.744743
0.279310 0.512073 0.741795
0.538137 0.509426 0.739148
0.786606 0.506884 0.736607
1.000000 0.504513 0.734235
0.000000 0.764519 0.735946
0.270513 0.761570 0.732998
0.529340 0.758923 0.730351
0.777810 0.756382 0.727810
1.000000 0.754011 0.725438
0.000000 1.000000 0.727239
0.261805 1.000000 0.724291
0.520633 1.000000 0.721644
0.769102 1.000000 0.719102
1.000000 1.000000 0.716731
0.008360 0.000000 1.000000
0.296624 0.000000 1.000000
0.555452 0.000000 1.000000
0.803921 0.000000 1.000000
1.000000 0.000000 1.000000
0.000000 0.260632 1.000000
0.287304 0.257683 1.000000
0.546132 0.255036 1.000000
0.794601 0.252495 1.000000
1.000000 0.250124 1.000000
0.000000 0.514080 1.000000
0.278368 0.511132 1.000000
0.537196 0.508484 1.000000
0.785665 0.505943 1.000000
1.000000 0.503572 1.000000
0.000000 0.763577 1.000000
0.269572 0.760629 1.000000
0.528399 0.757982 1.000000
0.776868 0.755441 1.000000
1.000000 0.753070 0.998244
0.000000 1.000000 1.000000
0.260864 1.000000 0.997096
0.519692 1.000000 0.994449
0.768161 1.000000 0.991908
1.000000 1.000000 0.989536
