project/modules/step7_final_render/luts/outdoor_natural.cube
TITLE "Outdoor Natural"
LUT_3D_SIZE 17
DOMAIN_MIN 0.0 0.0 0.0
DOMAIN_MAX 1.0 1.0 1.0
0.011934 0.000000 0.000000
0.091645 0.000000 0.000000
0.163644 0.000000 0.000000
0.232816 0.000000 0.000000
0.300198 0.000000 0.000000
0.366273 0.000000 0.000000
0.431323 0.000000 0.000000
0.495531 0.000000 0.000000
0.559026 0.000000 0.000000
0.621903 0.000000 0.000000
0.684237 0.000000 0.000000
0.746085 0.000000 0.000000
0.807495 0.000000 0.000000
0.868506 0.000000 0.000000
0.929151 0.000000 0.000000
0.989457 0.000000 0.000000
1.000000 0.000000 0.000000
0.009505 0.068766 0.000000
0.089216 0.067951 0.000000
0.161215 0.067214 0.000000
0.230388 0.066507 0.000000
0.297769 0.065818 0.000000
0.363844 0.065142 0.000000
0.428894 0.064477 0.000000
0.493102 0.063820 0.000000
0.556597 0.063171 0.000000
0.619474 0.062528 0.000000
0.681808 0.061890 0.000000
0.743656 0.061258 0.000000
0.805066 0.060630 0.000000
0.866077 0.060006 0.000000
0.926722 0.059385 0.000000
0.987029 0.058769 0.000000
1.000000 0.058258 0.000000
0.007176 0.134819 0.000000
0.086887 0.134004 0.000000
0.158887 0.133267 0.000000
0.228059 0.132560 0.000000
0.295440 0.131871 0.000000
0.361515 0.131195 0.000000
0.426565 0.130530 0.000000
0.490773 0.129873 0.000000
0.554268 0.129224 0.000000
0.617145 0.128580 0.000000
0.679479 0.127943 0.000000
0.741327 0.127310 0.000000
0.802737 0.126682 0.000000
0.863748 0.126058 0.000000
0.924393 0.125438 0.000000
0.984700 0.124821 0.000000
1.000000 0.124311 0.000000
0.004883 0.199842 0.000000
0.084595 0.199027 0.000000
0.156594 0.198290 0.000000
0.225766 0.197583 0.000000
0.293148 0.196894 0.000000
0.359223 0.196218 0.000000
0.424273 0.195553 0.000000
0.488480 0.194896 0.000000
0.551975 0.194247 0.000000
0.614853 0.193604 0.000000
0.677186 0.192966 0.000000
0.739035 0.192334 0.000000
0.800444 0.191706 0.000000
0.861455 0.191082 0.000000
0.922100 0.190461 0.000000
0.982407 0.189845 0.000000
1.000000 0.189334 0.000000
0.002614 0.264206 0.000000
0.082325 0.263390 0.000000
0.154325 0.262654 0.000000
0.223497 0.261947 0.000000
0.290878 0.261257 0.000000
0.356954 0.260582 0.000000
0.422003 0.259916 0.000000
0.486211 0.259260 0.000000
0.549706 0.258610 0.000000
0.612583 0.257967 0.000000
0.674917 0.257330 0.000000
0.736765 0.256697 0.000000
0.798175 0.256069 0.000000
0.859186 0.255445 0.000000
0.919831 0.254825 0.000000
0.980138 0.254208 0.000000
1.000000 0.253698 0.000000
0.000362 0.328083 0.000000
0.080073 0.327268 0.000000
0.152073 0.326531 0.000000
0.221245 0.325824 0.000000
0.288626 0.325135 0.000000
0.354701 0.324459 0.000000
0.419751 0.323794 0.000000
0.483959 0.323137 0.000000
0.547454 0.322488 0.000000
0.610331 0.321845 0.000000
0.672665 0.321207 0.000000
0.734513 0.320575 0.000000
0.795923 0.319947 0.000000
0.856934 0.319323 0.000000
0.917579 0.318702 0.000000
0.977886 0.318086 0.000000
1.000000 0.317575 0.000000
0.000000 0.391576 0.000000
0.077834 0.390760 0.000000
0.149834 0.390024 0.000000
0.219006 0.389317 0.000000
0.286388 0.388628 0.000000
0.352463 0.387952 0.000000
0.417513 0.387286 0.000000
0.481720 0.386630 0.000000
0.545215 0.385980 0.000000
0.608093 0.385337 0.000000
0.670426 0.384700 0.000000
0.732274 0.384067 0.000000
0.793684 0.383439 0.000000
0.854695 0.382815 0.000000
0.915340 0.382195 0.000000
0.975647 0.381578 0.000000
1.000000 0.381068 0.000000
0.000000 0.454750 0.000000
0.075607 0.453935 0.000000
0.147606 0.453199 0.000000
0.216779 0.452491 0.000000
0.284160 0.451802 0.000000
0.350235 0.451126 0.000000
0.415285 0.450461 0.000000
0.479493 0.449804 0.000000
0.542988 0.449155 0.000000
0.605865 0.448512 0.000000
0.668199 0.447874 0.000000
0.730047 0.447242 0.000000
0.791457 0.446614 0.000000
0.852468 0.445990 0.000000
0.913113 0.445370 0.000000
0.973420 0.444753 0.000000
1.000000 0.444242 0.000000
0.000000 0.517654 0.000000
0.073389 0.516838 0.000000
0.145389 0.516102 0.000000
0.214561 0.515395 0.000000
0.281942 0.514705 0.000000
0.348017 0.514030 0.000000
0.413067 0.513364 0.000000
0.477275 0.512708 0.000000
0.540770 0.512058 0.000000
0.603647 0.511415 0.000000
0.665981 0.510778 0.000000
0.727829 0.510145 0.000000
0.789239 0.509517 0.000000
0.850250 0.508893 0.000000
0.910895 0.508273 0.000000
0.971202 0.507656 0.000000
1.000000 0.507146 0.000000
0.000000 0.580321 0.000000
0.071180 0.579506 0.000000
0.143179 0.578769 0.000000
0.212351 0.578062 0.000000
0.279733 0.577373 0.000000
0.345808 0.576697 0.000000
0.410858 0.576032 0.000000
0.475066 0.575375 0.000000
0.538560 0.574726 0.000000
0.601438 0.574083 0.000000
0.663772 0.573445 0.000000
0.725620 0.572813 0.000000
0.787030 0.572184 0.000000
0.848040 0.571560 0.000000
0.908685 0.570940 0.000000
0.968992 0.570323 0.000000
1.000000 0.569813 0.000000
0.000000 0.642779 0.000000
0.068978 0.641964 0.000000
0.140977 0.641228 0.000000
0.210149 0.640520 0.000000
0.277531 0.639831 0.000000
0.343606 0.639155 0.000000
0.408656 0.638490 0.000000
0.472863 0.637833 0.000000
0.536358 0.637184 0.000000
0.599236 0.636541 0.000000
0.661569 0.635903 0.000000
0.723417 0.635271 0.000000
0.784827 0.634643 0.000000
0.845838 0.634019 0.000000
0.906483 0.633399 0.000000
0.966790 0.632782 0.000000
1.000000 0.632271 0.000000
0.000000 0.705050 0.000000
0.066782 0.704235 0.000000
0.138781 0.703499 0.000000
0.207953 0.702791 0.000000
0.275335 0.702102 0.000000
0.341410 0.701426 0.000000
0.406460 0.700761 0.000000
0.470668 0.700104 0.000000
0.534163 0.699455 0.000000
0.597040 0.698812 0.000000
0.659374 0.698174 0.000000
0.721222 0.697542 0.000000
0.782632 0.696914 0.000000
0.843643 0.696290 0.000000
0.904288 0.695670 0.000000
0.964594 0.695053 0.000000
1.000000 0.694542 0.000000
0.000000 0.767151 0.000000
0.064592 0.766336 0.000000
0.136592 0.765600 0.000000
0.205764 0.764892 0.000000
0.273146 0.764203 0.000000
0.339221 0.763527 0.000000
0.404270 0.762862 0.000000
0.468478 0.762205 0.000000
0.531973 0.761556 0.000000
0.594851 0.760913 0.000000
0.657184 0.760276 0.000000
0.719032 0.759643 0.000000
0.780442 0.759015 0.000000
0.841453 0.758391 0.000000
0.902098 0.757771 0.000000
0.962405 0.757154 0.000000
1.000000 0.756643 0.000000
0.000000 0.829097 0.000000
0.062408 0.828282 0.000000
0.134408 0.827546 0.000000
0.203580 0.826838 0.000000
0.270961 0.826149 0.000000
0.337037 0.825473 0.000000
0.402086 0.824808 0.000000
0.466294 0.824151 0.000000
0.529789 0.823502 0.000000
0.592667 0.822859 0.000000
0.655000 0.822221 0.000000
0.716848 0.821589 0.000000
0.778258 0.820961 0.000000
0.839269 0.820337 0.000000
0.899914 0.819717 0.000000
0.960221 0.819100 0.000000
1.000000 0.818589 0.000000
0.000000 0.890900 0.000000
0.060229 0.890085 0.000000
0.132229 0.889349 0.000000
0.201401 0.888641 0.000000
0.268782 0.887952 0.000000
0.334858 0.887276 0.000000
0.399907 0.886611 0.000000
0.464115 0.885954 0.000000
0.527610 0.885305 0.000000
0.590488 0.884662 0.000000
0.652821 0.884024 0.000000
0.714669 0.883392 0.000000
0.776079 0.882764 0.000000
0.837090 0.882140 0.000000
0.897735 0.881519 0.000000
0.958042 0.880903 0.000000
1.000000 0.880392 0.000000
0.000000 0.952571 0.000000
0.058055 0.951755 0.000000
0.130054 0.951019 0.000000
0.199226 0.950312 0.000000
0.266608 0.949623 0.000000
0.332683 0.948947 0.000000
0.397733 0.948281 0.000000
0.461941 0.947625 0.000000
0.525436 0.946975 0.000000
0.588313 0.946332 0.000000
0.650647 0.945695 0.000000
0.712495 0.945062 0.000000
0.773905 0.944434 0.000000
0.834916 0.943810 0.000000
0.895561 0.943190 0.000000
0.955867 0.942573 0.000000
1.000000 0.942063 0.000000
0.000000 1.000000 0.000000
0.055885 1.000000 0.000000
0.127884 1.000000 0.000000
0.197056 1.000000 0.000000
0.264438 1.000000 0.000000
0.330513 1.000000 0.000000
0.395563 1.000000 0.000000
0.459771 1.000000 0.000000
0.523266 1.000000 0.000000
0.586143 1.000000 0.000000
0.648477 1.000000 0.000000
0.710325 1.000000 0.000000
0.771735 1.000000 0.000000
0.832746 1.000000 0.000000
0.893391 1.000000 0.000000
0.953697 1.000000 0.000000
1.000000 1.000000 0.000000
0.011773 0.000000 0.046348
0.091485 0.000000 0.045532
0.163484 0.000000 0.044796
0.232656 0.000000 0.044088
0.300038 0.000000 0.043399
0.366113 0.000000 0.042724
0.431163 0.000000 0.042058
0.495370 0.000000 0.041402
0.558865 0.000000 0.040752
0.621743 0.000000 0.040109
0.684076 0.000000 0.039472
0.745925 0.000000 0.038839
0.807334 0.000000 0.038211
0.868345 0.000000 0.037587
0.928990 0.000000 0.036967
0.989297 0.000000 0.036350
1.000000 0.000000 0.035840
0.009344 0.068606 0.043919
0.089056 0.067791 0.043103
0.161055 0.067054 0.042367
0.230227 0.066347 0.041660
0.297609 0.065658 0.040970
0.363684 0.064982 0.040295
0.428734 0.064317 0.039629
0.492942 0.063660 0.038973
0.556436 0.063010 0.038323
0.619314 0.062367 0.037680
0.681648 0.061730 0.037043
0.743496 0.061097 0.036410
0.804906 0.060469 0.035782
0.865917 0.059845 0.035158
0.926561 0.059225 0.034538
0.986868 0.058608 0.033921
1.000000 0.058098 0.033411
0.007016 0.134658 0.041590
0.086727 0.133843 0.040775
0.158726 0.133107 0.040038
0.227898 0.132399 0.039331
0.295280 0.131710 0.038642
0.361355 0.131035 0.037966
0.426405 0.130369 0.037301
0.490613 0.129713 0.036644
0.554108 0.129063 0.035994
0.616985 0.128420 0.035351
0.679319 0.127783 0.034714
0.741167 0.127150 0.034081
0.802577 0.126522 0.033453
0.863588 0.125898 0.032829
0.924232 0.125278 0.032209
0.984539 0.124661 0.031592
1.000000 0.124151 0.031082
0.004723 0.199682 0.039297
0.084434 0.198866 0.038482
0.156434 0.198130 0.037746
0.225606 0.197423 0.037038
0.292987 0.196734 0.036349
0.359063 0.196058 0.035673
0.424112 0.195392 0.035008
0.488320 0.194736 0.034351
0.551815 0.194086 0.033702
0.614692 0.193443 0.033059
0.677026 0.192806 0.032421
0.738874 0.192173 0.031789
0.800284 0.191545 0.031161
0.861295 0.190921 0.030537
0.921940 0.190301 0.029916
0.982247 0.189684 0.029300
1.000000 0.189174 0.028789
0.002454 0.264045 0.037028
0.082165 0.263230 0.036213
0.154164 0.262494 0.035476
0.223336 0.261786 0.034769
0.290718 0.261097 0.034080
0.356793 0.260421 0.033404
0.421843 0.259756 0.032739
0.486051 0.259099 0.032082
0.549546 0.258450 0.031433
0.612423 0.257807 0.030789
0.674757 0.257169 0.030152
0.736605 0.256537 0.029519
0.798015 0.255909 0.028891
0.859026 0.255285 0.028267
0.919671 0.254665 0.027647
0.979977 0.254048 0.027030
1.000000 0.253537 0.026520
0.000201 0.327923 0.034776
0.079913 0.327107 0.033960
0.151912 0.326371 0.033224
0.221084 0.325664 0.032517
0.288466 0.324974 0.031828
0.354541 0.324299 0.031152
0.419591 0.323633 0.030486
0.483799 0.322977 0.029830
0.547294 0.322327 0.029180
0.610171 0.321684 0.028537
0.672505 0.321047 0.027900
0.734353 0.320414 0.027267
0.795763 0.319786 0.026639
0.856774 0.319162 0.026015
0.917418 0.318542 0.025395
0.977725 0.317925 0.024778
1.000000 0.317415 0.024268
0.000000 0.391415 0.032537
0.077674 0.390600 0.031722
0.149674 0.389864 0.030985
0.218846 0.389156 0.030278
0.286227 0.388467 0.029589
0.352302 0.387791 0.028913
0.417352 0.387126 0.028248
0.481560 0.386469 0.027591
0.545055 0.385820 0.026942
0.607932 0.385177 0.026299
0.670266 0.384539 0.025661
0.732114 0.383907 0.025029
0.793524 0.383279 0.024401
0.854535 0.382655 0.023777
0.915180 0.382035 0.023156
0.975487 0.381418 0.022540
1.000000 0.380907 0.022029
0.000000 0.454590 0.030310
0.075447 0.453775 0.029494
0.147446 0.453038 0.028758
0.216618 0.452331 0.028051
0.284000 0.451642 0.027361
0.350075 0.450966 0.026686
0.415125 0.450301 0.026020
0.479333 0.449644 0.025364
0.542827 0.448995 0.024714
0.605705 0.448352 0.024071
0.668039 0.447714 0.023434
0.729887 0.447081 0.022801
0.791297 0.446453 0.022173
0.852308 0.445829 0.021549
0.912952 0.445209 0.020929
0.973259 0.444592 0.020312
1.000000 0.444082 0.019802
0.000000 0.517493 0.028092
0.073229 0.516678 0.027277
0.145228 0.515942 0.026540
0.214400 0.515234 0.025833
0.281782 0.514545 0.025144
0.347857 0.513869 0.024468
0.412907 0.513204 0.023803
0.477115 0.512547 0.023146
0.540610 0.511898 0.022497
0.603487 0.511255 0.021853
0.665821 0.510617 0.021216
0.727669 0.509985 0.020583
0.789079 0.509357 0.019955
0.850090 0.508733 0.019331
0.910735 0.508113 0.018711
0.971041 0.507496 0.018094
1.000000 0.506985 0.017584
0.000000 0.580161 0.025882
0.071019 0.579345 0.025067
0.143019 0.578609 0.024331
0.212191 0.577902 0.023623
0.279572 0.577212 0.022934
0.345648 0.576537 0.022258
0.410697 0.575871 0.021593
0.474905 0.575215 0.020936
0.538400 0.574565 0.020287
0.601278 0.573922 0.019644
0.663611 0.573285 0.019006
0.725459 0.572652 0.018374
0.786869 0.572024 0.017746
0.847880 0.571400 0.017122
0.908525 0.570780 0.016502
0.968832 0.570163 0.015885
1.000000 0.569653 0.015374
0.000000 0.642619 0.023680
0.068817 0.641804 0.022865
0.140817 0.641067 0.022129
0.209989 0.640360 0.021421
0.277370 0.639671 0.020732
0.343445 0.638995 0.020056
0.408495 0.638330 0.019391
0.472703 0.637673 0.018734
0.536198 0.637024 0.018085
0.599075 0.636381 0.017442
0.661409 0.635743 0.016804
0.723257 0.635111 0.016172
0.784667 0.634483 0.015544
0.845678 0.633859 0.014920
0.906323 0.633238 0.014299
0.966630 0.632622 0.013683
1.000000 0.632111 0.013172
0.000000 0.704890 0.021485
0.066622 0.704075 0.020669
0.138621 0.703338 0.019933
0.207793 0.702631 0.019226
0.275175 0.701942 0.018536
0.341250 0.701266 0.017861
0.406300 0.700601 0.017195
0.470508 0.699944 0.016539
0.534002 0.699295 0.015889
0.596880 0.698652 0.015246
0.659214 0.698014 0.014609
0.721062 0.697382 0.013976
0.782472 0.696753 0.013348
0.843482 0.696129 0.012724
0.904127 0.695509 0.012104
0.964434 0.694892 0.011487
1.000000 0.694382 0.010977
0.000000 0.766991 0.019295
0.064432 0.766176 0.018480
0.136432 0.765439 0.017743
0.205604 0.764732 0.017036
0.272985 0.764043 0.016347
0.339060 0.763367 0.015671
0.404110 0.762702 0.015006
0.468318 0.762045 0.014349
0.531813 0.761396 0.013700
0.594690 0.760753 0.013057
0.657024 0.760115 0.012419
0.718872 0.759483 0.011787
0.780282 0.758855 0.011159
0.841293 0.758231 0.010535
0.901938 0.757610 0.009914
0.962245 0.756994 0.009298
1.000000 0.756483 0.008787
0.000000 0.828937 0.017111
0.062248 0.828122 0.016296
0.134247 0.827385 0.015559
0.203420 0.826678 0.014852
0.270801 0.825989 0.014163
0.336876 0.825313 0.013487
0.401926 0.824648 0.012822
0.466134 0.823991 0.012165
0.529629 0.823342 0.011516
0.592506 0.822699 0.010873
0.654840 0.822061 0.010235
0.716688 0.821429 0.009603
0.778098 0.820800 0.008974
0.839109 0.820176 0.008350
0.899754 0.819556 0.007730
0.960060 0.818939 0.007113
1.000000 0.818429 0.006603
0.000000 0.890740 0.014932
0.060069 0.889925 0.014117
0.132068 0.889188 0.013380
0.201240 0.888481 0.012673
0.268622 0.887792 0.011984
0.334697 0.887116 0.011308
0.399747 0.886451 0.010643
0.463955 0.885794 0.009986
0.527450 0.885145 0.009337
0.590327 0.884502 0.008694
0.652661 0.883864 0.008056
0.714509 0.883231 0.007423
0.775919 0.882603 0.006795
0.836930 0.881979 0.006171
0.897575 0.881359 0.005551
0.957881 0.880742 0.004934
1.000000 0.880232 0.004424
0.000000 0.952410 0.012758
0.057895 0.951595 0.011942
0.129894 0.950859 0.011206
0.199066 0.950151 0.010498
0.266448 0.949462 0.009809
0.332523 0.948786 0.009134
0.397573 0.948121 0.008468
0.461780 0.947464 0.007812
0.525275 0.946815 0.007162
0.588153 0.946172 0.006519
0.650486 0.945535 0.005882
0.712335 0.944902 0.005249
0.773744 0.944274 0.004621
0.834755 0.943650 0.003997
0.895400 0.943030 0.003377
0.955707 0.942413 0.002760
1.000000 0.941902 0.002250
0.000000 1.000000 0.010588
0.055725 1.000000 0.009772
0.127724 1.000000 0.009036
0.196896 1.000000 0.008328
0.264278 1.000000 0.007639
0.330353 1.000000 0.006964
0.395403 1.000000 0.006298
0.459610 1.000000 0.005642
0.523105 1.000000 0.004992
0.585983 1.000000 0.004349
0.648316 1.000000 0.003712
0.710165 1.000000 0.003079
0.771574 1.000000 0.002451
0.832585 1.000000 0.001827
0.893230 1.000000 0.001207
0.953537 1.000000 0.000590
1.000000 1.000000 0.000080
0.011563 0.000000 0.107296
0.091274 0.000000 0.106481
0.163274 0.000000 0.105745
0.232446 0.000000 0.105037
0.299827 0.000000 0.104348
0.365903 0.000000 0.103673
0.430952 0.000000 0.103007
0.495160 0.000000 0.102351
0.558655 0.000000 0.101701
0.621533 0.000000 0.101058
0.683866 0.000000 0.100421
0.745714 0.000000 0.099788
0.807124 0.000000 0.099160
0.868135 0.000000 0.098536
0.928780 0.000000 0.097916
0.989087 0.000000 0.097299
1.000000 0.000000 0.096789
0.009134 0.068395 0.104868
0.088845 0.067580 0.104052
0.160845 0.066844 0.103316
0.230017 0.066136 0.102609
0.297399 0.065447 0.101919
0.363474 0.064772 0.101244
0.428524 0.064106 0.100578
0.492731 0.063450 0.099922
0.556226 0.062800 0.099272
0.619104 0.062157 0.098629
0.681437 0.061520 0.097992
0.743285 0.060887 0.097359
0.804695 0.060259 0.096731
0.865706 0.059635 0.096107
0.926351 0.059015 0.095487
0.986658 0.058398 0.094870
1.000000 0.057888 0.094360
0.006805 0.134448 0.102539
0.086517 0.133633 0.101724
0.158516 0.132897 0.100987
0.227688 0.132189 0.100280
0.295070 0.131500 0.099591
0.361145 0.130824 0.098915
0.426195 0.130159 0.098250
0.490402 0.129502 0.097593
0.553897 0.128853 0.096943
0.616775 0.128210 0.096300
0.679108 0.127572 0.095663
0.740957 0.126940 0.095030
0.802366 0.126312 0.094402
0.863377 0.125688 0.093778
0.924022 0.125068 0.093158
0.984329 0.124451 0.092541
1.000000 0.123940 0.092031
0.004513 0.199471 0.100246
0.084224 0.198656 0.099431
0.156223 0.197920 0.098695
0.225396 0.197212 0.097987
0.292777 0.196523 0.097298
0.358852 0.195847 0.096622
0.423902 0.195182 0.095957
0.488110 0.194526 0.095300
0.551605 0.193876 0.094651
0.614482 0.193233 0.094008
0.676816 0.192596 0.093370
0.738664 0.191963 0.092738
0.800074 0.191335 0.092110
0.861085 0.190711 0.091486
0.921730 0.190091 0.090865
0.982036 0.189474 0.090249
1.000000 0.188963 0.089738
0.002243 0.263835 0.097977
0.081955 0.263020 0.097162
0.153954 0.262283 0.096425
0.223126 0.261576 0.095718
0.290508 0.260887 0.095029
0.356583 0.260211 0.094353
0.421633 0.259546 0.093688
0.485841 0.258889 0.093031
0.549335 0.258240 0.092382
0.612213 0.257597 0.091738
0.674547 0.256959 0.091101
0.736395 0.256327 0.090468
0.797805 0.255698 0.089840
0.858815 0.255075 0.089216
0.919460 0.254454 0.088596
0.979767 0.253838 0.087979
1.000000 0.253327 0.087469
0.000000 0.327712 0.095725
0.079702 0.326897 0.094909
0.151702 0.326161 0.094173
0.220874 0.325453 0.093466
0.288256 0.324764 0.092776
0.354331 0.324088 0.092101
0.419381 0.323423 0.091435
0.483588 0.322766 0.090779
0.547083 0.322117 0.090129
0.609961 0.321474 0.089486
0.672294 0.320837 0.088849
0.734142 0.320204 0.088216
0.795552 0.319576 0.087588
0.856563 0.318952 0.086964
0.917208 0.318332 0.086344
0.977515 0.317715 0.085727
1.000000 0.317204 0.085217
0.000000 0.391205 0.093486
0.077464 0.390390 0.092671
0.149463 0.389654 0.091934
0.218635 0.388946 0.091227
0.286017 0.388257 0.090538
0.352092 0.387581 0.089862
0.417142 0.386916 0.089197
0.481350 0.386259 0.088540
0.544845 0.385610 0.087891
0.607722 0.384967 0.087248
0.670056 0.384329 0.086610
0.731904 0.383697 0.085978
0.793314 0.383069 0.085350
0.854325 0.382445 0.084726
0.914969 0.381824 0.084105
0.975276 0.381208 0.083489
1.000000 0.380697 0.082978
0.000000 0.454380 0.091259
0.075236 0.453564 0.090443
0.147236 0.452828 0.089707
0.216408 0.452121 0.089000
0.283790 0.451431 0.088310
0.349865 0.450756 0.087635
0.414915 0.450090 0.086969
0.479122 0.449434 0.086313
0.542617 0.448784 0.085663
0.605495 0.448141 0.085020
0.667828 0.447504 0.084383
0.729676 0.446871 0.083750
0.791086 0.446243 0.083122
0.852097 0.445619 0.082498
0.912742 0.444999 0.081878
0.973049 0.444382 0.081261
1.000000 0.443872 0.080751
0.000000 0.517283 0.089041
0.073019 0.516468 0.088226
0.145018 0.515731 0.087489
0.214190 0.515024 0.086782
0.281572 0.514335 0.086093
0.347647 0.513659 0.085417
0.412697 0.512994 0.084752
0.476905 0.512337 0.084095
0.540399 0.511688 0.083445
0.603277 0.511045 0.082802
0.665610 0.510407 0.082165
0.727459 0.509775 0.081532
0.788868 0.509147 0.080904
0.849879 0.508523 0.080280
0.910524 0.507902 0.079660
0.970831 0.507286 0.079043
1.000000 0.506775 0.078533
0.000000 0.579950 0.086831
0.070809 0.579135 0.086016
0.142809 0.578399 0.085280
0.211981 0.577691 0.084572
0.279362 0.577002 0.083883
0.345437 0.576326 0.083207
0.410487 0.575661 0.082542
0.474695 0.575004 0.081885
0.538190 0.574355 0.081236
0.601067 0.573712 0.080593
0.663401 0.573074 0.079955
0.725249 0.572442 0.079323
0.786659 0.571814 0.078695
0.847670 0.571190 0.078071
0.908315 0.570570 0.077451
0.968622 0.569953 0.076834
1.000000 0.569442 0.076323
0.000000 0.642409 0.084629
0.068607 0.641593 0.083814
0.140606 0.640857 0.083078
0.209778 0.640150 0.082370
0.277160 0.639461 0.081681
0.343235 0.638785 0.081005
0.408285 0.638119 0.080340
0.472493 0.637463 0.079683
0.535988 0.636813 0.079034
0.598865 0.636170 0.078391
0.661199 0.635533 0.077753
0.723047 0.634900 0.077121
0.784457 0.634272 0.076493
0.845468 0.633648 0.075869
0.906113 0.633028 0.075248
0.966419 0.632411 0.074632
1.000000 0.631901 0.074121
0.000000 0.704680 0.082434
0.066411 0.703864 0.081618
0.138411 0.703128 0.080882
0.207583 0.702421 0.080175
0.274965 0.701731 0.079485
0.341040 0.701056 0.078810
0.406089 0.700390 0.078144
0.470297 0.699734 0.077488
0.533792 0.699084 0.076838
0.596670 0.698441 0.076195
0.659003 0.697804 0.075558
0.720851 0.697171 0.074925
0.782261 0.696543 0.074297
0.843272 0.695919 0.073673
0.903917 0.695299 0.073053
0.964224 0.694682 0.072436
1.000000 0.694172 0.071926
0.000000 0.766781 0.080244
0.064222 0.765966 0.079429
0.136221 0.765229 0.078692
0.205393 0.764522 0.077985
0.272775 0.763833 0.077296
0.338850 0.763157 0.076620
0.403900 0.762492 0.075955
0.468108 0.761835 0.075298
0.531603 0.761185 0.074649
0.594480 0.760542 0.074006
0.656814 0.759905 0.073368
0.718662 0.759272 0.072736
0.780072 0.758644 0.072108
0.841083 0.758020 0.071484
0.901727 0.757400 0.070863
0.962034 0.756783 0.070247
1.000000 0.756273 0.069736
0.000000 0.828727 0.078060
0.062038 0.827911 0.077245
0.134037 0.827175 0.076508
0.203209 0.826468 0.075801
0.270591 0.825778 0.075112
0.336666 0.825103 0.074436
0.401716 0.824437 0.073771
0.465924 0.823781 0.073114
0.529419 0.823131 0.072465
0.592296 0.822488 0.071822
0.654630 0.821851 0.071184
0.716478 0.821218 0.070552
0.777888 0.820590 0.069923
0.838899 0.819966 0.069299
0.899543 0.819346 0.068679
0.959850 0.818729 0.068062
1.000000 0.818219 0.067552
0.000000 0.890530 0.075881
0.059859 0.889714 0.075066
0.131858 0.888978 0.074329
0.201030 0.888271 0.073622
0.268412 0.887581 0.072933
0.334487 0.886906 0.072257
0.399537 0.886240 0.071592
0.463745 0.885584 0.070935
0.527239 0.884934 0.070286
0.590117 0.884291 0.069643
0.652451 0.883654 0.069005
0.714299 0.883021 0.068372
0.775709 0.882393 0.067744
0.836720 0.881769 0.067120
0.897364 0.881149 0.066500
0.957671 0.880532 0.065883
1.000000 0.880022 0.065373
0.000000 0.952200 0.073707
0.057684 0.951385 0.072891
0.129684 0.950649 0.072155
0.198856 0.949941 0.071447
0.266237 0.949252 0.070758
0.332313 0.948576 0.070083
0.397362 0.947911 0.069417
0.461570 0.947254 0.068761
0.525065 0.946605 0.068111
0.587943 0.945962 0.067468
0.650276 0.945324 0.066831
0.712124 0.944692 0.066198
0.773534 0.944064 0.065570
0.834545 0.943440 0.064946
0.895190 0.942819 0.064326
0.955497 0.942203 0.063709
1.000000 0.941692 0.063199
0.000000 1.000000 0.071536
0.055514 1.000000 0.070721
0.127514 1.000000 0.069985
0.196686 1.000000 0.069277
0.264067 1.000000 0.068588
0.330143 1.000000 0.067913
0.395192 1.000000 0.067247
0.459400 1.000000 0.066591
0.522895 1.000000 0.065941
0.585773 1.000000 0.065298
0.648106 1.000000 0.064661
0.709954 1.000000 0.064028
0.771364 1.000000 0.063400
0.832375 1.000000 0.062776
0.893020 1.000000 0.062156
0.953327 1.000000 0.061539
1.000000 1.000000 0.061029
0.011347 0.000000 0.169859
0.091058 0.000000 0.169044
0.163058 0.000000 0.168307
0.232230 0.000000 0.167600
0.299612 0.000000 0.166911
0.365687 0.000000 0.166235
0.430737 0.000000 0.165570
0.494944 0.000000 0.164913
0.558439 0.000000 0.164264
0.621317 0.000000 0.163621
0.683650 0.000000 0.162983
0.745498 0.000000 0.162351
0.806908 0.000000 0.161723
0.867919 0.000000 0.161099
0.928564 0.000000 0.160478
0.988871 0.000000 0.159862
1.000000 0.000000 0.159351
0.008918 0.068180 0.167430
