project/modules/step7_final_render/luts/outdoor_natural.cube
TITLE "Outdoor Natural"
LUT_3D_SIZE 9
DOMAIN_MIN 0.0 0.0 0.0
DOMAIN_MAX 1.0 1.0 1.0
0.011934 0.000000 0.000000
0.163644 0.000000 0.000000
0.300198 0.000000 0.000000
0.431323 0.000000 0.000000
0.559026 0.000000 0.000000
0.684237 0.000000 0.000000
0.807495 0.000000 0.000000
0.929151 0.000000 0.000000
1.000000 0.000000 0.000000
0.007176 0.134819 0.000000
0.158887 0.133267 0.000000
0.295440 0.131871 0.000000
0.426565 0.130530 0.000000
0.554268 0.129224 0.000000
0.679479 0.127943 0.000000
0.802737 0.126682 0.000000
0.924393 0.125438 0.000000
1.000000 0.124311 0.000000
0.002614 0.264206 0.000000
0.154325 0.262654 0.000000
0.290878 0.261257 0.000000
0.422003 0.259916 0.000000
0.549706 0.258610 0.000000
0.674917 0.257330 0.000000
0.798175 0.256069 0.000000
0.919831 0.254825 0.000000
1.000000 0.253698 0.000000
0.000000 0.391576 0.000000
0.149834 0.390024 0.000000
0.286388 0.388628 0.000000
0.417513 0.387286 0.000000
0.545215 0.385980 0.000000
0.670426 0.384700 0.000000
0.793684 0.383439 0.000000
0.915340 0.382195 0.000000
1.000000 0.381068 0.000000
0.000000 0.517654 0.000000
0.145389 0.516102 0.000000
0.281942 0.514705 0.000000
0.413067 0.513364 0.000000
0.540770 0.512058 0.000000
0.665981 0.510778 0.000000
0.789239 0.509517 0.000000
0.910895 0.508273 0.000000
1.000000 0.507146 0.000000
0.000000 0.642779 0.000000
0.140977 0.641228 0.000000
0.277531 0.639831 0.000000
0.408656 0.638490 0.000000
0.536358 0.637184 0.000000
0.661569 0.635903 0.000000
0.784827 0.634643 0.000000
0.906483 0.633399 0.000000
1.000000 0.632271 0.000000
0.000000 0.767151 0.000000
0.136592 0.765600 0.000000
0.273146 0.764203 0.000000
0.404270 0.762862 0.000000
0.531973 0.761556 0.000000
0.657184 0.760276 0.000000
0.780442 0.759015 0.000000
0.902098 0.757771 0.000000
1.000000 0.756643 0.000000
0.000000 0.890900 0.000000
0.132229 0.889349 0.000000
0.268782 0.887952 0.000000
0.399907 0.886611 0.000000
0.527610 0.885305 0.000000
0.652821 0.884024 0.000000
0.776079 0.882764 0.000000
0.897735 0.881519 0.000000
1.000000 0.880392 0.000000
0.000000 1.000000 0.000000
0.127884 1.000000 0.000000
0.264438 1.000000 0.000000
0.395563 1.000000 0.000000
0.523266 1.000000 0.000000
0.648477 1.000000 0.000000
0.771735 1.000000 0.000000
0.893391 1.000000 0.000000
1.000000 1.000000 0.000000
0.011563 0.000000 0.107296
0.163274 0.000000 0.105745
0.299827 0.000000 0.104348
0.430952 0.000000 0.103007
0.558655 0.000000 0.101701
0.683866 0.000000 0.100421
0.807124 0.000000 0.099160
0.928780 0.000000 0.097916
1.000000 0.000000 0.096789
0.006805 0.134448 0.102539
0.158516 0.132897 0.100987
0.295070 0.131500 0.099591
0.426195 0.130159 0.098250
0.553897 0.128853 0.096943
0.679108 0.127572 0.095663
0.802366 0.126312 0.094402
0.924022 0.125068 0.093158
1.000000 0.123940 0.092031
0.002243 0.263835 0.097977
0.153954 0.262283 0.096425
0.290508 0.260887 0.095029
0.421633 0.259546 0.093688
0.549335 0.258240 0.092382
0.674547 0.256959 0.091101
0.797805 0.255698 0.089840
0.919460 0.254454 0.088596
1.000000 0.253327 0.087469
0.000000 0.391205 0.093486
0.149463 0.389654 0.091934
0.286017 0.388257 0.090538
0.417142 0.386916 0.089197
0.544845 0.385610 0.087891
0.670056 0.384329 0.086610
0.793314 0.383069 0.085350
0.914969 0.381824 0.084105
1.000000 0.380697 0.082978
0.000000 0.517283 0.089041
0.145018 0.515731 0.087489
0.281572 0.514335 0.086093
0.412697 0.512994 0.084752
0.540399 0.511688 0.083445
0.665610 0.510407 0.082165
0.788868 0.509147 0.080904
0.910524 0.507902 0.079660
1.000000 0.506775 0.078533
0.000000 0.642409 0.084629
0.140606 0.640857 0.083078
0.277160 0.639461 0.081681
0.408285 0.638119 0.080340
0.535988 0.636813 0.079034
0.661199 0.635533 0.077753
0.784457 0.634272 0.076493
0.906113 0.633028 0.075248
1.000000 0.631901 0.074121
0.000000 0.766781 0.080244
0.136221 0.765229 0.078692
0.272775 0.763833 0.077296
0.403900 0.762492 0.075955
0.531603 0.761185 0.074649
0.656814 0.759905 0.073368
0.780072 0.758644 0.072108
0.901727 0.757400 0.070863
1.000000 0.756273 0.069736
0.000000 0.890530 0.075881
0.131858 0.888978 0.074329
0.268412 0.887581 0.072933
0.399537 0.886240 0.071592
0.527239 0.884934 0.070286
0.652451 0.883654 0.069005
0.775709 0.882393 0.067744
0.897364 0.881149 0.066500
1.000000 0.880022 0.065373
0.000000 1.000000 0.071536
0.127514 1.000000 0.069985
0.264067 1.000000 0.068588
0.395192 1.000000 0.067247
0.522895 1.000000 0.065941
0.648106 1.000000 0.064661
0.771364 1.000000 0.063400
0.893020 1.000000 0.062156
1.000000 1.000000 0.061029
0.011128 0.000000 0.233493
0.162838 0.000000 0.231942
0.299392 0.000000 0.230545
0.430517 0.000000 0.229204
0.558220 0.000000 0.227898
0.683431 0.000000 0.226617
0.806689 0.000000 0.225357
0.928345 0.000000 0.224112
1.000000 0.000000 0.222985
0.006370 0.134013 0.228735
0.158081 0.132461 0.227184
0.294634 0.131065 0.225787
0.425759 0.129724 0.224446
0.553462 0.128418 0.223140
0.678673 0.127137 0.221860
0.801931 0.125876 0.220599
0.923587 0.124632 0.219355
1.000000 0.123505 0.218227
0.001808 0.263400 0.224174
0.153519 0.261848 0.222622
0.290072 0.260451 0.221225
0.421197 0.259110 0.219884
0.548900 0.257804 0.218578
0.674111 0.256524 0.217298
0.797369 0.255263 0.216037
0.919025 0.254019 0.214793
1.000000 0.252892 0.213666
0.000000 0.390770 0.219683
0.149028 0.389218 0.218131
0.285582 0.387822 0.216735
0.416707 0.386480 0.215393
0.544409 0.385174 0.214087
0.669620 0.383894 0.212807
0.792878 0.382633 0.211546
0.914534 0.381389 0.210302
1.000000 0.380262 0.209175
0.000000 0.516848 0.215237
0.144583 0.515296 0.213686
0.281136 0.513899 0.212289
0.412261 0.512558 0.210948
0.539964 0.511252 0.209642
0.665175 0.509972 0.208362
0.788433 0.508711 0.207101
0.910089 0.507467 0.205857
1.000000 0.506340 0.204730
0.000000 0.641973 0.210826
0.140171 0.640422 0.209274
0.276725 0.639025 0.207878
0.407850 0.637684 0.206537
0.535552 0.636378 0.205230
0.660763 0.635097 0.203950
0.784021 0.633837 0.202689
0.905677 0.632593 0.201445
1.000000 0.631465 0.200318
0.000000 0.766345 0.206441
0.135786 0.764794 0.204889
0.272340 0.763397 0.203492
0.403465 0.762056 0.202151
0.531167 0.760750 0.200845
0.656378 0.759470 0.199565
0.779636 0.758209 0.198304
0.901292 0.756965 0.197060
1.000000 0.755837 0.195933
0.000000 0.890094 0.202078
0.131423 0.888543 0.200526
0.267976 0.887146 0.199129
0.399101 0.885805 0.197788
0.526804 0.884499 0.196482
0.652015 0.883218 0.195202
0.775273 0.881958 0.193941
0.896929 0.880714 0.192697
1.000000 0.879586 0.191570
0.000000 1.000000 0.197733
0.127078 1.000000 0.196182
0.263632 1.000000 0.194785
0.394757 1.000000 0.193444
0.522460 1.000000 0.192138
0.647671 1.000000 0.190857
0.770929 1.000000 0.189597
0.892585 1.000000 0.188352
1.000000 1.000000 0.187225
0.010681 0.000000 0.363031
0.162391 0.000000 0.361479
0.298945 0.000000 0.360083
0.430070 0.000000 0.358742
0.557773 0.000000 0.357436
0.682984 0.000000 0.356155
0.806242 0.000000 0.354894
0.927898 0.000000 0.353650
1.000000 0.000000 0.352523
0.005923 0.133566 0.358273
0.157634 0.132014 0.356722
0.294187 0.130618 0.355325
0.425312 0.129277 0.353984
0.553015 0.127971 0.352678
0.678226 0.126690 0.351397
0.801484 0.125429 0.350137
0.923140 0.124185 0.348892
1.000000 0.123058 0.347765
0.001361 0.262953 0.353711
0.153072 0.261401 0.352160
0.289625 0.260005 0.350763
0.420750 0.258663 0.349422
0.548453 0.257357 0.348116
0.673664 0.256077 0.346835
0.796922 0.254816 0.345575
0.918578 0.253572 0.344331
1.000000 0.252445 0.343203
0.000000 0.390323 0.349220
0.148581 0.388771 0.347669
0.285135 0.387375 0.346272
0.416260 0.386034 0.344931
0.543962 0.384728 0.343625
0.669173 0.383447 0.342345
0.792431 0.382186 0.341084
0.914087 0.380942 0.339840
1.000000 0.379815 0.338712
0.000000 0.516401 0.344775
0.144136 0.514849 0.343224
0.280689 0.513453 0.341827
0.411814 0.512112 0.340486
0.539517 0.510805 0.339180
0.664728 0.509525 0.337899
0.787986 0.508264 0.336639
0.909642 0.507020 0.335394
1.000000 0.505893 0.334267
0.000000 0.641526 0.340363
0.139724 0.639975 0.338812
0.276278 0.638578 0.337415
0.407403 0.637237 0.336074
0.535105 0.635931 0.334768
0.660317 0.634651 0.333488
0.783575 0.633390 0.332227
0.905230 0.632146 0.330983
1.000000 0.631019 0.329856
0.000000 0.765899 0.335978
0.135339 0.764347 0.334427
0.271893 0.762950 0.333030
0.403018 0.761609 0.331689
0.530720 0.760303 0.330383
0.655931 0.759023 0.329103
0.779189 0.757762 0.327842
0.900845 0.756518 0.326598
1.000000 0.755391 0.325470
0.000000 0.889647 0.331615
0.130976 0.888096 0.330064
0.267530 0.886699 0.328667
0.398655 0.885358 0.327326
0.526357 0.884052 0.326020
0.651568 0.882771 0.324739
0.774826 0.881511 0.323479
0.896482 0.880267 0.322235
1.000000 0.879139 0.321107
0.000000 1.000000 0.327271
0.126631 1.000000 0.325719
0.263185 1.000000 0.324323
0.394310 1.000000 0.322982
0.522013 1.000000 0.321676
0.647224 1.000000 0.320395
0.770482 1.000000 0.319134
0.892138 1.000000 0.317890
1.000000 1.000000 0.316763
0.010226 0.000000 0.494787
0.161937 0.000000 0.493236
0.298491 0.000000 0.491839
0.429616 0.000000 0.490498
0.557318 0.000000 0.489192
0.682529 0.000000 0.487911
0.805787 0.000000 0.486651
0.927443 0.000000 0.485406
1.000000 0.000000 0.484279
0.005468 0.133111 0.490029
0.157179 0.131560 0.488478
0.293733 0.130163 0.487081
0.424858 0.128822 0.485740
0.552561 0.127516 0.484434
0.677772 0.126236 0.483153
0.801030 0.124975 0.481893
0.922685 0.123731 0.480649
1.000000 0.122603 0.479521
0.000907 0.262498 0.485467
0.152617 0.260947 0.483916
0.289171 0.259550 0.482519
0.420296 0.258209 0.481178
0.547999 0.256903 0.479872
0.673210 0.255622 0.478592
0.796468 0.254362 0.477331
0.918123 0.253117 0.476087
1.000000 0.251990 0.474960
0.000000 0.389868 0.480977
0.148126 0.388317 0.479425
0.284680 0.386920 0.478028
0.415805 0.385579 0.476687
0.543508 0.384273 0.475381
0.668719 0.382992 0.474101
0.791977 0.381732 0.472840
0.913633 0.380488 0.471596
1.000000 0.379360 0.470469
0.000000 0.515946 0.476531
0.143681 0.514395 0.474980
0.280235 0.512998 0.473583
0.411360 0.511657 0.472242
0.539063 0.510351 0.470936
0.664274 0.509070 0.469656
0.787532 0.507810 0.468395
0.909187 0.506566 0.467151
1.000000 0.505438 0.466023
0.000000 0.641072 0.472120
0.139270 0.639520 0.470568
0.275823 0.638124 0.469172
0.406948 0.636783 0.467830
0.534651 0.635477 0.466524
0.659862 0.634196 0.465244
0.783120 0.632935 0.463983
0.904776 0.631691 0.462739
1.000000 0.630564 0.461612
0.000000 0.765444 0.467735
0.134884 0.763892 0.466183
0.271438 0.762496 0.464786
0.402563 0.761155 0.463445
0.530266 0.759849 0.462139
0.655477 0.758568 0.460859
0.778735 0.757307 0.459598
0.900391 0.756063 0.458354
1.000000 0.754936 0.457227
0.000000 0.889193 0.463372
0.130521 0.887641 0.461820
0.267075 0.886245 0.460423
0.398200 0.884904 0.459082
0.525903 0.883597 0.457776
0.651114 0.882317 0.456496
0.774372 0.881056 0.455235
0.896028 0.879812 0.453991
1.000000 0.878685 0.452864
0.000000 1.000000 0.459027
0.126177 1.000000 0.457476
0.262731 1.000000 0.456079
0.393856 1.000000 0.454738
0.521558 1.000000 0.453432
0.646769 1.000000 0.452151
0.770027 1.000000 0.450891
0.891683 1.000000 0.449646
1.000000 1.000000 0.448519
0.009766 0.000000 0.628218
0.161477 0.000000 0.626666
0.298030 0.000000 0.625270
0.429155 0.000000 0.623929
0.556858 0.000000 0.622623
0.682069 0.000000 0.621342
0.805327 0.000000 0.620082
0.926983 0.000000 0.618837
1.000000 0.000000 0.617710
0.005008 0.132651 0.623460
0.156719 0.131099 0.621909
0.293273 0.129703 0.620512
0.424397 0.128362 0.619171
0.552100 0.127056 0.617865
0.677311 0.125775 0.616584
0.800569 0.124515 0.615324
0.922225 0.123270 0.614080
1.000000 0.122143 0.612952
0.000446 0.262038 0.618898
0.152157 0.260486 0.617347
0.288711 0.259090 0.615950
0.419836 0.257749 0.614609
0.547538 0.256443 0.613303
0.672749 0.255162 0.612022
0.796007 0.253901 0.610762
0.917663 0.252657 0.609518
1.000000 0.251530 0.608390
0.000000 0.389408 0.614408
0.147666 0.387856 0.612856
0.284220 0.386460 0.611459
0.415345 0.385119 0.610118
0.543047 0.383813 0.608812
0.668259 0.382532 0.607532
0.791517 0.381271 0.606271
0.913172 0.380027 0.605027
1.000000 0.378900 0.603900
0.000000 0.515486 0.609962
0.143221 0.513934 0.608411
0.279775 0.512538 0.607014
0.410900 0.511197 0.605673
0.538602 0.509891 0.604367
0.663813 0.508610 0.603086
0.787071 0.507349 0.601826
0.908727 0.506105 0.600582
1.000000 0.504978 0.599454
0.000000 0.640612 0.605551
0.138809 0.639060 0.603999
0.275363 0.637663 0.602602
0.406488 0.636322 0.601261
0.534191 0.635016 0.599955
0.659402 0.633736 0.598675
0.782660 0.632475 0.597414
0.904315 0.631231 0.596170
1.000000 0.630104 0.595043
0.000000 0.764984 0.601166
0.134424 0.763432 0.599614
0.270978 0.762035 0.598217
0.402103 0.760694 0.596876
0.529805 0.759388 0.595570
0.655017 0.758108 0.594290
0.778275 0.756847 0.593029
0.899930 0.755603 0.591785
1.000000 0.754476 0.590658
0.000000 0.888732 0.596802
0.130061 0.887181 0.595251
0.266615 0.885784 0.593854
0.397740 0.884443 0.592513
0.525442 0.883137 0.591207
0.650653 0.881857 0.589927
0.773911 0.880596 0.588666
0.895567 0.879352 0.587422
1.000000 0.878224 0.586294
0.000000 1.000000 0.592458
0.125717 1.000000 0.590906
0.262270 1.000000 0.589510
0.393395 1.000000 0.588169
0.521098 1.000000 0.586863
0.646309 1.000000 0.585582
0.769567 1.000000 0.584322
0.891223 1.000000 0.583077
1.000000 1.000000 0.581950
0.009301 0.000000 0.762999
0.161012 0.000000 0.761447
0.297565 0.000000 0.760051
0.428690 0.000000 0.758710
0.556393 0.000000 0.757404
0.681604 0.000000 0.756123
0.804862 0.000000 0.754862
0.926518 0.000000 0.753618
1.000000 0.000000 0.752491
0.004543 0.132186 0.758241
0.156254 0.130634 0.756689
0.292808 0.129238 0.755293
0.423932 0.127897 0.753952
0.551635 0.126591 0.752646
0.676846 0.125310 0.751365
0.800104 0.124050 0.750105
0.921760 0.122805 0.748860
1.000000 0.121678 0.747733
0.000000 0.261573 0.753679
0.151692 0.260021 0.752128
0.288246 0.258625 0.750731
0.419371 0.257284 0.749390
0.547073 0.255978 0.748084
0.672284 0.254697 0.746803
0.795542 0.253436 0.745543
0.917198 0.252192 0.744298
1.000000 0.251065 0.743171
0.000000 0.388943 0.749188
0.147201 0.387391 0.747637
0.283755 0.385995 0.746240
0.414880 0.384654 0.744899
0.542582 0.383348 0.743593
0.667794 0.382067 0.742312
0.791052 0.380806 0.741052
0.912707 0.379562 0.739808
1.000000 0.378435 0.738680
0.000000 0.515021 0.744743
0.142756 0.513469 0.743192
0.279310 0.512073 0.741795
0.410435 0.510732 0.740454
0.538137 0.509426 0.739148
0.663348 0.508145 0.737867
0.786606 0.506884 0.736607
0.908262 0.505640 0.735362
1.000000 0.504513 0.734235
0.000000 0.640147 0.740331
0.138344 0.638595 0.738780
0.274898 0.637198 0.737383
0.406023 0.635857 0.736042
0.533726 0.634551 0.734736
0.658937 0.633271 0.733456
0.782195 0.632010 0.732195
0.903850 0.630766 0.730951
1.000000 0.629639 0.729823
0.000000 0.764519 0.735946
0.133959 0.762967 0.734395
0.270513 0.761570 0.732998
0.401638 0.760229 0.731657
0.529340 0.758923 0.730351
0.654552 0.757643 0.729070
0.777810 0.756382 0.727810
0.899465 0.755138 0.726566
1.000000 0.754011 0.725438
0.000000 0.888267 0.731583
0.129596 0.886716 0.730032
0.266150 0.885319 0.728635
0.397275 0.883978 0.727294
0.524977 0.882672 0.725988
0.650188 0.881392 0.724707
0.773446 0.880131 0.723447
0.895102 0.878887 0.722203
1.000000 0.877760 0.721075
0.000000 1.000000 0.727239
0.125252 1.000000 0.725687
0.261805 1.000000 0.724291
0.392930 1.000000 0.722950
0.520633 1.000000 0.721644
0.645844 1.000000 0.720363
0.769102 1.000000 0.719102
0.890758 1.000000 0.717858
1.000000 1.000000 0.716731
0.008832 0.000000 0.898913
0.160543 0.000000 0.897361
0.297096 0.000000 0.895964
0.428221 0.000000 0.894623
0.555924 0.000000 0.893317
0.681135 0.000000 0.892037
0.804393 0.000000 0.890776
0.926049 0.000000 0.889532
1.000000 0.000000 0.888405
0.004074 0.131717 0.894155
0.155785 0.130166 0.892603
0.292339 0.128769 0.891207
0.423464 0.127428 0.889866
0.551166 0.126122 0.888560
0.676377 0.124841 0.887279
0.799635 0.123581 0.886018
0.921291 0.122336 0.884774
1.000000 0.121209 0.883647
0.000000 0.261104 0.889593
0.151223 0.259552 0.888041
0.287777 0.258156 0.886645
0.418902 0.256815 0.885304
0.546604 0.255509 0.883998
0.671815 0.254228 0.882717
0.795074 0.252967 0.881457
0.916729 0.251723 0.880212
1.000000 0.250596 0.879085
0.000000 0.388474 0.885102
0.146732 0.386922 0.883551
0.283286 0.385526 0.882154
0.414411 0.384185 0.880813
0.542114 0.382879 0.879507
0.667325 0.381598 0.878226
0.790583 0.380338 0.876966
0.912238 0.379093 0.875722
1.000000 0.377966 0.874594
0.000000 0.514552 0.880657
0.142287 0.513000 0.879105
0.278841 0.511604 0.877709
0.409966 0.510263 0.876368
0.537668 0.508957 0.875062
0.662879 0.507676 0.873781
0.786137 0.506416 0.872520
0.907793 0.505171 0.871276
1.000000 0.504044 0.870149
0.000000 0.639678 0.876245
0.137875 0.638126 0.874694
0.274429 0.636730 0.873297
0.405554 0.635388 0.871956
0.533257 0.634082 0.870650
0.658468 0.632802 0.869369
0.781726 0.631541 0.868109
0.903382 0.630297 0.866865
1.000000 0.629170 0.865737
0.000000 0.764050 0.871860
0.133490 0.762498 0.870309
0.270044 0.761102 0.868912
0.401169 0.759761 0.867571
0.528872 0.758454 0.866265
0.654083 0.757174 0.864984
0.777341 0.755913 0.863724
0.898996 0.754669 0.862479
1.000000 0.753542 0.861352
0.000000 0.887799 0.867497
0.129127 0.886247 0.865945
0.265681 0.884850 0.864549
0.396806 0.883509 0.863208
0.524508 0.882203 0.861902
0.649720 0.880923 0.860621
0.772978 0.879662 0.859361
0.894633 0.878418 0.858116
1.000000 0.877291 0.856989
0.000000 1.000000 0.863153
0.124783 1.000000 0.861601
0.261336 1.000000 0.860204
0.392461 1.000000 0.858863
0.520164 1.000000 0.857557
0.645375 1.000000 0.856277
0.768633 1.000000 0.855016
0.890289 1.000000 0.853772
1.000000 1.000000 0.852645
0.008360 0.000000 1.000000
0.160070 0.000000 1.000000
0.296624 0.000000 1.000000
0.427749 0.000000 1.000000
0.555452 0.000000 1.000000
0.680663 0.000000 1.000000
0.803921 0.000000 1.000000
0.925577 0.000000 1.000000
1.000000 0.000000 1.000000
0.003602 0.131245 1.000000
0.155313 0.129693 1.000000
0.291866 0.128297 1.000000
0.422991 0.126956 1.000000
0.550694 0.125650 1.000000
0.675905 0.124369 1.000000
0.799163 0.123108 1.000000
0.920819 0.121864 1.000000
1.000000 0.120737 1.000000
0.000000 0.260632 1.000000
0.150751 0.259080 1.000000
0.287304 0.257683 1.000000
0.418429 0.256342 1.000000
0.546132 0.255036 1.000000
0.671343 0.253756 1.000000
0.794601 0.252495 1.000000
0.916257 0.251251 1.000000
1.000000 0.250124 1.000000
0.000000 0.388002 1.000000
0.146260 0.386450 1.000000
0.282814 0.385054 1.000000
0.413939 0.383713 1.000000
0.541641 0.382406 1.000000
0.666852 0.381126 1.000000
0.790110 0.379865 1.000000
0.911766 0.378621 1.000000
1.000000 0.377494 1.000000
0.000000 0.514080 1.000000
0.141815 0.512528 1.000000
0.278368 0.511132 1.000000
0.409493 0.509790 1.000000
0.537196 0.508484 1.000000
0.662407 0.507204 1.000000
0.785665 0.505943 1.000000
0.907321 0.504699 1.000000
1.000000 0.503572 1.000000
0.000000 0.639205 1.000000
0.137403 0.637654 1.000000
0.273957 0.636257 1.000000
0.405082 0.634916 1.000000
0.532784 0.633610 1.000000
0.657995 0.632330 1.000000
0.781254 0.631069 1.000000
0.902909 0.629825 1.000000
1.000000 0.628697 1.000000
0.000000 0.763577 1.000000
0.133018 0.762026 1.000000
0.269572 0.760629 1.000000
0.400697 0.759288 1.000000
0.528399 0.757982 1.000000
0.653610 0.756702 1.000000
0.776868 0.755441 1.000000
0.898524 0.754197 0.999371
1.000000 0.753070 0.998244
0.000000 0.887326 1.000000
0.128655 0.885775 1.000000
0.265209 0.884378 1.000000
0.396333 0.883037 1.000000
0.524036 0.881731 0.998793
0.649247 0.880450 0.997513
0.772505 0.879190 0.996252
0.894161 0.877946 0.995008
1.000000 0.876818 0.993881
0.000000 1.000000 1.000000
0.124310 1.000000 0.998492
0.260864 1.000000 0.997096
0.391989 1.000000 0.995755
0.519692 1.000000 0.994449
0.644903 1.000000 0.993168
0.768161 1.000000 0.991908
0.889817 1.000000 0.990663
1.000000 1.000000 0.989536
