project/modules/step7_final_render/luts/travel.cube
TITLE "Travel"
LUT_3D_SIZE 5
DOMAIN_MIN 0.0 0.0 0.0
DOMAIN_MAX 1.0 1.0 1.0
0.049817 0.039367 0.028917
0.336066 0.033725 0.023275
0.591434 0.028692 0.018242
0.836313 0.023866 0.013416
1.000000 0.019574 0.009124
0.031611 0.301162 0.010711
0.317861 0.295521 0.005070
0.573229 0.290488 0.000037
0.818108 0.285662 0.000000
1.000000 0.281369 0.000000
0.014647 0.545123 0.000000
0.300896 0.539481 0.000000
0.556264 0.534448 0.000000
0.801143 0.529622 0.000000
1.000000 0.525329 0.000000
0.000000 0.782775 0.000000
0.284370 0.777134 0.000000
0.539738 0.772101 0.000000
0.784617 0.767275 0.000000
1.000000 0.762982 0.000000
0.000000 1.000000 0.000000
0.268802 1.000000 0.000000
0.524170 0.995978 0.000000
0.769048 0.991152 0.000000
0.986859 0.986859 0.000000
0.048240 0.037790 0.267498
0.334490 0.032149 0.261857
0.589858 0.027116 0.256824
0.834737 0.022290 0.251998
1.000000 0.017997 0.247705
0.030035 0.299586 0.249293
0.316285 0.293945 0.243651
0.571653 0.288912 0.238619
0.816532 0.284086 0.233793
1.000000 0.279793 0.229500
0.013070 0.543546 0.232328
0.299320 0.537905 0.226687
0.554688 0.532872 0.221654
0.799567 0.528046 0.216828
1.000000 0.523753 0.212535
0.000000 0.781199 0.215802
0.282794 0.775558 0.210160
0.538162 0.770525 0.205127
0.783040 0.765699 0.200301
1.000000 0.761406 0.196009
0.000000 1.000000 0.200234
0.267226 0.999434 0.194592
0.522593 0.994401 0.189559
0.767472 0.989575 0.184733
0.985283 0.985283 0.180440
0.046526 0.036076 0.526923
0.332776 0.030435 0.521282
0.588144 0.025402 0.516249
0.833023 0.020576 0.511423
1.000000 0.016283 0.507130
0.028321 0.297872 0.508718
0.314571 0.292230 0.503077
0.569939 0.287198 0.498044
0.814818 0.282372 0.493218
1.000000 0.278079 0.488925
0.011356 0.541832 0.491753
0.297606 0.536191 0.486112
0.552974 0.531158 0.481079
0.797853 0.526332 0.476253
1.000000 0.522039 0.471960
0.000000 0.779485 0.475227
0.281080 0.773844 0.469586
0.536448 0.768811 0.464553
0.781326 0.763985 0.459727
0.999137 0.759692 0.455434
0.000000 1.000000 0.459659
0.265512 0.997720 0.454017
0.520879 0.992687 0.448985
0.765758 0.987861 0.444158
0.983569 0.983569 0.439866
0.044785 0.034335 0.790450
0.331035 0.028694 0.784809
0.586403 0.023661 0.779776
0.831282 0.018835 0.774950
1.000000 0.014542 0.770657
0.026580 0.296131 0.772245
0.312830 0.290489 0.766604
0.568198 0.285457 0.761571
0.813076 0.280630 0.756745
1.000000 0.276338 0.752452
0.009615 0.540091 0.755280
0.295865 0.534450 0.749639
0.551233 0.529417 0.744606
0.796112 0.524591 0.739780
1.000000 0.520298 0.735487
0.000000 0.777744 0.738754
0.279339 0.772102 0.733112
0.534707 0.767070 0.728080
0.779585 0.762243 0.723253
0.997396 0.757951 0.718961
0.000000 1.000000 0.723186
0.263770 0.995979 0.717544
0.519138 0.990946 0.712511
0.764017 0.986120 0.707685
0.981828 0.981828 0.703393
0.043026 0.032576 1.000000
0.329276 0.026935 1.000000
0.584644 0.021902 1.000000
0.829523 0.017076 1.000000
1.000000 0.012783 1.000000
0.024821 0.294372 1.000000
0.311071 0.288730 1.000000
0.566439 0.283698 1.000000
0.811317 0.278871 1.000000
1.000000 0.274579 1.000000
0.007856 0.538332 1.000000
0.294106 0.532691 1.000000
0.549474 0.527658 1.000000
0.794353 0.522832 1.000000
1.000000 0.518539 1.000000
0.000000 0.775985 1.000000
0.277580 0.770343 0.999338
0.532948 0.765311 0.994306
0.777826 0.760485 0.989480
0.995637 0.756192 0.985187
0.000000 0.999862 0.989412
0.262011 0.994220 0.983770
0.517379 0.989187 0.978737
0.762258 0.984361 0.973911
0.980069 0.980069 0.969619
