project/modules/step7_final_render/luts/travel.cube
TITLE "Travel"
LUT_3D_SIZE 17
DOMAIN_MIN 0.0 0.0 0.0
DOMAIN_MAX 1.0 1.0 1.0
0.049817 0.039367 0.028917
0.129772 0.037791 0.027341
0.201102 0.036385 0.025935
0.269502 0.035037 0.024587
0.336066 0.033725 0.023275
0.401298 0.032440 0.021990
0.465487 0.031175 0.020725
0.528822 0.029926 0.019476
0.591434 0.028692 0.018242
0.653422 0.027471 0.017021
0.714860 0.026260 0.015810
0.775808 0.025059 0.014609
0.836313 0.023866 0.013416
0.896416 0.022682 0.012232
0.956150 0.021504 0.011054
1.000000 0.020334 0.009884
1.000000 0.019574 0.009124
0.044939 0.109513 0.024039
0.124894 0.107937 0.022463
0.196224 0.106531 0.021057
0.264624 0.105183 0.019709
0.331188 0.103872 0.018397
0.396420 0.102586 0.017112
0.460609 0.101321 0.015847
0.523944 0.100073 0.014598
0.586556 0.098839 0.013364
0.648544 0.097617 0.012143
0.709982 0.096406 0.010932
0.770930 0.095205 0.009731
0.831435 0.094013 0.008538
0.891538 0.092828 0.007354
0.951272 0.091651 0.006177
1.000000 0.090480 0.005006
1.000000 0.089720 0.004246
0.040393 0.174881 0.019493
0.120349 0.173305 0.017917
0.191679 0.171899 0.016511
0.260079 0.170551 0.015163
0.326643 0.169239 0.013852
0.391874 0.167953 0.012566
0.456063 0.166688 0.011301
0.519398 0.165440 0.010053
0.582011 0.164206 0.008819
0.643998 0.162985 0.007597
0.705436 0.161774 0.006386
0.766384 0.160573 0.005185
0.826889 0.159380 0.003993
0.886992 0.158196 0.002808
0.946726 0.157018 0.001631
1.000000 0.155848 0.000460
1.000000 0.155087 0.000000
0.035965 0.238558 0.015065
0.115921 0.236982 0.013489
0.187251 0.235576 0.012083
0.255651 0.234228 0.010735
0.322215 0.232917 0.009423
0.387446 0.231631 0.008138
0.451635 0.230366 0.006873
0.514970 0.229118 0.005625
0.577583 0.227884 0.004391
0.639570 0.226662 0.003169
0.701008 0.225451 0.001958
0.761956 0.224250 0.000757
0.822461 0.223058 0.000000
0.882564 0.221873 0.000000
0.942298 0.220696 0.000000
1.000000 0.219525 0.000000
1.000000 0.218765 0.000000
0.031611 0.301162 0.010711
0.111567 0.299587 0.009136
0.182897 0.298181 0.007730
0.251297 0.296833 0.006382
0.317861 0.295521 0.005070
0.383093 0.294235 0.003784
0.447282 0.292970 0.002519
0.510617 0.291722 0.001271
0.573229 0.290488 0.000037
0.635217 0.289266 0.000000
0.696655 0.288055 0.000000
0.757603 0.286854 0.000000
0.818108 0.285662 0.000000
0.878211 0.284477 0.000000
0.937944 0.283300 0.000000
0.997338 0.282130 0.000000
1.000000 0.281369 0.000000
0.027313 0.362980 0.006413
0.107268 0.361405 0.004837
0.178598 0.359999 0.003431
0.246998 0.358651 0.002083
0.313562 0.357339 0.000771
0.378794 0.356053 0.000000
0.442983 0.354788 0.000000
0.506318 0.353540 0.000000
0.568930 0.352306 0.000000
0.630918 0.351084 0.000000
0.692356 0.349874 0.000000
0.753304 0.348672 0.000000
0.813809 0.347480 0.000000
0.873912 0.346295 0.000000
0.933646 0.345118 0.000000
0.993039 0.343948 0.000000
1.000000 0.343187 0.000000
0.023057 0.424179 0.002157
0.103013 0.422603 0.000581
0.174343 0.421198 0.000000
0.242743 0.419850 0.000000
0.309307 0.418538 0.000000
0.374538 0.417252 0.000000
0.438727 0.415987 0.000000
0.502062 0.414739 0.000000
0.564675 0.413505 0.000000
0.626662 0.412283 0.000000
0.688100 0.411072 0.000000
0.749048 0.409871 0.000000
0.809553 0.408679 0.000000
0.869656 0.407494 0.000000
0.929390 0.406317 0.000000
0.988783 0.405146 0.000000
1.000000 0.404386 0.000000
0.018837 0.484868 0.000000
0.098793 0.483292 0.000000
0.170122 0.481886 0.000000
0.238522 0.480538 0.000000
0.305087 0.479226 0.000000
0.370318 0.477940 0.000000
0.434507 0.476675 0.000000
0.497842 0.475427 0.000000
0.560454 0.474193 0.000000
0.622442 0.472972 0.000000
0.683880 0.471761 0.000000
0.744828 0.470560 0.000000
0.805333 0.469367 0.000000
0.865436 0.468183 0.000000
0.925170 0.467005 0.000000
0.984563 0.465835 0.000000
1.000000 0.465074 0.000000
0.014647 0.545123 0.000000
0.094602 0.543547 0.000000
0.165932 0.542141 0.000000
0.234332 0.540793 0.000000
0.300896 0.539481 0.000000
0.366128 0.538195 0.000000
0.430317 0.536930 0.000000
0.493652 0.535682 0.000000
0.556264 0.534448 0.000000
0.618252 0.533227 0.000000
0.679690 0.532016 0.000000
0.740638 0.530815 0.000000
0.801143 0.529622 0.000000
0.861246 0.528438 0.000000
0.920980 0.527260 0.000000
0.980373 0.526090 0.000000
1.000000 0.525329 0.000000
0.010483 0.605001 0.000000
0.090438 0.603425 0.000000
0.161768 0.602020 0.000000
0.230168 0.600671 0.000000
0.296732 0.599360 0.000000
0.361964 0.598074 0.000000
0.426153 0.596809 0.000000
0.489488 0.595561 0.000000
0.552100 0.594327 0.000000
0.614088 0.593105 0.000000
0.675526 0.591894 0.000000
0.736474 0.590693 0.000000
0.796979 0.589501 0.000000
0.857082 0.588316 0.000000
0.916816 0.587139 0.000000
0.976209 0.585968 0.000000
1.000000 0.585208 0.000000
0.006342 0.664547 0.000000
0.086298 0.662971 0.000000
0.157627 0.661566 0.000000
0.226027 0.660218 0.000000
0.292592 0.658906 0.000000
0.357823 0.657620 0.000000
0.422012 0.656355 0.000000
0.485347 0.655107 0.000000
0.547959 0.653873 0.000000
0.609947 0.652651 0.000000
0.671385 0.651440 0.000000
0.732333 0.650239 0.000000
0.792838 0.649047 0.000000
0.852941 0.647862 0.000000
0.912675 0.646685 0.000000
0.972068 0.645514 0.000000
1.000000 0.644754 0.000000
0.002222 0.723796 0.000000
0.082178 0.722220 0.000000
0.153507 0.720814 0.000000
0.221907 0.719466 0.000000
0.288472 0.718154 0.000000
0.353703 0.716869 0.000000
0.417892 0.715604 0.000000
0.481227 0.714355 0.000000
0.543839 0.713122 0.000000
0.605827 0.711900 0.000000
0.667265 0.710689 0.000000
0.728213 0.709488 0.000000
0.788718 0.708295 0.000000
0.848821 0.707111 0.000000
0.908555 0.705934 0.000000
0.967948 0.704763 0.000000
1.000000 0.704003 0.000000
0.000000 0.782775 0.000000
0.078076 0.781200 0.000000
0.149406 0.779794 0.000000
0.217806 0.778446 0.000000
0.284370 0.777134 0.000000
0.349602 0.775848 0.000000
0.413791 0.774583 0.000000
0.477126 0.773335 0.000000
0.539738 0.772101 0.000000
0.601726 0.770879 0.000000
0.663164 0.769669 0.000000
0.724111 0.768467 0.000000
0.784617 0.767275 0.000000
0.844720 0.766090 0.000000
0.904453 0.764913 0.000000
0.963846 0.763743 0.000000
1.000000 0.762982 0.000000
0.000000 0.841509 0.000000
0.073992 0.839934 0.000000
0.145322 0.838528 0.000000
0.213722 0.837180 0.000000
0.280286 0.835868 0.000000
0.345517 0.834582 0.000000
0.409706 0.833317 0.000000
0.473041 0.832069 0.000000
0.535654 0.830835 0.000000
0.597641 0.829613 0.000000
0.659079 0.828403 0.000000
0.720027 0.827201 0.000000
0.780532 0.826009 0.000000
0.840635 0.824824 0.000000
0.900369 0.823647 0.000000
0.959762 0.822477 0.000000
0.998343 0.821716 0.000000
0.000000 0.900018 0.000000
0.069923 0.898442 0.000000
0.141253 0.897036 0.000000
0.209653 0.895688 0.000000
0.276217 0.894376 0.000000
0.341449 0.893091 0.000000
0.405638 0.891826 0.000000
0.468973 0.890577 0.000000
0.531585 0.889343 0.000000
0.593573 0.888122 0.000000
0.655011 0.886911 0.000000
0.715958 0.885710 0.000000
0.776464 0.884517 0.000000
0.836567 0.883333 0.000000
0.896300 0.882156 0.000000
0.955693 0.880985 0.000000
0.994274 0.880225 0.000000
0.000000 0.958317 0.000000
0.065869 0.956741 0.000000
0.137199 0.955336 0.000000
0.205599 0.953988 0.000000
0.272163 0.952676 0.000000
0.337395 0.951390 0.000000
0.401584 0.950125 0.000000
0.464918 0.948877 0.000000
0.527531 0.947643 0.000000
0.589519 0.946421 0.000000
0.650957 0.945210 0.000000
0.711904 0.944009 0.000000
0.772410 0.942817 0.000000
0.832513 0.941632 0.000000
0.892246 0.940455 0.000000
0.951639 0.939285 0.000000
0.990220 0.938524 0.000000
0.000000 1.000000 0.000000
0.062508 1.000000 0.000000
0.133838 1.000000 0.000000
0.202238 1.000000 0.000000
0.268802 1.000000 0.000000
0.334034 0.999725 0.000000
0.398223 0.998460 0.000000
0.461557 0.997212 0.000000
0.524170 0.995978 0.000000
0.586157 0.994756 0.000000
0.647595 0.993545 0.000000
0.708543 0.992344 0.000000
0.769048 0.991152 0.000000
0.829151 0.989967 0.000000
0.888885 0.988790 0.000000
0.948278 0.987619 0.000000
0.986859 0.986859 0.000000
0.049491 0.039041 0.078240
0.129447 0.037465 0.076665
0.200776 0.036059 0.075259
0.269176 0.034711 0.073911
0.335741 0.033399 0.072599
0.400972 0.032114 0.071313
0.465161 0.030849 0.070048
0.528496 0.029600 0.068800
0.591108 0.028366 0.067566
0.653096 0.027145 0.066345
0.714534 0.025934 0.065134
0.775482 0.024733 0.063933
0.835987 0.023540 0.062740
0.896090 0.022356 0.061556
0.955824 0.021179 0.060378
1.000000 0.020008 0.059208
1.000000 0.019248 0.058447
0.044613 0.109187 0.073363
0.124569 0.107611 0.071787
0.195898 0.106206 0.070381
0.264298 0.104858 0.069033
0.330863 0.103546 0.067721
0.396094 0.102260 0.066435
0.460283 0.100995 0.065170
0.523618 0.099747 0.063922
0.586230 0.098513 0.062688
0.648218 0.097291 0.061467
0.709656 0.096080 0.060256
0.770604 0.094879 0.059055
0.831109 0.093687 0.057862
0.891212 0.092502 0.056678
0.950946 0.091325 0.055500
1.000000 0.090154 0.054330
1.000000 0.089394 0.053569
0.040067 0.174555 0.068817
0.120023 0.172979 0.067241
0.191353 0.171573 0.065835
0.259753 0.170225 0.064487
0.326317 0.168913 0.063175
0.391549 0.167628 0.061890
0.455738 0.166363 0.060625
0.519072 0.165114 0.059377
0.581685 0.163880 0.058143
0.643673 0.162659 0.056921
0.705111 0.161448 0.055710
0.766058 0.160247 0.054509
0.826564 0.159054 0.053317
0.886666 0.157870 0.052132
0.946400 0.156693 0.050955
1.000000 0.155522 0.049784
1.000000 0.154762 0.049024
0.035639 0.238232 0.064389
0.115595 0.236656 0.062813
0.186925 0.235251 0.061407
0.255325 0.233903 0.060059
0.321889 0.232591 0.058747
0.387121 0.231305 0.057462
0.451310 0.230040 0.056197
0.514644 0.228792 0.054948
0.577257 0.227558 0.053715
0.639244 0.226336 0.052493
0.700682 0.225125 0.051282
0.761630 0.223924 0.050081
0.822135 0.222732 0.048888
0.882238 0.221547 0.047704
0.941972 0.220370 0.046527
1.000000 0.219199 0.045356
1.000000 0.218439 0.044596
0.031286 0.300836 0.060035
0.111241 0.299261 0.058460
0.182571 0.297855 0.057054
0.250971 0.296507 0.055706
0.317535 0.295195 0.054394
0.382767 0.293909 0.053108
0.446956 0.292644 0.051843
0.510291 0.291396 0.050595
0.572903 0.290162 0.049361
0.634891 0.288940 0.048139
0.696329 0.287730 0.046929
0.757277 0.286528 0.045727
0.817782 0.285336 0.044535
0.877885 0.284151 0.043350
0.937619 0.282974 0.042173
0.997012 0.281804 0.041003
1.000000 0.281043 0.040242
0.026987 0.362654 0.055737
0.106943 0.361079 0.054161
0.178272 0.359673 0.052755
0.246672 0.358325 0.051407
0.313237 0.357013 0.050095
0.378468 0.355727 0.048809
0.442657 0.354462 0.047544
0.505992 0.353214 0.046296
0.568604 0.351980 0.045062
0.630592 0.350759 0.043841
0.692030 0.349548 0.042630
0.752978 0.348347 0.041429
0.813483 0.347154 0.040236
0.873586 0.345970 0.039052
0.933320 0.344792 0.037874
0.992713 0.343622 0.036704
1.000000 0.342861 0.035943
0.022731 0.423853 0.051481
0.102687 0.422277 0.049905
0.174017 0.420872 0.048499
0.242417 0.419524 0.047151
0.308981 0.418212 0.045839
0.374213 0.416926 0.044554
0.438402 0.415661 0.043289
0.501736 0.414413 0.042040
0.564349 0.413179 0.040807
0.626336 0.411957 0.039585
0.687774 0.410746 0.038374
0.748722 0.409545 0.037173
0.809227 0.408353 0.035980
0.869330 0.407168 0.034796
0.929064 0.405991 0.033619
0.988457 0.404821 0.032448
1.000000 0.404060 0.031688
0.018511 0.484542 0.047261
0.098467 0.482966 0.045685
0.169796 0.481560 0.044279
0.238196 0.480212 0.042931
0.304761 0.478900 0.041619
0.369992 0.477615 0.040334
0.434181 0.476350 0.039068
0.497516 0.475101 0.037820
0.560128 0.473867 0.036586
0.622116 0.472646 0.035365
0.683554 0.471435 0.034154
0.744502 0.470234 0.032953
0.805007 0.469041 0.031760
0.865110 0.467857 0.030576
0.924844 0.466679 0.029398
0.984237 0.465509 0.028228
1.000000 0.464749 0.027468
0.014321 0.544797 0.043070
0.094277 0.543221 0.041495
0.165606 0.541815 0.040089
0.234006 0.540467 0.038741
0.300571 0.539155 0.037429
0.365802 0.537870 0.036143
0.429991 0.536605 0.034878
0.493326 0.535356 0.033630
0.555938 0.534122 0.032396
0.617926 0.532901 0.031175
0.679364 0.531690 0.029964
0.740312 0.530489 0.028763
0.800817 0.529296 0.027570
0.860920 0.528112 0.026386
0.920654 0.526934 0.025208
0.980047 0.525764 0.024038
1.000000 0.525004 0.023277
0.010157 0.604675 0.038907
0.090113 0.603099 0.037331
0.161442 0.601694 0.035925
0.229842 0.600346 0.034577
0.296407 0.599034 0.033265
0.361638 0.597748 0.031979
0.425827 0.596483 0.030714
0.489162 0.595235 0.029466
0.551774 0.594001 0.028232
0.613762 0.592779 0.027011
0.675200 0.591568 0.025800
0.736148 0.590367 0.024599
0.796653 0.589175 0.023406
0.856756 0.587990 0.022222
0.916490 0.586813 0.021044
0.975883 0.585642 0.019874
1.000000 0.584882 0.019113
0.006016 0.664221 0.034766
0.085972 0.662646 0.033190
0.157302 0.661240 0.031784
0.225702 0.659892 0.030436
0.292266 0.658580 0.029124
0.357497 0.657294 0.027839
0.421686 0.656029 0.026574
0.485021 0.654781 0.025325
0.547634 0.653547 0.024091
0.609621 0.652325 0.022870
0.671059 0.651115 0.021659
0.732007 0.649913 0.020458
0.792512 0.648721 0.019265
0.852615 0.647536 0.018081
0.912349 0.646359 0.016904
0.971742 0.645189 0.015733
1.000000 0.644428 0.014973
0.001896 0.723470 0.030646
0.081852 0.721894 0.029070
0.153181 0.720488 0.027664
0.221581 0.719140 0.026316
0.288146 0.717828 0.025004
0.353377 0.716543 0.023719
0.417566 0.715278 0.022454
0.480901 0.714030 0.021205
0.543513 0.712796 0.019971
0.605501 0.711574 0.018750
0.666939 0.710363 0.017539
0.727887 0.709162 0.016338
0.788392 0.707970 0.015145
0.848495 0.706785 0.013961
0.908229 0.705608 0.012783
0.967622 0.704437 0.011613
1.000000 0.703677 0.010853
0.000000 0.782449 0.026544
0.077750 0.780874 0.024968
0.149080 0.779468 0.023563
0.217480 0.778120 0.022215
0.284044 0.776808 0.020903
0.349276 0.775522 0.019617
0.413465 0.774257 0.018352
0.476800 0.773009 0.017104
0.539412 0.771775 0.015870
0.601400 0.770554 0.014648
0.662838 0.769343 0.013437
0.723786 0.768142 0.012236
0.784291 0.766949 0.011044
0.844394 0.765765 0.009859
0.904127 0.764587 0.008682
0.963521 0.763417 0.007512
1.000000 0.762656 0.006751
0.000000 0.841183 0.022460
0.073666 0.839608 0.020884
0.144996 0.838202 0.019478
0.213396 0.836854 0.018130
0.279960 0.835542 0.016818
0.345192 0.834256 0.015533
0.409381 0.832991 0.014268
0.472715 0.831743 0.013020
0.535328 0.830509 0.011786
0.597316 0.829288 0.010564
0.658754 0.828077 0.009353
0.719701 0.826876 0.008152
0.780207 0.825683 0.006959
0.840309 0.824499 0.005775
0.900043 0.823321 0.004598
0.959436 0.822151 0.003427
0.998017 0.821390 0.002667
0.000000 0.899692 0.018391
0.069597 0.898116 0.016815
0.140927 0.896710 0.015410
0.209327 0.895362 0.014062
0.275891 0.894050 0.012750
0.341123 0.892765 0.011464
0.405312 0.891500 0.010199
0.468647 0.890251 0.008951
0.531259 0.889017 0.007717
0.593247 0.887796 0.006495
0.654685 0.886585 0.005284
0.715633 0.885384 0.004083
0.776138 0.884191 0.002891
0.836241 0.883007 0.001706
0.895974 0.881830 0.000529
0.955368 0.880659 0.000000
0.993948 0.879899 0.000000
0.000000 0.957991 0.014337
0.065543 0.956416 0.012761
0.136873 0.955010 0.011356
0.205273 0.953662 0.010008
0.271837 0.952350 0.008696
0.337069 0.951064 0.007410
0.401258 0.949799 0.006145
0.464593 0.948551 0.004897
0.527205 0.947317 0.003663
0.589193 0.946095 0.002441
0.650631 0.944885 0.001230
0.711578 0.943683 0.000029
0.772084 0.942491 0.000000
0.832187 0.941306 0.000000
0.891920 0.940129 0.000000
0.951313 0.938959 0.000000
0.989894 0.938198 0.000000
0.000000 1.000000 0.010976
0.062182 1.000000 0.009400
0.133512 1.000000 0.007994
0.201912 1.000000 0.006646
0.268476 1.000000 0.005334
0.333708 0.999399 0.004049
0.397897 0.998134 0.002784
0.461231 0.996886 0.001536
0.523844 0.995652 0.000302
0.585832 0.994430 0.000000
0.647270 0.993219 0.000000
0.708217 0.992018 0.000000
0.768723 0.990826 0.000000
0.828825 0.989641 0.000000
0.888559 0.988464 0.000000
0.947952 0.987293 0.000000
0.986533 0.986533 0.000000
0.049080 0.038630 0.140455
0.129035 0.037054 0.138879
0.200365 0.035648 0.137473
0.268765 0.034300 0.136125
0.335329 0.032988 0.134813
0.400561 0.031703 0.133528
0.464750 0.030438 0.132263
0.528085 0.029189 0.131015
0.590697 0.027955 0.129781
0.652685 0.026734 0.128559
0.714123 0.025523 0.127348
0.775071 0.024322 0.126147
0.835576 0.023129 0.124954
0.895679 0.021945 0.123770
0.955413 0.020768 0.122593
1.000000 0.019597 0.121422
1.000000 0.018837 0.120662
0.044202 0.108776 0.135577
0.124158 0.107200 0.134001
0.195487 0.105795 0.132595
0.263887 0.104446 0.131247
0.330452 0.103135 0.129935
0.395683 0.101849 0.128650
0.459872 0.100584 0.127385
0.523207 0.099336 0.126137
0.585819 0.098102 0.124903
0.647807 0.096880 0.123681
0.709245 0.095669 0.122470
0.770193 0.094468 0.121269
0.830698 0.093276 0.120076
0.890801 0.092091 0.118892
0.950535 0.090914 0.117715
1.000000 0.089743 0.116544
1.000000 0.088983 0.115784
0.039656 0.174144 0.131031
0.119612 0.172568 0.129455
0.190942 0.171162 0.128050
0.259342 0.169814 0.126702
0.325906 0.168502 0.125390
0.391138 0.167217 0.124104
0.455327 0.165952 0.122839
0.518661 0.164703 0.121591
0.581274 0.163469 0.120357
0.643262 0.162248 0.119135
0.704700 0.161037 0.117924
0.765647 0.159836 0.116723
0.826153 0.158643 0.115531
0.886255 0.157459 0.114346
0.945989 0.156281 0.113169
1.000000 0.155111 0.111999
1.000000 0.154351 0.111238
0.035228 0.237821 0.126603
0.115184 0.236245 0.125027
0.186514 0.234840 0.123622
0.254914 0.233492 0.122274
0.321478 0.232180 0.120962
0.386709 0.230894 0.119676
0.450898 0.229629 0.118411
0.514233 0.228381 0.117163
0.576846 0.227147 0.115929
0.638833 0.225925 0.114707
0.700271 0.224714 0.113496
0.761219 0.223513 0.112295
0.821724 0.222321 0.111103
0.881827 0.221136 0.109918
0.941561 0.219959 0.108741
1.000000 0.218788 0.107570
1.000000 0.218028 0.106810
0.030875 0.300425 0.122250
0.110830 0.298850 0.120674
0.182160 0.297444 0.119268
0.250560 0.296096 0.117920
0.317124 0.294784 0.116608
0.382356 0.293498 0.115323
0.446545 0.292233 0.114058
0.509880 0.290985 0.112809
0.572492 0.289751 0.111575
0.634480 0.288529 0.110354
0.695918 0.287319 0.109143
0.756866 0.286117 0.107942
0.817371 0.284925 0.106749
0.877474 0.283740 0.105565
0.937208 0.282563 0.104388
0.996601 0.281393 0.103217
1.000000 0.280632 0.102457
0.026576 0.362243 0.117951
0.106532 0.360668 0.116375
0.177861 0.359262 0.114969
0.246261 0.357914 0.113621
0.312826 0.356602 0.112309
0.378057 0.355316 0.111024
0.442246 0.354051 0.109759
0.505581 0.352803 0.108511
0.568193 0.351569 0.107277
0.630181 0.350347 0.106055
0.691619 0.349137 0.104844
0.752567 0.347935 0.103643
0.813072 0.346743 0.102450
0.873175 0.345559 0.101266
0.932909 0.344381 0.100089
0.992302 0.343211 0.098918
1.000000 0.342450 0.098158
0.022320 0.423442 0.113695
0.102276 0.421866 0.112119
0.173606 0.420461 0.110714
0.242006 0.419113 0.109366
0.308570 0.417801 0.108054
0.373801 0.416515 0.106768
0.437990 0.415250 0.105503
0.501325 0.414002 0.104255
0.563938 0.412768 0.103021
0.625925 0.411546 0.101799
0.687363 0.410335 0.100588
0.748311 0.409134 0.099387
0.808816 0.407942 0.098195
0.868919 0.406757 0.097010
0.928653 0.405580 0.095833
0.988046 0.404409 0.094662
1.000000 0.403649 0.093902
0.018100 0.484131 0.109475
0.098056 0.482555 0.107899
0.169385 0.481149 0.106493
0.237785 0.479801 0.105145
0.304350 0.478489 0.103833
0.369581 0.477204 0.102548
0.433770 0.475939 0.101283
0.497105 0.474690 0.100035
0.559717 0.473456 0.098801
0.621705 0.472235 0.097579
0.683143 0.471024 0.096368
0.744091 0.469823 0.095167
0.804596 0.468630 0.093975
0.864699 0.467446 0.092790
0.924433 0.466268 0.091613
0.983826 0.465098 0.090442
1.000000 0.464338 0.089682
0.013910 0.544386 0.105285
0.093865 0.542810 0.103709
0.165195 0.541404 0.102303
0.233595 0.540056 0.100955
0.300159 0.538744 0.099643
0.365391 0.537459 0.098358
0.429580 0.536193 0.097093
0.492915 0.534945 0.095845
0.555527 0.533711 0.094611
0.617515 0.532490 0.093389
0.678953 0.531279 0.092178
0.739901 0.530078 0.090977
0.800406 0.528885 0.089784
0.860509 0.527701 0.088600
0.920243 0.526523 0.087423
0.979636 0.525353 0.086252
1.000000 0.524593 0.085492
0.009746 0.604264 0.101121
0.089702 0.602688 0.099545
0.161031 0.601283 0.098139
0.229431 0.599935 0.096791
0.295996 0.598623 0.095479
0.361227 0.597337 0.094194
0.425416 0.596072 0.092929
0.488751 0.594824 0.091681
0.551363 0.593590 0.090447
0.613351 0.592368 0.089225
0.674789 0.591157 0.088014
0.735737 0.589956 0.086813
0.796242 0.588764 0.085620
0.856345 0.587579 0.084436
0.916079 0.586402 0.083259
0.975472 0.585231 0.082088
1.000000 0.584471 0.081328
0.005605 0.663810 0.096980
0.085561 0.662234 0.095404
0.156891 0.660829 0.093999
0.225291 0.659481 0.092650
0.291855 0.658169 0.091339
0.357086 0.656883 0.090053
0.421275 0.655618 0.088788
0.484610 0.654370 0.087540
0.547223 0.653136 0.086306
0.609210 0.651914 0.085084
0.670648 0.650703 0.083873
0.731596 0.649502 0.082672
0.792101 0.648310 0.081480
0.852204 0.647125 0.080295
0.911938 0.645948 0.079118
0.971331 0.644778 0.077947
1.000000 0.644017 0.077187
0.001485 0.723059 0.092860
0.081441 0.721483 0.091284
0.152770 0.720077 0.089878
0.221170 0.718729 0.088530
0.287735 0.717417 0.087219
0.352966 0.716132 0.085933
0.417155 0.714867 0.084668
0.480490 0.713619 0.083420
0.543102 0.712385 0.082186
0.605090 0.711163 0.080964
0.666528 0.709952 0.079753
0.727476 0.708751 0.078552
0.787981 0.707558 0.077360
0.848084 0.706374 0.076175
0.907818 0.705197 0.074998
0.967211 0.704026 0.073827
1.000000 0.703266 0.073067
0.000000 0.782038 0.088759
0.077339 0.780463 0.087183
0.148669 0.779057 0.085777
0.217069 0.777709 0.084429
0.283633 0.776397 0.083117
0.348865 0.775111 0.081832
0.413054 0.773846 0.080566
0.476389 0.772598 0.079318
0.539001 0.771364 0.078084
0.600989 0.770142 0.076863
0.662427 0.768932 0.075652
0.723374 0.767730 0.074451
0.783880 0.766538 0.073258
0.843983 0.765353 0.072074
0.903716 0.764176 0.070896
0.963109 0.763006 0.069726
1.000000 0.762245 0.068966
0.000000 0.840772 0.084674
0.073255 0.839197 0.083098
0.144585 0.837791 0.081693
0.212985 0.836443 0.080345
0.279549 0.835131 0.079033
0.344781 0.833845 0.077747
0.408970 0.832580 0.076482
0.472304 0.831332 0.075234
0.534917 0.830098 0.074000
0.596904 0.828876 0.072778
0.658342 0.827666 0.071567
0.719290 0.826464 0.070366
0.779795 0.825272 0.069174
0.839898 0.824087 0.067989
0.899632 0.822910 0.066812
0.959025 0.821740 0.065642
0.997606 0.820979 0.064881
0.000000 0.899281 0.080606
0.069186 0.897705 0.079030
0.140516 0.896299 0.077624
0.208916 0.894951 0.076276
0.275480 0.893639 0.074964
0.340712 0.892354 0.073679
0.404901 0.891089 0.072413
0.468236 0.889840 0.071165
0.530848 0.888606 0.069931
0.592836 0.887385 0.068710
0.654274 0.886174 0.067499
0.715221 0.884973 0.066298
0.775727 0.883780 0.065105
0.835830 0.882596 0.063921
0.895563 0.881419 0.062743
0.954957 0.880248 0.061573
0.993537 0.879488 0.060813
0.000000 0.957580 0.076551
0.065132 0.956005 0.074976
0.136462 0.954599 0.073570
0.204862 0.953251 0.072222
0.271426 0.951939 0.070910
0.336658 0.950653 0.069624
0.400847 0.949388 0.068359
0.464181 0.948140 0.067111
0.526794 0.946906 0.065877
0.588782 0.945684 0.064656
0.650220 0.944473 0.063445
0.711167 0.943272 0.062244
0.771673 0.942080 0.061051
0.831776 0.940895 0.059867
0.891509 0.939718 0.058689
0.950902 0.938548 0.057519
0.989483 0.937787 0.056758
0.000000 1.000000 0.073190
0.061771 1.000000 0.071615
0.133101 1.000000 0.070209
0.201501 1.000000 0.068861
0.268065 1.000000 0.067549
0.333297 0.998988 0.066263
0.397486 0.997723 0.064998
0.460820 0.996475 0.063750
0.523433 0.995241 0.062516
0.585421 0.994019 0.061294
0.646859 0.992808 0.060083
0.707806 0.991607 0.058882
0.768312 0.990415 0.057690
0.828414 0.989230 0.056505
0.888148 0.988053 0.055328
0.947541 0.986882 0.054158
0.986122 0.986122 0.053397
0.048662 0.038212 0.203653
0.128618 0.036636 0.202077
0.199948 0.035231 0.200671
0.268348 0.033883 0.199323
0.334912 0.032571 0.198011
0.400144 0.031285 0.196726
0.464333 0.030020 0.195461
0.527667 0.028772 0.194212
0.590280 0.027538 0.192978
0.652268 0.026316 0.191757
0.713706 0.025105 0.190546
0.774653 0.023904 0.189345
0.835159 0.022712 0.188152
0.895261 0.021527 0.186968
0.954995 0.020350 0.185791
1.000000 0.019179 0.184620
1.000000 0.018419 0.183860
0.043784 0.108359 0.198775
0.123740 0.106783 0.197199
