project/modules/step7_final_render/luts/travel.cube
TITLE "Travel"
LUT_3D_SIZE 9
DOMAIN_MIN 0.0 0.0 0.0
DOMAIN_MAX 1.0 1.0 1.0
0.049817 0.039367 0.028917
0.201102 0.036385 0.025935
0.336066 0.033725 0.023275
0.465487 0.031175 0.020725
0.591434 0.028692 0.018242
0.714860 0.026260 0.015810
0.836313 0.023866 0.013416
0.956150 0.021504 0.011054
1.000000 0.019574 0.009124
0.040393 0.174881 0.019493
0.191679 0.171899 0.016511
0.326643 0.169239 0.013852
0.456063 0.166688 0.011301
0.582011 0.164206 0.008819
0.705436 0.161774 0.006386
0.826889 0.159380 0.003993
0.946726 0.157018 0.001631
1.000000 0.155087 0.000000
0.031611 0.301162 0.010711
0.182897 0.298181 0.007730
0.317861 0.295521 0.005070
0.447282 0.292970 0.002519
0.573229 0.290488 0.000037
0.696655 0.288055 0.000000
0.818108 0.285662 0.000000
0.937944 0.283300 0.000000
1.000000 0.281369 0.000000
0.023057 0.424179 0.002157
0.174343 0.421198 0.000000
0.309307 0.418538 0.000000
0.438727 0.415987 0.000000
0.564675 0.413505 0.000000
0.688100 0.411072 0.000000
0.809553 0.408679 0.000000
0.929390 0.406317 0.000000
1.000000 0.404386 0.000000
0.014647 0.545123 0.000000
0.165932 0.542141 0.000000
0.300896 0.539481 0.000000
0.430317 0.536930 0.000000
0.556264 0.534448 0.000000
0.679690 0.532016 0.000000
0.801143 0.529622 0.000000
0.920980 0.527260 0.000000
1.000000 0.525329 0.000000
0.006342 0.664547 0.000000
0.157627 0.661566 0.000000
0.292592 0.658906 0.000000
0.422012 0.656355 0.000000
0.547959 0.653873 0.000000
0.671385 0.651440 0.000000
0.792838 0.649047 0.000000
0.912675 0.646685 0.000000
1.000000 0.644754 0.000000
0.000000 0.782775 0.000000
0.149406 0.779794 0.000000
0.284370 0.777134 0.000000
0.413791 0.774583 0.000000
0.539738 0.772101 0.000000
0.663164 0.769669 0.000000
0.784617 0.767275 0.000000
0.904453 0.764913 0.000000
1.000000 0.762982 0.000000
0.000000 0.900018 0.000000
0.141253 0.897036 0.000000
0.276217 0.894376 0.000000
0.405638 0.891826 0.000000
0.531585 0.889343 0.000000
0.655011 0.886911 0.000000
0.776464 0.884517 0.000000
0.896300 0.882156 0.000000
0.994274 0.880225 0.000000
0.000000 1.000000 0.000000
0.133838 1.000000 0.000000
0.268802 1.000000 0.000000
0.398223 0.998460 0.000000
0.524170 0.995978 0.000000
0.647595 0.993545 0.000000
0.769048 0.991152 0.000000
0.888885 0.988790 0.000000
0.986859 0.986859 0.000000
0.049080 0.038630 0.140455
0.200365 0.035648 0.137473
0.335329 0.032988 0.134813
0.464750 0.030438 0.132263
0.590697 0.027955 0.129781
0.714123 0.025523 0.127348
0.835576 0.023129 0.124954
0.955413 0.020768 0.122593
1.000000 0.018837 0.120662
0.039656 0.174144 0.131031
0.190942 0.171162 0.128050
0.325906 0.168502 0.125390
0.455327 0.165952 0.122839
0.581274 0.163469 0.120357
0.704700 0.161037 0.117924
0.826153 0.158643 0.115531
0.945989 0.156281 0.113169
1.000000 0.154351 0.111238
0.030875 0.300425 0.122250
0.182160 0.297444 0.119268
0.317124 0.294784 0.116608
0.446545 0.292233 0.114058
0.572492 0.289751 0.111575
0.695918 0.287319 0.109143
0.817371 0.284925 0.106749
0.937208 0.282563 0.104388
1.000000 0.280632 0.102457
0.022320 0.423442 0.113695
0.173606 0.420461 0.110714
0.308570 0.417801 0.108054
0.437990 0.415250 0.105503
0.563938 0.412768 0.103021
0.687363 0.410335 0.100588
0.808816 0.407942 0.098195
0.928653 0.405580 0.095833
1.000000 0.403649 0.093902
0.013910 0.544386 0.105285
0.165195 0.541404 0.102303
0.300159 0.538744 0.099643
0.429580 0.536193 0.097093
0.555527 0.533711 0.094611
0.678953 0.531279 0.092178
0.800406 0.528885 0.089784
0.920243 0.526523 0.087423
1.000000 0.524593 0.085492
0.005605 0.663810 0.096980
0.156891 0.660829 0.093999
0.291855 0.658169 0.091339
0.421275 0.655618 0.088788
0.547223 0.653136 0.086306
0.670648 0.650703 0.083873
0.792101 0.648310 0.081480
0.911938 0.645948 0.079118
1.000000 0.644017 0.077187
0.000000 0.782038 0.088759
0.148669 0.779057 0.085777
0.283633 0.776397 0.083117
0.413054 0.773846 0.080566
0.539001 0.771364 0.078084
0.662427 0.768932 0.075652
0.783880 0.766538 0.073258
0.903716 0.764176 0.070896
1.000000 0.762245 0.068966
0.000000 0.899281 0.080606
0.140516 0.896299 0.077624
0.275480 0.893639 0.074964
0.404901 0.891089 0.072413
0.530848 0.888606 0.069931
0.654274 0.886174 0.067499
0.775727 0.883780 0.065105
0.895563 0.881419 0.062743
0.993537 0.879488 0.060813
0.000000 1.000000 0.073190
0.133101 1.000000 0.070209
0.268065 1.000000 0.067549
0.397486 0.997723 0.064998
0.523433 0.995241 0.062516
0.646859 0.992808 0.060083
0.768312 0.990415 0.057690
0.888148 0.988053 0.055328
0.986122 0.986122 0.053397
0.048240 0.037790 0.267498
0.199526 0.034809 0.264516
0.334490 0.032149 0.261857
0.463911 0.029598 0.259306
0.589858 0.027116 0.256824
0.713284 0.024684 0.254391
0.834737 0.022290 0.251998
0.954573 0.019928 0.249636
1.000000 0.017997 0.247705
0.038817 0.173304 0.258074
0.190102 0.170323 0.255093
0.325067 0.167663 0.252433
0.454487 0.165112 0.249882
0.580434 0.162630 0.247400
0.703860 0.160197 0.244968
0.825313 0.157804 0.242574
0.945150 0.155442 0.240212
1.000000 0.153511 0.238281
0.030035 0.299586 0.249293
0.181321 0.296604 0.246311
0.316285 0.293945 0.243651
0.445706 0.291394 0.241101
0.571653 0.288912 0.238619
0.695079 0.286479 0.236186
0.816532 0.284086 0.233793
0.936368 0.281724 0.231431
1.000000 0.279793 0.229500
0.021481 0.422603 0.240738
0.172766 0.419621 0.237757
0.307730 0.416961 0.235097
0.437151 0.414411 0.232546
0.563098 0.411929 0.230064
0.686524 0.409496 0.227632
0.807977 0.407102 0.225238
0.927814 0.404741 0.222876
1.000000 0.402810 0.220945
0.013070 0.543546 0.232328
0.164356 0.540565 0.229346
0.299320 0.537905 0.226687
0.428741 0.535354 0.224136
0.554688 0.532872 0.221654
0.678114 0.530439 0.219221
0.799567 0.528046 0.216828
0.919403 0.525684 0.214466
1.000000 0.523753 0.212535
0.004766 0.662971 0.224023
0.156051 0.659989 0.221042
0.291015 0.657329 0.218382
0.420436 0.654779 0.215831
0.546383 0.652297 0.213349
0.669809 0.649864 0.210917
0.791262 0.647470 0.208523
0.911099 0.645109 0.206161
1.000000 0.643178 0.204230
0.000000 0.781199 0.215802
0.147830 0.778217 0.212820
0.282794 0.775558 0.210160
0.412214 0.773007 0.207610
0.538162 0.770525 0.205127
0.661587 0.768092 0.202695
0.783040 0.765699 0.200301
0.902877 0.763337 0.197940
1.000000 0.761406 0.196009
0.000000 0.898441 0.207649
0.139677 0.895460 0.204667
0.274641 0.892800 0.202007
0.404062 0.890249 0.199457
0.530009 0.887767 0.196975
0.653434 0.885335 0.194542
0.774887 0.882941 0.192148
0.894724 0.880579 0.189787
0.992698 0.878648 0.187856
0.000000 1.000000 0.200234
0.132261 1.000000 0.197252
0.267226 0.999434 0.194592
0.396646 0.996884 0.192041
0.522593 0.994401 0.189559
0.646019 0.991969 0.187127
0.767472 0.989575 0.184733
0.887309 0.987214 0.182371
0.985283 0.985283 0.180440
0.047388 0.036938 0.396550
0.198673 0.033956 0.393568
0.333637 0.031296 0.390908
0.463058 0.028746 0.388358
0.589005 0.026263 0.385875
0.712431 0.023831 0.383443
0.833884 0.021437 0.381049
0.953721 0.019075 0.378688
1.000000 0.017145 0.376757
0.037964 0.172452 0.387126
0.189250 0.169470 0.384145
0.324214 0.166810 0.381485
0.453635 0.164259 0.378934
0.579582 0.161777 0.376452
0.703008 0.159345 0.374019
0.824461 0.156951 0.371626
0.944297 0.154589 0.369264
1.000000 0.152659 0.367333
0.029183 0.298733 0.378345
0.180468 0.295752 0.375363
0.315432 0.293092 0.372703
0.444853 0.290541 0.370153
0.570800 0.288059 0.367670
0.694226 0.285627 0.365238
0.815679 0.283233 0.362844
0.935516 0.280871 0.360482
1.000000 0.278940 0.358552
0.020628 0.421750 0.369790
0.171914 0.418769 0.366809
0.306878 0.416109 0.364149
0.436298 0.413558 0.361598
0.562246 0.411076 0.359116
0.685671 0.408643 0.356683
0.807124 0.406250 0.354290
0.926961 0.403888 0.351928
1.000000 0.401957 0.349997
0.012218 0.542694 0.361380
0.163503 0.539712 0.358398
0.298467 0.537052 0.355738
0.427888 0.534501 0.353188
0.553835 0.532019 0.350705
0.677261 0.529587 0.348273
0.798714 0.527193 0.345879
0.918551 0.524831 0.343518
1.000000 0.522901 0.341587
0.003913 0.662118 0.353075
0.155199 0.659137 0.350093
0.290163 0.656477 0.347434
0.419583 0.653926 0.344883
0.545531 0.651444 0.342401
0.668956 0.649011 0.339968
0.790409 0.646618 0.337575
0.910246 0.644256 0.335213
1.000000 0.642325 0.333282
0.000000 0.780346 0.344854
0.146977 0.777365 0.341872
0.281941 0.774705 0.339212
0.411362 0.772154 0.336661
0.537309 0.769672 0.334179
0.660735 0.767240 0.331747
0.782188 0.764846 0.329353
0.902024 0.762484 0.326991
0.999998 0.760553 0.325060
0.000000 0.897589 0.336701
0.138824 0.894607 0.333719
0.273788 0.891947 0.331059
0.403209 0.889397 0.328508
0.529156 0.886914 0.326026
0.652582 0.884482 0.323594
0.774035 0.882088 0.321200
0.893871 0.879727 0.318838
0.991845 0.877796 0.316907
0.000000 1.000000 0.329285
0.131409 1.000000 0.326304
0.266373 0.998582 0.323644
0.395794 0.996031 0.321093
0.521741 0.993549 0.318611
0.645167 0.991116 0.316178
0.766620 0.988723 0.313785
0.886456 0.986361 0.311423
0.984430 0.984430 0.309492
0.046526 0.036076 0.526923
0.197812 0.033095 0.523942
0.332776 0.030435 0.521282
0.462197 0.027884 0.518731
0.588144 0.025402 0.516249
0.711570 0.022969 0.513817
0.833023 0.020576 0.511423
0.952859 0.018214 0.509061
1.000000 0.016283 0.507130
0.037103 0.171590 0.517500
0.188388 0.168609 0.514518
0.323353 0.165949 0.511858
0.452773 0.163398 0.509308
0.578720 0.160916 0.506826
0.702146 0.158483 0.504393
0.823599 0.156090 0.501999
0.943436 0.153728 0.499638
1.000000 0.151797 0.497707
0.028321 0.297872 0.508718
0.179607 0.294890 0.505737
0.314571 0.292230 0.503077
0.443992 0.289680 0.500526
0.569939 0.287198 0.498044
0.693365 0.284765 0.495611
0.814818 0.282372 0.493218
0.934654 0.280010 0.490856
1.000000 0.278079 0.488925
0.019767 0.420889 0.500164
0.171052 0.417907 0.497182
0.306016 0.415247 0.494522
0.435437 0.412697 0.491972
0.561384 0.410214 0.489489
0.684810 0.407782 0.487057
0.806263 0.405388 0.484663
0.926100 0.403027 0.482302
1.000000 0.401096 0.480371
0.011356 0.541832 0.491753
0.162642 0.538851 0.488772
0.297606 0.536191 0.486112
0.427027 0.533640 0.483561
0.552974 0.531158 0.481079
0.676400 0.528725 0.478647
0.797853 0.526332 0.476253
0.917689 0.523970 0.473891
1.000000 0.522039 0.471960
0.003052 0.661257 0.483449
0.154337 0.658275 0.480467
0.289301 0.655615 0.477807
0.418722 0.653065 0.475257
0.544669 0.650583 0.472774
0.668095 0.648150 0.470342
0.789548 0.645756 0.467948
0.909385 0.643395 0.465586
1.000000 0.641464 0.463656
0.000000 0.779485 0.475227
0.146116 0.776503 0.472246
0.281080 0.773844 0.469586
0.410500 0.771293 0.467035
0.536448 0.768811 0.464553
0.659873 0.766378 0.462120
0.781326 0.763985 0.459727
0.901163 0.761623 0.457365
0.999137 0.759692 0.455434
0.000000 0.896727 0.467074
0.137963 0.893746 0.464093
0.272927 0.891086 0.461433
0.402347 0.888535 0.458882
0.528295 0.886053 0.456400
0.651720 0.883621 0.453967
0.773173 0.881227 0.451574
0.893010 0.878865 0.449212
0.990984 0.876934 0.447281
0.000000 1.000000 0.459659
0.130547 1.000000 0.456677
0.265512 0.997720 0.454017
0.394932 0.995170 0.451467
0.520879 0.992687 0.448985
0.644305 0.990255 0.446552
0.765758 0.987861 0.444158
0.885595 0.985500 0.441797
0.983569 0.983569 0.439866
0.045658 0.035208 0.658289
0.196944 0.032227 0.655307
0.331908 0.029567 0.652647
0.461329 0.027016 0.650097
0.587276 0.024534 0.647615
0.710702 0.022102 0.645182
0.832155 0.019708 0.642788
0.951991 0.017346 0.640427
1.000000 0.015415 0.638496
0.036235 0.170722 0.648865
0.187520 0.167741 0.645884
0.322485 0.165081 0.643224
0.451905 0.162530 0.640673
0.577852 0.160048 0.638191
0.701278 0.157616 0.635758
0.822731 0.155222 0.633365
0.942568 0.152860 0.631003
1.000000 0.150929 0.629072
0.027453 0.297004 0.640084
0.178739 0.294022 0.637102
0.313703 0.291363 0.634442
0.443124 0.288812 0.631892
0.569071 0.286330 0.629409
0.692497 0.283897 0.626977
0.813950 0.281504 0.624583
0.933786 0.279142 0.622222
1.000000 0.277211 0.620291
0.018899 0.420021 0.631529
0.170184 0.417039 0.628548
0.305148 0.414379 0.625888
0.434569 0.411829 0.623337
0.560516 0.409347 0.620855
0.683942 0.406914 0.618422
0.805395 0.404520 0.616029
0.925232 0.402159 0.613667
1.000000 0.400228 0.611736
0.010488 0.540964 0.623119
0.161774 0.537983 0.620137
0.296738 0.535323 0.617477
0.426159 0.532772 0.614927
0.552106 0.530290 0.612445
0.675532 0.527857 0.610012
0.796985 0.525464 0.607618
0.916821 0.523102 0.605257
1.000000 0.521171 0.603326
0.002184 0.660389 0.614814
0.153469 0.657407 0.611833
0.288433 0.654747 0.609173
0.417854 0.652197 0.606622
0.543801 0.649715 0.604140
0.667227 0.647282 0.601707
0.788680 0.644889 0.599314
0.908517 0.642527 0.596952
1.000000 0.640596 0.595021
0.000000 0.778617 0.606593
0.145248 0.775636 0.603611
0.280212 0.772976 0.600951
0.409633 0.770425 0.598400
0.535580 0.767943 0.595918
0.659005 0.765510 0.593486
0.780458 0.763117 0.591092
0.900295 0.760755 0.588730
0.998269 0.758824 0.586800
0.000000 0.895859 0.598440
0.137095 0.892878 0.595458
0.272059 0.890218 0.592798
0.401480 0.887667 0.590247
0.527427 0.885185 0.587765
0.650853 0.882753 0.585333
0.772306 0.880359 0.582939
0.892142 0.877997 0.580577
0.990116 0.876066 0.578647
0.000000 1.000000 0.591024
0.129679 0.999512 0.588043
0.264644 0.996852 0.585383
0.394064 0.994302 0.582832
0.520011 0.991819 0.580350
0.643437 0.989387 0.577917
0.764890 0.986993 0.575524
0.884727 0.984632 0.573162
0.982701 0.982701 0.571231
0.044785 0.034335 0.790450
0.196071 0.031354 0.787469
0.331035 0.028694 0.784809
0.460456 0.026143 0.782258
0.586403 0.023661 0.779776
0.709829 0.021228 0.777343
0.831282 0.018835 0.774950
0.951118 0.016473 0.772588
1.000000 0.014542 0.770657
0.035362 0.169849 0.781027
0.186647 0.166868 0.778045
0.321611 0.164208 0.775385
0.451032 0.161657 0.772834
0.576979 0.159175 0.770352
0.700405 0.156742 0.767920
0.821858 0.154349 0.765526
0.941695 0.151987 0.763164
1.000000 0.150056 0.761234
0.026580 0.296131 0.772245
0.177866 0.293149 0.769263
0.312830 0.290489 0.766604
0.442250 0.287939 0.764053
0.568198 0.285457 0.761571
0.691623 0.283024 0.759138
0.813076 0.280630 0.756745
0.932913 0.278269 0.754383
1.000000 0.276338 0.752452
0.018025 0.419148 0.763690
0.169311 0.416166 0.760709
0.304275 0.413506 0.758049
0.433696 0.410956 0.755498
0.559643 0.408473 0.753016
0.683069 0.406041 0.750584
0.804522 0.403647 0.748190
0.924359 0.401285 0.745828
1.000000 0.399355 0.743897
0.009615 0.540091 0.755280
0.160901 0.537110 0.752299
0.295865 0.534450 0.749639
0.425286 0.531899 0.747088
0.551233 0.529417 0.744606
0.674659 0.526984 0.742173
0.796112 0.524591 0.739780
0.915948 0.522229 0.737418
1.000000 0.520298 0.735487
0.001310 0.659516 0.746975
0.152596 0.656534 0.743994
0.287560 0.653874 0.741334
0.416981 0.651324 0.738783
0.542928 0.648841 0.736301
0.666354 0.646409 0.733869
0.787807 0.644015 0.731475
0.907643 0.641654 0.729113
1.000000 0.639723 0.727182
0.000000 0.777744 0.738754
0.144374 0.774762 0.735772
0.279339 0.772102 0.733112
0.408759 0.769552 0.730562
0.534707 0.767070 0.728080
0.658132 0.764637 0.725647
0.779585 0.762243 0.723253
0.899422 0.759882 0.720892
0.997396 0.757951 0.718961
0.000000 0.894986 0.730601
0.136222 0.892005 0.727619
0.271186 0.889345 0.724959
0.400606 0.886794 0.722409
0.526554 0.884312 0.719927
0.649979 0.881879 0.717494
0.771432 0.879486 0.715100
0.891269 0.877124 0.712739
0.989243 0.875193 0.710808
0.000000 1.000000 0.723186
0.128806 0.998639 0.720204
0.263770 0.995979 0.717544
0.393191 0.993428 0.714993
0.519138 0.990946 0.712511
0.642564 0.988514 0.710079
0.764017 0.986120 0.707685
0.883854 0.983758 0.705323
0.981828 0.981828 0.703393
0.043908 0.033458 0.923277
0.195193 0.030476 0.920295
0.330157 0.027816 0.917636
0.459578 0.025265 0.915085
0.585525 0.022783 0.912603
0.708951 0.020351 0.910170
0.830404 0.017957 0.907777
0.950241 0.015595 0.905415
1.000000 0.013665 0.903484
0.034484 0.168972 0.913853
0.185770 0.165990 0.910872
0.320734 0.163330 0.908212
0.450154 0.160779 0.905661
0.576102 0.158297 0.903179
0.699527 0.155865 0.900747
0.820980 0.153471 0.898353
0.940817 0.151109 0.895991
1.000000 0.149178 0.894060
0.025702 0.295253 0.905072
0.176988 0.292272 0.902090
0.311952 0.289612 0.899430
0.441373 0.287061 0.896880
0.567320 0.284579 0.894398
0.690746 0.282146 0.891965
0.812199 0.279753 0.889571
0.932035 0.277391 0.887210
1.000000 0.275460 0.885279
0.017148 0.418270 0.896517
0.168434 0.415289 0.893536
0.303398 0.412629 0.890876
0.432818 0.410078 0.888325
0.558766 0.407596 0.885843
0.682191 0.405163 0.883411
0.803644 0.402770 0.881017
0.923481 0.400408 0.878655
1.000000 0.398477 0.876724
0.008738 0.539213 0.888107
0.160023 0.536232 0.885125
0.294987 0.533572 0.882465
0.424408 0.531021 0.879915
0.550355 0.528539 0.877433
0.673781 0.526107 0.875000
0.795234 0.523713 0.872607
0.915071 0.521351 0.870245
1.000000 0.519420 0.868314
0.000433 0.658638 0.879802
0.151718 0.655657 0.876821
0.286683 0.652997 0.874161
0.416103 0.650446 0.871610
0.542050 0.647964 0.869128
0.665476 0.645531 0.866695
0.786929 0.643138 0.864302
0.906766 0.640776 0.861940
1.000000 0.638845 0.860009
0.000000 0.776866 0.871581
0.143497 0.773885 0.868599
0.278461 0.771225 0.865939
0.407882 0.768674 0.863389
0.533829 0.766192 0.860906
0.657255 0.763760 0.858474
0.778708 0.761366 0.856080
0.898544 0.759004 0.853719
0.996518 0.757073 0.851788
0.000000 0.894109 0.863428
0.135344 0.891127 0.860446
0.270308 0.888467 0.857786
0.399729 0.885917 0.855236
0.525676 0.883434 0.852753
0.649102 0.881002 0.850321
0.770555 0.878608 0.847927
0.890391 0.876246 0.845566
0.988365 0.874316 0.843635
0.000000 1.000000 0.856012
0.127929 0.997761 0.853031
0.262893 0.995102 0.850371
0.392313 0.992551 0.847820
0.518261 0.990069 0.845338
0.641686 0.987636 0.842906
0.763139 0.985243 0.840512
0.882976 0.982881 0.838150
0.980950 0.980950 0.836219
0.043026 0.032576 1.000000
0.194312 0.029595 1.000000
0.329276 0.026935 1.000000
0.458697 0.024384 1.000000
0.584644 0.021902 1.000000
0.708070 0.019469 1.000000
0.829523 0.017076 1.000000
0.949359 0.014714 1.000000
1.000000 0.012783 1.000000
0.033603 0.168090 1.000000
0.184888 0.165109 1.000000
0.319852 0.162449 1.000000
0.449273 0.159898 1.000000
0.575220 0.157416 1.000000
0.698646 0.154983 1.000000
0.820099 0.152590 1.000000
0.939936 0.150228 1.000000
1.000000 0.148297 1.000000
0.024821 0.294372 1.000000
0.176107 0.291390 1.000000
0.311071 0.288730 1.000000
0.440492 0.286180 1.000000
0.566439 0.283698 1.000000
0.689864 0.281265 1.000000
0.811317 0.278871 1.000000
0.931154 0.276510 1.000000
1.000000 0.274579 1.000000
0.016267 0.417389 1.000000
0.167552 0.414407 1.000000
0.302516 0.411747 1.000000
0.431937 0.409197 1.000000
0.557884 0.406714 1.000000
0.681310 0.404282 1.000000
0.802763 0.401888 1.000000
0.922600 0.399527 1.000000
1.000000 0.397596 1.000000
0.007856 0.538332 1.000000
0.159142 0.535351 1.000000
0.294106 0.532691 1.000000
0.423527 0.530140 1.000000
0.549474 0.527658 1.000000
0.672900 0.525225 1.000000
0.794353 0.522832 1.000000
0.914189 0.520470 1.000000
1.000000 0.518539 1.000000
0.000000 0.657757 1.000000
0.150837 0.654775 1.000000
0.285801 0.652115 1.000000
0.415222 0.649565 1.000000
0.541169 0.647082 1.000000
0.664595 0.644650 1.000000
0.786048 0.642256 0.997701
0.905884 0.639895 0.995339
1.000000 0.637964 0.993408
0.000000 0.775985 1.000000
0.142616 0.773003 1.000000
0.277580 0.770343 0.999338
0.407000 0.767793 0.996788
0.532948 0.765311 0.994306
0.656373 0.762878 0.991873
0.777826 0.760485 0.989480
0.897663 0.758123 0.987118
0.995637 0.756192 0.985187
0.000000 0.893227 0.996827
0.134463 0.890246 0.993845
0.269427 0.887586 0.991185
0.398847 0.885035 0.988635
0.524795 0.882553 0.986153
0.648220 0.880120 0.983720
0.769673 0.877727 0.981327
0.889510 0.875365 0.978965
0.987484 0.873434 0.977034
0.000000 0.999862 0.989412
0.127047 0.996880 0.986430
0.262011 0.994220 0.983770
0.391432 0.991670 0.981220
0.517379 0.989187 0.978737
0.640805 0.986755 0.976305
0.762258 0.984361 0.973911
0.882095 0.981999 0.971549
0.980069 0.980069 0.969619
